!!!!SEGMENT: pl-sa--222-a-vi-26--001_brixi-viktorin-eia-chori-exsultate.krn
!!!id: 17xx:594
!!!COM: Brixi, Viktorín
!!!OTL: Eia chori exsultate
!!!PDT:
!!!SMS-siglum: PL-SA
!!!SMS-shelfmark: 222/A VI 26
!!!SMS-variant:
!!!SMS-altvar:
!!!NIFC-rismID: 1001062979
!!!system-decoration: [(s1,s2)][(s3,s4)][(s5,s6,s7,s8)][(s9,s10,s11)]s12
**kern	**kern	**dynam	**kern	**dynam	**kern	**dynam	**kern	**text	**kern	**text	**kern	**text	**kern	**text	**kern	**kern	**kern	**kern	**dynam
*part12	*part11	*part11	*part10	*part10	*part9	*part9	*part8	*part8	*part7	*part7	*part6	*part6	*part5	*part5	*part4	*part3	*part2	*part1	*part1
*staff12	*staff11	*staff11	*staff10	*staff10	*staff9	*staff9	*staff8	*staff8	*staff7	*staff7	*staff6	*staff6	*staff5	*staff5	*staff4	*staff3	*staff2	*staff1	*staff1
*I"Baſso	*I"Alto Viola	*	*I"Violino Secondo.	*	*I"Violino Primo	*	*I"Baſso	*	*I"Tenore	*	*I"Alto	*	*I"Canto	*	*I"Cornus Secondo Ex F.	*I"Cornu Primo ex F	*I"Oboe Secondo	*I"Oboe prymo	*
*I'bc	*I'a-vla	*	*I'vl 2	*	*I'vl 1	*	*I'B	*	*I'T	*	*I'A	*	*I'S	*	*I'cor 2	*I'cor 1	*I'ob 2	*I'ob 1	*
*clefF4	*clefC3	*	*clefG2	*	*clefG2	*	*clefF4	*	*clefC4	*	*clefC3	*	*clefC1	*	*clefG2	*clefG2	*clefG2	*clefG2	*
*	*	*	*	*	*	*	*	*	*	*	*	*	*	*	*ITrd4c7	*ITrd4c7	*	*	*
*k[b-]	*k[b-]	*	*k[b-]	*	*k[b-]	*	*k[b-]	*	*k[b-]	*	*k[b-]	*	*k[b-]	*	*k[b-]	*k[b-]	*k[b-]	*k[b-]	*
*M4/4	*M4/4	*	*M4/4	*	*M4/4	*	*M4/4	*	*M4/4	*	*M4/4	*	*M4/4	*	*M4/4	*M4/4	*M4/4	*M4/4	*
*met(c)	*met(c)	*	*met(c)	*	*met(c)	*	*met(c)	*	*met(c)	*	*met(c)	*	*met(c)	*	*met(c)	*met(c)	*met(c)	*met(c)	*
*>[A,B,A]	*>[A,B,A]	*	*>[A,B,A]	*	*>[A,B,A]	*	*>[A,B,A]	*	*>[A,B,A]	*	*>[A,B,A]	*	*>[A,B,A]	*	*>[A,B,A]	*>[A,B,A]	*>[A,B,A]	*>[A,B,A]	*
=1	=1	=1	=1	=1	=1	=1	=1	=1	=1	=1	=1	=1	=1	=1	=1	=1	=1	=1	=1
*>A	*>A	*	*>A	*	*>A	*	*>A	*	*>A	*	*>A	*	*>A	*	*>A	*>A	*>A	*>A	*
*	*	*	*	*	*	*	*	*	*2\right	*	*2\right	*	*2\right	*	*2\right	*2\right	*	*2\right	*
!LO:TX:a:t=P:w źródle bemol złączony z kluczem:problem	!	!	!	!	!	!	!LO:TX:a:t=P:w źródle błędnie wpisane metrum 2/4:problem	!	!	!	!	!	!	!	!	!	!LO:TX:a:t=P:w źródle brak partii Oboe Secondo:problem	!	!
!LO:TX:a:Bi:t=Ofertorium Primum	!LO:TX:a:Bi:t=Ofertorium Primum	!	!LO:TX:a:Bi:t=Offertorium Primum	!	!LO:TX:a:Bi:t=Offertorium	!	!	!	!LO:TX:a:Bi:t=Offertorium Primum	!	!	!	!LO:TX:a:Bi:t=Offertorium Primum	!	!LO:TX:a:Bi:t=offertorium Primum	!LO:TX:a:Bi:t=Offertorium Primum	!	!LO:TX:a:Bi:t=Offertorium Prymum	!
!LO:TX:a:Bi:t=Allo ſolo	!LO:TX:a:Bi:t=Allo aſsai	!	!LO:TX:a:Bi:t=Allo aſsai	!	!LO:TX:a:Bi:t=Allo aſsai	!	!	!	!LO:TX:a:Bi:t=Allo aſsai	!	!LO:TX:a:Bi:t=Allo	!	!LO:TX:a:Bi:t=Allo aſsai	!	!LO:TX:a:Bi:t=Allo aſsai	!LO:TX:a:Bi:t=Allo aſsai.	!	!	!
!LO:TX:a:t=P:mixed beam:problem	!	!	!	!	!	!	!	!	!	!	!	!	!	!	!	!	!	!	!
8F\L	8a\L	.	4A/	.	4f/	.	00r	.	00r	.	00r	.	00r	.	4f\	4a\	1ryy	4ff\	.
8FF/J	8a\	.	.	.	.	.	.	.	.	.	.	.	.	.	.	.	.	.	.
4FF/	8a\	.	8A/L	.	8c/L	.	.	.	.	.	.	.	.	.	4r	4r	.	4r	.
.	8a\J	.	8f/J	.	8a/J	.	.	.	.	.	.	.	.	.	.	.	.	.	.
!LO:TX:a:t=P:mixed beam:problem	!	!	!	!	!	!	!	!	!	!	!	!	!	!	!	!	!	!	!
8F\L	8a\L	.	4f/	.	4a/	.	.	.	.	.	.	.	.	.	4f\	4a\	.	4ff\	.
8FF/J	8a\	.	.	.	.	.	.	.	.	.	.	.	.	.	.	.	.	.	.
4FF/	8a\	.	8c/L	.	8f/L	.	.	.	.	.	.	.	.	.	4r	4r	.	4r	.
.	8a\J	.	8a/J	.	8cc/J	.	.	.	.	.	.	.	.	.	.	.	.	.	.
=2	=2	=2	=2	=2	=2	=2	=2	=2	=2	=2	=2	=2	=2	=2	=2	=2	=2	=2	=2
8F\L	8a\L	.	4a/	.	4cc\	.	.	.	.	.	.	.	.	.	4f\	4a\	1ryy	4ff\	.
8F\	8a\	.	.	.	.	.	.	.	.	.	.	.	.	.	.	.	.	.	.
8A\	8f\	.	8a/L	.	8ff\L	.	.	.	.	.	.	.	.	.	4a\	4cc\	.	4aa\	.
8A\J	8f\J	.	8a/J	.	8cc\J	.	.	.	.	.	.	.	.	.	.	.	.	.	.
!	!	!	!	!	!	!	!	!	!	!	!	!	!	!	!	!	!	!LO:TX:a:t=P:w źródle niejasny zapis dźwięku:problem	!
4B-\	4g\	.	8g/L	.	8b-/L	.	.	.	.	.	.	.	.	.	4g\	4b-\	.	4gg\	.
.	.	.	8B-/	.	8g/	.	.	.	.	.	.	.	.	.	.	.	.	.	.
!LO:TX:a:t=P:mixed beam:problem	!	!	!	!	!	!	!	!	!	!	!	!	!	!	!	!	!	!	!
!	!LO:SIC:s=4f:v	!	!	!	!	!	!	!	!	!	!	!	!	!	!	!	!	!	!
8c\L	4e\	.	8A/	.	8f/	.	.	.	.	.	.	.	.	.	4c\	4g\	.	4ee\	.
8C/J	.	.	8G/J	.	8e/J	.	.	.	.	.	.	.	.	.	.	.	.	.	.
=3	=3	=3	=3	=3	=3	=3	=3	=3	=3	=3	=3	=3	=3	=3	=3	=3	=3	=3	=3
*	*	*	*	*	*^	*	*	*	*	*	*	*	*	*	*	*	*	*	*
!LO:TX:a:t=P:mixed beam:problem	!	!	!	!	!	!	!LO:DY:a:t=%sia	!	!	!	!	!	!	!	!	!	!	!	!	!
8F\L	8f\L	.	4A/	.	4a/	4f\	p	.	.	.	.	.	.	.	.	4f\	4a\	1ryy	4ff\	.
8FF/J	8a\	.	.	.	.	.	.	.	.	.	.	.	.	.	.	.	.	.	.	.
4FF/	8a\	.	8A/L	.	8c/L	2.ryy	.	.	.	.	.	.	.	.	.	4r	4r	.	4r	.
.	8a\J	.	8f/J	.	8a/J	.	.	.	.	.	.	.	.	.	.	.	.	.	.	.
!LO:TX:a:t=P:mixed beam:problem	!	!	!	!	!	!	!	!	!	!	!	!	!	!	!	!	!	!	!	!
8F\L	8a\L	.	4f/	.	4a/	.	.	.	.	.	.	.	.	.	.	2r	2r	.	2r	.
8FF/J	8a\	.	.	.	.	.	.	.	.	.	.	.	.	.	.	.	.	.	.	.
4FF/	8a\	.	8c/L	.	8f/L	.	.	.	.	.	.	.	.	.	.	.	.	.	.	.
.	8a\J	.	8a/J	.	8cc/J	.	.	.	.	.	.	.	.	.	.	.	.	.	.	.
*	*	*	*	*	*v	*v	*	*	*	*	*	*	*	*	*	*	*	*	*	*
=4	=4	=4	=4	=4	=4	=4	=4	=4	=4	=4	=4	=4	=4	=4	=4	=4	=4	=4	=4
8F\L	8a\L	.	4a/	.	4cc\	.	.	.	.	.	.	.	.	.	1r	1r	1ryy	1r	.
8F\	8a\	.	.	.	.	.	.	.	.	.	.	.	.	.	.	.	.	.	.
8A\	8f\	.	8a/L	.	8ff\L	.	.	.	.	.	.	.	.	.	.	.	.	.	.
8A\J	8f\J	.	8a/J	.	8cc\J	.	.	.	.	.	.	.	.	.	.	.	.	.	.
4B-\	4g\	.	8g/L	.	8b-/L	.	.	.	.	.	.	.	.	.	.	.	.	.	.
.	.	.	8B-/	.	8g/	.	.	.	.	.	.	.	.	.	.	.	.	.	.
!LO:TX:a:t=P:mixed beam:problem	!	!	!	!	!	!	!	!	!	!	!	!	!	!	!	!	!	!	!
!	!LO:SIC:s=4f:v	!	!	!	!	!	!	!	!	!	!	!	!	!	!	!	!	!	!
8c\L	4e\	.	8A/	.	8f/	.	.	.	.	.	.	.	.	.	.	.	.	.	.
8C/J	.	.	8G/J	.	8e/J	.	.	.	.	.	.	.	.	.	.	.	.	.	.
=5	=5	=5	=5	=5	=5	=5	=5	=5	=5	=5	=5	=5	=5	=5	=5	=5	=5	=5	=5
!	!	!	!LO:TX:a:t=P:mixed beam:problem	!	!LO:TX:a:t=P:mixed beam:problem	!	!	!	!	!	!	!	!	!	!	!	!	!	!
!	!LO:TX:a:t=P:znak początku repetycji:problem	!	!LO:TX:a:t=P:znak początku repetycji:problem	!	!	!	!	!	!	!	!	!	!	!	!	!	!	!	!
!	!	!	!	!	!	!LO:DY:a:t=%sor	!	!	!	!	!	!	!	!	!	!	!	!	!
8F\L	8f\L	.	8A/L	.	8f/L	f	00r	.	00r	.	00r	.	00r	.	4f\	4f\	1ryy	2aa\	.
8C\	8a\	.	8ff\	.	8aa\	.	.	.	.	.	.	.	.	.	.	.	.	.	.
8F\	8a\	.	8cc\	.	8ff\	.	.	.	.	.	.	.	.	.	4f\	4a\	.	.	.
8C\J	8a\J	.	8cc\J	.	8cc\J	.	.	.	.	.	.	.	.	.	.	.	.	.	.
8E\L	8g\L	.	4gg\	.	4bb-\	.	.	.	.	.	.	.	.	.	4g\	4b-\	.	2bb-\	.
8C\	8e\	.	.	.	.	.	.	.	.	.	.	.	.	.	.	.	.	.	.
8E\	8g\	.	16ee\LL	.	16gg\LL	.	.	.	.	.	.	.	.	.	4c/	4g\	.	.	.
.	.	.	16dd\	.	16ff\	.	.	.	.	.	.	.	.	.	.	.	.	.	.
8C\J	8e\J	.	16dd\	.	16ff\	.	.	.	.	.	.	.	.	.	.	.	.	.	.
.	.	.	16cc\JJ	.	16ee\JJ	.	.	.	.	.	.	.	.	.	.	.	.	.	.
=6	=6	=6	=6	=6	=6	=6	=6	=6	=6	=6	=6	=6	=6	=6	=6	=6	=6	=6	=6
8F\L	8f\L	.	8a/L	.	8ff\L	.	.	.	.	.	.	.	.	.	4f\	4a\	1ryy	2aa\	.
8C\	8c\	.	8a/	.	8cc\	.	.	.	.	.	.	.	.	.	.	.	.	.	.
8F\	8f\	.	8g/	.	8b-\	.	.	.	.	.	.	.	.	.	4f\	4f\	.	.	.
8C\J	8c\J	.	8f/J	.	8a\J	.	.	.	.	.	.	.	.	.	.	.	.	.	.
8E\L	8e\L	.	4e/	.	4g/	.	.	.	.	.	.	.	.	.	2c/	2g\	.	2gg\	.
8C\	8c\	.	.	.	.	.	.	.	.	.	.	.	.	.	.	.	.	.	.
8E\	8e\	.	16d/LL	.	16f/LL	.	.	.	.	.	.	.	.	.	.	.	.	.	.
.	.	.	16c/	.	16e/	.	.	.	.	.	.	.	.	.	.	.	.	.	.
!	!	!	!LO:TX:a:t=P:w źródle kasownik po nucie:problem	!	!	!	!	!	!	!	!	!	!	!	!	!	!	!	!
8C\J	8c\J	.	16Bn/	.	16d/	.	.	.	.	.	.	.	.	.	.	.	.	.	.
.	.	.	16c/JJ	.	16c/JJ	.	.	.	.	.	.	.	.	.	.	.	.	.	.
!	!LO:TX:a:t=P:znak końca repetycji:problem	!	!LO:TX:a:t=P:znak końca repetycji:problem	!	!	!	!	!	!	!	!	!	!	!	!	!	!	!	!
=7	=7	=7	=7	=7	=7	=7	=7	=7	=7	=7	=7	=7	=7	=7	=7	=7	=7	=7	=7
*	*rep	*	*rep	*	*	*	*	*	*	*	*	*	*	*	*	*	*	*	*
!	!	!	!LO:TX:a:t=P:mixed beam:problem	!	!	!	!	!	!	!	!	!	!	!	!	!	!	!	!
!	!LO:TX:a:t=P:powtórzenie taktów oznaczone znakami repetycji:problem	!	!LO:TX:a:t=P:powtórzenie taktów oznaczone znakami repetycji:problem	!	!LO:TX:a:t=P:mixed beam:problem	!	!	!	!	!	!	!	!	!	!	!	!	!	!
!	!	!	!	!	!	!	!	!	!	!	!	!	!	!	!	!	!	!LO:TX:a:B:t=2	!
8F\L	8f\L	.	8A/L	.	8f/L	.	.	.	.	.	.	.	.	.	0r	0r	1ryy	0r	.
8C\	8a\	.	8ff\	.	8aa\	.	.	.	.	.	.	.	.	.	.	.	.	.	.
8F\	8a\	.	8cc\	.	8ff\	.	.	.	.	.	.	.	.	.	.	.	.	.	.
8C\J	8a\J	.	8cc\J	.	8cc\J	.	.	.	.	.	.	.	.	.	.	.	.	.	.
8E\L	8g\L	.	4gg\	.	4bb-\	.	.	.	.	.	.	.	.	.	.	.	.	.	.
8C\	8e\	.	.	.	.	.	.	.	.	.	.	.	.	.	.	.	.	.	.
8E\	8g\	.	16ee\LL	.	16gg\LL	.	.	.	.	.	.	.	.	.	.	.	.	.	.
.	.	.	16dd\	.	16ff\	.	.	.	.	.	.	.	.	.	.	.	.	.	.
8C\J	8e\J	.	16dd\	.	16ff\	.	.	.	.	.	.	.	.	.	.	.	.	.	.
.	.	.	16cc\JJ	.	16ee\JJ	.	.	.	.	.	.	.	.	.	.	.	.	.	.
!	!	!	!	!	!LO:LB:g=origina	!	!	!	!	!	!	!	!	!	!	!	!	!	!
=8	=8	=8	=8	=8	=8	=8	=8	=8	=8	=8	=8	=8	=8	=8	=8	=8	=8	=8	=8
8F\L	8f\L	.	8a/L	.	8ff\L	.	.	.	.	.	.	.	.	.	.	.	1ryy	.	.
8C\	8c\	.	8a/	.	8cc\	.	.	.	.	.	.	.	.	.	.	.	.	.	.
8F\	8f\	.	8g/	.	8b-\	.	.	.	.	.	.	.	.	.	.	.	.	.	.
8C\J	8c\J	.	8f/J	.	8a\J	.	.	.	.	.	.	.	.	.	.	.	.	.	.
8E\L	8e\L	.	4e/	.	4g/	.	.	.	.	.	.	.	.	.	.	.	.	.	.
8C\	8c\	.	.	.	.	.	.	.	.	.	.	.	.	.	.	.	.	.	.
8E\	8e\	.	16d/LL	.	16f/LL	.	.	.	.	.	.	.	.	.	.	.	.	.	.
.	.	.	16c/	.	16e/	.	.	.	.	.	.	.	.	.	.	.	.	.	.
!	!	!	!LO:TX:a:t=P:w źródle kasownik po nucie:problem	!	!	!	!	!	!	!	!	!	!	!	!	!	!	!	!
8C\J	8c\J	.	16Bn/	.	16d/	.	.	.	.	.	.	.	.	.	.	.	.	.	.
.	.	.	16c/JJ	.	16c/JJ	.	.	.	.	.	.	.	.	.	.	.	.	.	.
*	*Xrep	*	*Xrep	*	*	*	*	*	*	*	*	*	*	*	*	*	*	*	*
=9	=9	=9	=9	=9	=9	=9	=9	=9	=9	=9	=9	=9	=9	=9	=9	=9	=9	=9	=9
8F\L	8f\L	.	8f/	.	8f/	.	00r	.	00r	.	00r	.	00r	.	1r	1r	1ryy	8a\	.
8F\	8a\	.	4ff\	.	4aa\	.	.	.	.	.	.	.	.	.	.	.	.	4aa\	.
8A\	8a\	.	.	.	.	.	.	.	.	.	.	.	.	.	.	.	.	.	.
8A\J	8a\J	.	8dd\	.	8ff\	.	.	.	.	.	.	.	.	.	.	.	.	8ff\	.
4C\	8cc\L	.	8cc\L	.	8ee\L	.	.	.	.	.	.	.	.	.	.	.	.	8ee\L	.
.	8cc\	.	8b-\	.	8dd\	.	.	.	.	.	.	.	.	.	.	.	.	8dd\	.
4E\	8g\	.	8a\	.	8cc\	.	.	.	.	.	.	.	.	.	.	.	.	8cc\	.
.	8g\J	.	8g\J	.	8b-\J	.	.	.	.	.	.	.	.	.	.	.	.	8b-\J	.
!LO:LB:g=original	!	!	!LO:LB:g=original	!	!	!	!	!	!	!	!	!	!	!	!	!	!	!	!
=10	=10	=10	=10	=10	=10	=10	=10	=10	=10	=10	=10	=10	=10	=10	=10	=10	=10	=10	=10
8F\L	8a\L	.	8a/L	.	8a/L	.	.	.	.	.	.	.	.	.	4r	4r	1ryy	8a\	.
16F\L	16f\L	.	16f/L	.	16f/L	.	.	.	.	.	.	.	.	.	.	.	.	8r	.
16E\JJ	16e\JJ	.	16e/JJ	.	16e/JJ	.	.	.	.	.	.	.	.	.	.	.	.	.	.
!	!LO:N:vis=4	!	!	!	!	!	!	!	!	!	!	!	!	!	!	!	!	!	!
8F\L	8f\	.	8f/L	.	8f/L	.	.	.	.	.	.	.	.	.	8f\L	8f\L	.	4r	.
!	!LO:N:vis=4	!	!	!	!	!	!	!	!	!	!	!	!	!	!	!	!	!	!
8G\J	8g\	.	8g/J	.	8g/J	.	.	.	.	.	.	.	.	.	8g\J	8g\J	.	.	.
2C/	2c/	.	2c/	.	2c/	.	.	.	.	.	.	.	.	.	8c/L	8c/L	.	2r	.
.	.	.	.	.	.	.	.	.	.	.	.	.	.	.	16c/L	16c/L	.	.	.
.	.	.	.	.	.	.	.	.	.	.	.	.	.	.	16c/JJ	16c/JJ	.	.	.
.	.	.	.	.	.	.	.	.	.	.	.	.	.	.	4c/	4c/	.	.	.
!	!LO:LB:g=original	!	!	!	!	!	!	!	!	!	!	!	!	!	!	!	!	!	!
=11	=11	=11	=11	=11	=11	=11	=11	=11	=11	=11	=11	=11	=11	=11	=11	=11	=11	=11	=11
1r	8F/L	.	1r	.	1r	.	.	.	.	.	.	.	.	.	00r	00r	1ryy	4.cc\	.
.	8F/	.	.	.	.	.	.	.	.	.	.	.	.	.	.	.	.	.	.
.	8F/	.	.	.	.	.	.	.	.	.	.	.	.	.	.	.	.	.	.
.	8F/J	.	.	.	.	.	.	.	.	.	.	.	.	.	.	.	.	8ff\	.
.	8F/L	.	.	.	.	.	.	.	.	.	.	.	.	.	.	.	.	4.cc\	.
.	8F/	.	.	.	.	.	.	.	.	.	.	.	.	.	.	.	.	.	.
.	8F/	.	.	.	.	.	.	.	.	.	.	.	.	.	.	.	.	.	.
.	8F/J	.	.	.	.	.	.	.	.	.	.	.	.	.	.	.	.	8a\	.
!	!	!	!	!	!	!	!	!	!	!	!	!	!	!	!	!	!	!LO:LB:g=original	!
=12	=12	=12	=12	=12	=12	=12	=12	=12	=12	=12	=12	=12	=12	=12	=12	=12	=12	=12	=12
2r	4B-/	.	2r	.	2r	.	.	.	.	.	.	.	.	.	.	.	1ryy	8a\L	.
.	.	.	.	.	.	.	.	.	.	.	.	.	.	.	.	.	.	8gg\	.
!	!LO:TX:a:t=P:mixed beam:problem	!	!	!	!	!	!	!	!	!	!	!	!	!	!	!	!	!	!
.	8c\L	.	.	.	.	.	.	.	.	.	.	.	.	.	.	.	.	8ff\	.
.	8C/J	.	.	.	.	.	.	.	.	.	.	.	.	.	.	.	.	8ee\J	.
4F\	4F/	.	8a/L	.	8ff\L	.	.	.	.	.	.	.	.	.	.	.	.	4ff\	.
.	.	.	8a/	.	8cc\	.	.	.	.	.	.	.	.	.	.	.	.	.	.
4FF/	8C/L	.	8g/	.	8b-\	.	.	.	.	.	.	.	.	.	.	.	.	4r	.
.	8F/J	.	8f/J	.	8a\J	.	.	.	.	.	.	.	.	.	.	.	.	.	.
=13	=13	=13	=13	=13	=13	=13	=13	=13	=13	=13	=13	=13	=13	=13	=13	=13	=13	=13	=13
!LO:TX:a:B:t=2	!	!	!	!	!	!	!	!	!	!	!	!	!	!	!	!	!	!	!
!LO:N:vis=1	!	!	!	!	!	!	!	!	!	!	!	!	!	!	!	!	!	!	!
0r	8F/L	.	0r	.	0r	.	00r	.	00r	.	00r	.	00r	.	.	.	1ryy	4.cc\	.
.	8F/	.	.	.	.	.	.	.	.	.	.	.	.	.	.	.	.	.	.
.	8F/	.	.	.	.	.	.	.	.	.	.	.	.	.	.	.	.	.	.
.	8F/J	.	.	.	.	.	.	.	.	.	.	.	.	.	.	.	.	8ff\	.
.	8F/L	.	.	.	.	.	.	.	.	.	.	.	.	.	.	.	.	4.cc\	.
.	8F/	.	.	.	.	.	.	.	.	.	.	.	.	.	.	.	.	.	.
.	8F/	.	.	.	.	.	.	.	.	.	.	.	.	.	.	.	.	.	.
.	8F/J	.	.	.	.	.	.	.	.	.	.	.	.	.	.	.	.	8a\	.
=14	=14	=14	=14	=14	=14	=14	=14	=14	=14	=14	=14	=14	=14	=14	=14	=14	=14	=14	=14
!	!LO:TX:a:t=P:mixed beam:problem	!	!	!	!	!	!	!	!	!	!	!	!	!	!	!	!	!	!
.	8B-\L	.	.	.	.	.	.	.	.	.	.	.	.	.	.	.	1ryy	8b-\L	.
.	8B-\	.	.	.	.	.	.	.	.	.	.	.	.	.	.	.	.	8gg\	.
.	8c\	.	.	.	.	.	.	.	.	.	.	.	.	.	.	.	.	8ff\	.
.	8C/J	.	.	.	.	.	.	.	.	.	.	.	.	.	.	.	.	8ee\J	.
.	4F/	.	.	.	.	.	.	.	.	.	.	.	.	.	.	.	.	8ff\L	.
.	.	.	.	.	.	.	.	.	.	.	.	.	.	.	.	.	.	8cc\	.
.	4F/	.	.	.	.	.	.	.	.	.	.	.	.	.	.	.	.	8a\	.
.	.	.	.	.	.	.	.	.	.	.	.	.	.	.	.	.	.	8f\J	.
=15	=15	=15	=15	=15	=15	=15	=15	=15	=15	=15	=15	=15	=15	=15	=15	=15	=15	=15	=15
!	!.	!LO:DY:a:t=%s.	!	!	!	!	!	!	!	!	!	!	!	!	!	!	!	!	!
4r	4C/	f	4r	.	4r	.	.	.	.	.	.	.	.	.	1r	1r	1ryy	4g/	.
!	!	!	!	!	!LO:TX:a:t=P:mixed beam:problem	!	!	!	!	!	!	!	!	!	!	!	!	!LO:TX:a:t=P:mixed beam:problem	!
4F\	4a\	.	8f/L	.	8f/L	.	.	.	.	.	.	.	.	.	.	.	.	8f/L	.
.	.	.	8a/J	.	8ff\J	.	.	.	.	.	.	.	.	.	.	.	.	8ff\J	.
4A\	4f\	.	4a/	.	8ff\L	.	.	.	.	.	.	.	.	.	.	.	.	8ff\L	.
.	.	.	.	.	8cc\	.	.	.	.	.	.	.	.	.	.	.	.	8cc\	.
4F\	4a\	.	8a/L	.	8cc\	.	.	.	.	.	.	.	.	.	.	.	.	8b-\	.
.	.	.	8f/J	.	8a\J	.	.	.	.	.	.	.	.	.	.	.	.	8a\J	.
=16	=16	=16	=16	=16	=16	=16	=16	=16	=16	=16	=16	=16	=16	=16	=16	=16	=16	=16	=16
4B-\	4b-\	.	4b-\	.	4dd\	.	.	.	.	.	.	.	.	.	4r	4r	1ryy	4dd\	.
!	!	!	!	!	!	!	!	!	!	!	!	!	!	!	!	!LO:SIC:s=4dd:v	!	!	!
4r	4b-\	.	16gg\LL	.	16bb-\LL	.	.	.	.	.	.	.	.	.	4g\	4cc\	.	4r	.
.	.	.	16ee\	.	16gg\	.	.	.	.	.	.	.	.	.	.	.	.	.	.
.	.	.	16ee\	.	16gg\	.	.	.	.	.	.	.	.	.	.	.	.	.	.
.	.	.	16cc\JJ	.	16ee\JJ	.	.	.	.	.	.	.	.	.	.	.	.	.	.
!LO:TX:a:t=P:mixed beam:problem	!LO:TX:a:t=P:mixed beam:problem	!	!	!	!	!	!	!	!	!	!	!	!	!	!	!	!	!	!
8F\L	8a\L	.	8a/L	.	8ff\L	.	.	.	.	.	.	.	.	.	4g\	4b-\	.	2r	.
8B-\	8b-\	.	8b-/J	.	8dd\J	.	.	.	.	.	.	.	.	.	.	.	.	.	.
!	!	!	!	!	!	!	!	!	!	!	!	!	!	!	!LO:SIC:s=4g:v	!	!	!	!
8c\	8cc\	.	16a/LL	.	16cc\LL	.	.	.	.	.	.	.	.	.	4A/	4g\	.	.	.
.	.	.	16g/	.	16b-\	.	.	.	.	.	.	.	.	.	.	.	.	.	.
8C/J	8c/J	.	16f/	.	16a\	.	.	.	.	.	.	.	.	.	.	.	.	.	.
.	.	.	16e/JJ	.	16g\JJ	.	.	.	.	.	.	.	.	.	.	.	.	.	.
!	!	!	!	!	!	!	!	!	!	!	!	!	!	!	!LO:LB:g=original	!	!	!	!
=17	=17	=17	=17	=17	=17	=17	=17	=17	=17	=17	=17	=17	=17	=17	=17	=17	=17	=17	=17
4F\	4f\	.	4f/	.	4f/	.	0r	.	0r	.	0r	.	0r	.	4A/	4f\	1ryy	4r	.
4F\	4a\	.	8f/L	.	8a\L	.	.	.	.	.	.	.	.	.	4r	4r	.	8a\L	.
.	.	.	8a/J	.	8ff\J	.	.	.	.	.	.	.	.	.	.	.	.	8ff\J	.
4A\	4f\	.	4a/	.	8ff\L	.	.	.	.	.	.	.	.	.	2r	2r	.	8ff\L	.
.	.	.	.	.	8cc\	.	.	.	.	.	.	.	.	.	.	.	.	8cc\	.
4F\	4a\	.	8a/L	.	8cc\	.	.	.	.	.	.	.	.	.	.	.	.	8cc\	.
.	.	.	8f/J	.	8a\J	.	.	.	.	.	.	.	.	.	.	.	.	8a\J	.
!	!	!	!	!	!	!	!	!	!	!	!	!	!	!	!	!LO:LB:g=original	!	!	!
=18	=18	=18	=18	=18	=18	=18	=18	=18	=18	=18	=18	=18	=18	=18	=18	=18	=18	=18	=18
4B-\	4b-\	.	4b-\	.	4dd\	.	.	.	.	.	.	.	.	.	4r	4r	1ryy	4dd\	.
4r	4b-\	.	16gg\LL	.	16bb-\LL	.	.	.	.	.	.	.	.	.	4g\	4cc\	.	4r	.
.	.	.	16ee\	.	16gg\	.	.	.	.	.	.	.	.	.	.	.	.	.	.
.	.	.	16ee\	.	16gg\	.	.	.	.	.	.	.	.	.	.	.	.	.	.
.	.	.	16cc\JJ	.	16ee\JJ	.	.	.	.	.	.	.	.	.	.	.	.	.	.
!LO:TX:a:t=P:mixed beam:problem	!LO:TX:a:t=P:mixed beam:problem	!	!	!	!	!	!	!	!	!	!	!	!	!	!	!	!	!	!
8F\L	8a\L	.	8a\L	.	8ff\L	.	.	.	.	.	.	.	.	.	4g\	4b-\	.	2r	.
8A\	8b-\	.	8b-\J	.	8dd\J	.	.	.	.	.	.	.	.	.	.	.	.	.	.
!	!	!	!	!	!LO:LB:g=original	!	!	!	!	!	!	!	!	!	!	!	!	!	!
8c\	8cc\	.	16a/LL	.	16cc\LL	.	.	.	.	.	.	.	.	.	4c/	4g\	.	.	.
.	.	.	16g/	.	16b-\	.	.	.	.	.	.	.	.	.	.	.	.	.	.
8C/J	8c/J	.	16f/	.	16a\	.	.	.	.	.	.	.	.	.	.	.	.	.	.
.	.	.	16e/JJ	.	16g\JJ	.	.	.	.	.	.	.	.	.	.	.	.	.	.
=19	=19	=19	=19	=19	=19	=19	=19	=19	=19	=19	=19	=19	=19	=19	=19	=19	=19	=19	=19
8F\L	8f\L	.	8f/L	.	8f/L	.	1r	.	1r	.	1r	.	1r	.	8f\L	8f\L	1ryy	8ff\L	.
8F\	8f\	.	8a/	.	8ff 8a 8f/	.	.	.	.	.	.	.	.	.	16f\L	16a\L	.	8ff\	.
.	.	.	.	.	.	.	.	.	.	.	.	.	.	.	16f\JJ	16a\JJ	.	.	.
8C\	8c\	.	8a/	.	8ff 8a 8f/	.	.	.	.	.	.	.	.	.	8f\L	8a\L	.	8ff\	.
8AA\J	8A\J	.	8a/J	.	8ffJ 8a 8f/	.	.	.	.	.	.	.	.	.	8f\J	8a\J	.	8ff\J	.
!	!	!	!LO:TX:a:t=P:w źródle dwie fermaty na nucie 2a odpowiadające najprawdopodobniej za znak segno:problem	!	!	!	!	!	!	!	!	!	!	!	!LO:TX:a:t=P:w źródle dwie fermaty na kresce taktowej odpowiadające najprawdopodobniej za znak segno:problem	!	!	!	!
2FF;>/	2F/	.	2a;>;</	.	2ff 2a 2f;</	.	.	.	.	.	.	.	.	.	2f/	2a;>\	.	2ff\	.
!	!LO:LB:g=original	!	!LO:LB:g=original	!	!	!	!	!	!	!	!	!	!	!	!	!	!	!LO:LB:g=original	!
=20||	=20||	=20||	=20	=20	=20||	=20||	=20	=20	=20	=20	=20	=20	=20	=20	=20;>;<	=20	=20||	=20	=20
*>B	*>B	*	*>B	*	*>B	*	*>B	*	*>B	*	*>B	*	*>B	*	*>B	*>B	*>B	*>B	*
!	!LO:TX:t=[segno]:problem:znak segno na kresce taktowej	!	!	!	!	!	!	!	!	!	!	!	!	!	!	!	!	!	!
!LO:TX:a:t=P:mixed beam:problem	!	!	!LO:TX:a:t=P:znak początku repetycji:problem	!	!	!	!	!	!	!	!	!	!	!	!	!	!	!	!
!	!	!	!	!	!	!	!	!	!	!	!	!	!	!	!	!LO:TX:a:B:t=Tutt	!	!	!
8F\L	8a\L	.	4A/	.	4f/	.	4F\	E-	4c\	E-	4f\	E-	4ff\	E-	4f\	4a\	1ryy	4ff\	.
8FF/J	8a\	.	.	.	.	.	.	.	.	.	.	.	.	.	.	.	.	.	.
4FF/	8a\	.	8A/L	.	8c/L	.	4F\	-ja	8A\L	-ja	8c\L	-ja	4ff\	-ja	4r	4r	.	4r	.
.	8a\J	.	8f/J	.	8a/J	.	.	.	8c\J	.	8a\J	.	.	.	.	.	.	.	.
!LO:TX:a:t=P:mixed beam:problem	!	!	!	!	!	!	!	!	!	!	!	!	!	!	!	!	!	!	!
8F\L	8a\L	.	4f/	.	4a/	.	4F\	Cho-	4c\	Cho-	4a\	Cho-	4ff\	Cho-	4f\	4a\	.	4ff\	.
8FF/J	8a\	.	.	.	.	.	.	.	.	.	.	.	.	.	.	.	.	.	.
!	!	!	!	!	!	!	!	!	!	!	!	!	!LO:SIC:s=ri:v	!	!	!	!	!	!
4FF/	8a\	.	8c/L	.	8f/L	.	4F\	-ri	4c\	-ri	8f\L	-ri	4ff\	-rj	4r	4r	.	4r	.
.	8a\J	.	8a/J	.	8cc/J	.	.	.	.	.	8cc\J	.	.	.	.	.	.	.	.
=21	=21	=21	=21	=21	=21	=21	=21	=21	=21	=21	=21	=21	=21	=21	=21	=21	=21	=21	=21
8F\L	8a\L	.	4a/	.	4cc\	.	4F\	e-	4A\	e-	4cc\	e-	4ff\	e-	4f\	4a\	1ryy	4ff\	.
8F\	8a\	.	.	.	.	.	.	.	.	.	.	.	.	.	.	.	.	.	.
8A\	8f\	.	8a/L	.	8ff\L	.	4A\	-xul-	4f\	-xul-	4a\	-xal-	8ff\L	-xul-	4a\	4cc\	.	4aa\	.
8A\J	8f\J	.	8a/J	.	8cc\J	.	.	.	.	.	.	.	8cc\J	.	.	.	.	.	.
!LO:TX:a:t=P:mixed beam:problem	!	!	!	!	!	!	!	!	!	!	!	!	!	!	!	!	!	!	!
!	!LO:TX:a:t=P:w źródle przy nucie 4g delikatnie dopisana belka pewnie przez pomyłkę skryptora:problem	!	!	!	!	!	!	!	!	!	!	!	!	!	!	!	!	!	!
8B-\L	4g\	.	8g/L	.	8b-/L	.	4B-X\	-ta-	4d\	-ta-	4g\	-ta-	8b-\L	-ta-	4g\	4b-\	.	4gg\	.
8B-\	.	.	8B-/	.	8g/	.	.	.	.	.	.	.	8g\J	.	.	.	.	.	.
!	!	!	!	!	!	!	!LO:TX:a:t=P:mixed beam:problem	!	!	!	!	!	!	!	!	!	!	!	!
!	!LO:SIC:s=4f:v	!	!	!	!	!	!	!	!	!	!	!	!	!	!	!	!	!	!
8c\	4e\	.	8A/	.	8f/	.	8c\L	-te	4c\	-te	4e\	-te	8f/L	-te	4c/	4g\	.	4ee\	.
8C/J	.	.	8G/J	.	8e/J	.	8C/J	.	.	.	.	.	8e/J	.	.	.	.	.	.
!	!	!	!LO:TX:a:t=P:znak końca repetycji:problem	!	!	!	!	!	!	!	!	!	!	!	!	!	!	!	!
=22	=22	=22	=22	=22	=22	=22	=22	=22	=22	=22	=22	=22	=22	=22	=22	=22	=22	=22	=22
*	*	*	*	*	*^	*	*	*	*	*	*	*	*	*	*	*	*	*	*
*	*	*	*rep	*	*	*	*	*	*	*	*	*	*	*	*	*	*	*	*	*
!LO:TX:a:t=P:mixed beam:problem	!	!	!LO:TX:a:t=P:powtórzenie taktów oznaczone znakami repetycji:problem	!	!	!	!	!	!	!	!	!	!	!	!	!	!	!	!	!
8F\L	8a\L	.	4A/	.	4a/	4f\	.	4F\	ac	4c\	ac	4f\	ca	4f/	ac	4f\	4a\	1ryy	4ff\	.
8FF/J	8a\	.	.	.	.	.	.	.	.	.	.	.	.	.	.	.	.	.	.	.
4FF/	8a\	.	8A/L	.	8c/L	2.ryy	.	4F\	ſo-	8A\L	ſo-	8c\L	ſo-	4ff\	ſo-	4r	4r	.	4r	.
!	!	!	!	!	!	!	!	!	!	!LO:SIC:s=8c:v	!	!	!	!	!	!	!	!	!	!
.	8a\J	.	8f/J	.	8a/J	.	.	.	.	8B-\J	.	8a\J	.	.	.	.	.	.	.	.
!LO:TX:a:t=P:mixed beam:problem	!	!	!	!	!	!	!	!	!	!	!	!	!	!	!	!	!	!	!	!
8F\L	8a\L	.	4f/	.	4a/	.	.	4F\	-len-	4c\	-len-	4a\	-len-	4ff\	-len-	2r	2r	.	2r	.
8FF/J	8a\	.	.	.	.	.	.	.	.	.	.	.	.	.	.	.	.	.	.	.
4FF/	8a\	.	8c/L	.	8f/L	.	.	4F\	-ne	4c\	-ne	8f\L	-ne	4ff\	-ne	.	.	.	.	.
.	8a\J	.	8a/J	.	8cc/J	.	.	.	.	.	.	8cc\J	.	.	.	.	.	.	.	.
!LO:LB:g=original	!	!	!	!	!	!	!	!	!	!	!	!	!	!	!	!	!	!	!	!
*	*	*	*	*	*v	*v	*	*	*	*	*	*	*	*	*	*	*	*	*	*
=23	=23	=23	=23	=23	=23	=23	=23	=23	=23	=23	=23	=23	=23	=23	=23	=23	=23	=23	=23
!	!	!	!	!	!	!	!	!	!	!	!	!	!	!	!	!	!	!LO:N:vis=2	!
8F\L	8a\L	.	4a/	.	4cc\	.	4F\	me-	4A\	me-	4cc\	me-	4ff\	me-	1r	1r	1ryy	1r	.
8F\	8a\	.	.	.	.	.	.	.	.	.	.	.	.	.	.	.	.	.	.
8A\	8f\	.	8a/L	.	8ff\L	.	4A\	-los	4f\	-los	4a\	-los	8ff\L	-los	.	.	.	.	.
8A\J	8f\J	.	8a/J	.	8cc\J	.	.	.	.	.	.	.	8cc\J	.	.	.	.	.	.
!LO:TX:a:t=P:mixed beam:problem	!	!	!	!	!	!	!	!	!	!	!	!	!	!	!	!	!	!	!
8B-\L	4g\	.	8g/L	.	8b-/L	.	4B-\	da-	4e\	da-	4g\	da-	8b-\L	da-	.	.	.	.	.
8B-\	.	.	8B-/	.	8g/	.	.	.	.	.	.	.	8g\J	.	.	.	.	.	.
!	!	!	!	!	!	!	!LO:TX:a:t=P:mixed beam:problem	!	!	!	!	!	!	!	!	!	!	!	!
!	!LO:SIC:s=4f:v	!	!	!	!	!	!	!	!	!	!	!	!	!	!	!	!	!	!
8c\	4e\	.	8A/	.	8f/	.	8c\L	-te	4c\	-te	4e\	-te	8f/L	-te	.	.	.	.	.
8C/J	.	.	8G/J	.	8e/J	.	8C/J	.	.	.	.	.	8e/J	.	.	.	.	.	.
*	*	*	*Xrep	*	*	*	*	*	*	*	*	*	*	*	*	*	*	*	*
=24	=24	=24	=24	=24	=24	=24	=24	=24	=24	=24	=24	=24	=24	=24	=24	=24	=24	=24	=24
!	!	!	!LO:TX:a:t=P:mixed beam:problem	!	!	!	!	!	!	!	!	!	!	!	!	!	!	!	!
!	!	!	!	!	!LO:TX:a:t=P:mixed beam:problem	!	!	!	!	!	!	!	!	!	!	!LO:TX:a:B:t=c	!	!	!
!	!LO:TX:a:t=P:znak początku repetycji:problem	!	!LO:TX:a:t=P:znak początku repetycji:problem	!	!	!	!	!	!	!	!	!	!	!	!	!	!	!	!
!	!	!	!	!	!	!	!LO:SIC:s=et:v	!	!	!	!	!	!	!	!	!	!	!	!
8F\L	8f\L	.	8A/L	.	8f/L	.	4F\	ex	4c\	et	4a\	et	4f/	et	4f\	4f\	1ryy	2aa\	.
8C\	8a\	.	8ff\	.	8aa\	.	.	.	.	.	.	.	.	.	.	.	.	.	.
8F\	8a\	.	8cc\	.	8ff\	.	4F\	ma-	4c\	ma-	8f\L	ma-	4ff\	Ma-	4f\	4a\	.	.	.
8C\J	8a\J	.	8cc\J	.	8cc\J	.	.	.	.	.	8d\J	.	.	.	.	.	.	.	.
8E\L	8g\L	.	4gg\	.	4bb-\	.	4C/	-ri-	4e\	-ri-	4b-\	-ri-	4gg\	-ri-	4g\	4b-\	.	2bb-\	.
8C\	8e\	.	.	.	.	.	.	.	.	.	.	.	.	.	.	.	.	.	.
8E\	8g\	.	16ee\LL	.	16gg\LL	.	4C/	-am	4e\	-am	8g\L	-am	4ee\	-am	4c/	4g\	.	.	.
.	.	.	16dd\	.	16ff\	.	.	.	.	.	.	.	.	.	.	.	.	.	.
8C\J	8e\J	.	16dd\	.	16ff\	.	.	.	.	.	8e\J	.	.	.	.	.	.	.	.
.	.	.	16cc\JJ	.	16ee\JJ	.	.	.	.	.	.	.	.	.	.	.	.	.	.
!	!	!	!	!	!	!	!	!	!	!	!LO:LB:g=original	!	!	!	!	!	!	!	!
=25	=25	=25	=25	=25	=25	=25	=25	=25	=25	=25	=25	=25	=25	=25	=25	=25	=25	=25	=25
8F\L	8f\L	.	8a/L	.	8ff\L	.	4F\	col-	4f\	Col-	8cc\L	col-	8ff\L	col-	4f\	4a\	1ryy	2aa\	.
!	!LO:TX:a:t=P:wysokość poprawiona przez skryptora:problem	!	!	!	!	!	!	!	!	!	!	!	!	!	!	!	!	!	!
8C\	8c\	.	8a/	.	8cc\	.	.	.	.	.	8a\J	.	8cc\J	.	.	.	.	.	.
8F\	8f\	.	8g/	.	8b-\	.	4A\	-lau-	4f\	-lau-	8g\L	-lau-	8b-\L	-lau-	4f\	4f\	.	.	.
8C\J	8c\J	.	8f/J	.	8a\J	.	.	.	.	.	8f\J	.	8a\J	.	.	.	.	.	.
.	.	.	.	.	.	.	.	.	.	.	.	.	8qqa/	.	.	.	.	.	.
8E\L	8e\L	.	4e/	.	4g/	.	4c\	-da-	4e\	-da-	4c/	-da-	4g\	-da-	2c/	2g\	.	2gg\	.
8C\	8c\	.	.	.	.	.	.	.	.	.	.	.	.	.	.	.	.	.	.
8E\	8e\	.	16d/LL	.	16f/LL	.	4C/	-te	4e\	-te	4c/	-te	4g\	-te	.	.	.	.	.
.	.	.	16c/	.	16e/	.	.	.	.	.	.	.	.	.	.	.	.	.	.
8C\J	8c\J	.	16Bn/	.	16d/	.	.	.	.	.	.	.	.	.	.	.	.	.	.
.	.	.	16c/JJ	.	16c/JJ	.	.	.	.	.	.	.	.	.	.	.	.	.	.
!	!LO:TX:a:t=P:znak końca repetycji:problem	!	!LO:TX:a:t=P:znak końca repetycji:problem	!	!	!	!	!	!	!	!	!	!	!	!	!	!	!	!
!	!	!	!	!	!	!	!LO:LB:g=original	!	!	!	!	!	!LO:LB:g=original	!	!	!	!	!	!
=26	=26	=26	=26	=26	=26	=26	=26	=26	=26	=26	=26	=26	=26	=26	=26	=26	=26	=26	=26
*	*rep	*	*rep	*	*	*	*	*	*	*	*	*	*	*	*	*	*	*	*
!	!	!	!LO:TX:a:t=P:mixed beam:problem	!	!	!	!	!	!	!	!	!	!	!	!	!	!	!	!
!	!LO:TX:a:t=P:powtórzenie taktów oznaczone znakami repetycji:problem	!	!LO:TX:a:t=P:powtórzenie taktów oznaczone znakami repetycji:problem	!	!LO:TX:a:t=P:mixed beam:problem	!	!	!	!	!	!	!	!	!	!	!	!	!	!
!	!	!	!	!	!	!	!	!	!	!	!	!	!	!	!	!	!	!LO:TX:a:B:t=2	!
8F\L	8f\L	.	8A/L	.	8f/L	.	4F\	di-	4c\	di-	4a\	di-	4f/	Di-	0r	0r	1ryy	0r	.
8C\	8a\	.	8ff\	.	8aa\	.	.	.	.	.	.	.	.	.	.	.	.	.	.
8F\	8a\	.	8cc\	.	8ff\	.	4F\	-em	4c\	-em	8f\L	-em	4ff\	-em	.	.	.	.	.
8C\J	8a\J	.	8cc\J	.	8cc\J	.	.	.	.	.	8c\J	.	.	.	.	.	.	.	.
!	!	!	!	!	!	!	!	!	!LO:LB:g=original	!	!	!	!	!	!	!	!	!	!
!LO:TX:a:t=P:wysokość poprawiona przez skryptora:problem	!	!	!	!	!	!	!	!	!	!	!	!	!	!	!	!	!	!	!
8E\L	8g\L	.	4gg\	.	4bb-\	.	4C/	hanc	4e\	hanc	4b-\	hanc	4gg\	hanc	.	.	.	.	.
8C\	8e\	.	.	.	.	.	.	.	.	.	.	.	.	.	.	.	.	.	.
8E\	8g\	.	16ee\LL	.	16gg\LL	.	4C/	con-	4e\	con-	8g\L	con-	4ee\	con-	.	.	.	.	.
.	.	.	16dd\	.	16ff\	.	.	.	.	.	.	.	.	.	.	.	.	.	.
8C\J	8e\J	.	16dd\	.	16ff\	.	.	.	.	.	8e\J	.	.	.	.	.	.	.	.
.	.	.	16cc\JJ	.	16ee\JJ	.	.	.	.	.	.	.	.	.	.	.	.	.	.
!	!	!	!	!	!LO:LB:g=original	!	!	!	!	!	!	!	!	!	!	!	!	!	!
=27	=27	=27	=27	=27	=27	=27	=27	=27	=27	=27	=27	=27	=27	=27	=27	=27	=27	=27	=27
8F\L	8f\L	.	8a/L	.	8ff\L	.	4F\	-de-	4f\	-de-	(>8cc\L	-de-	8ff\L	-de-	.	.	1ryy	.	.
8C\	8c\	.	8a/	.	8cc\	.	.	.	.	.	8a\)	.	8cc\J	.	.	.	.	.	.
8F\	8f\	.	8g/	.	8b-\	.	4A\	-co-	4f\	-co-	(>8g\	-co-	8b-\L	-co-	.	.	.	.	.
8C\J	8c\J	.	8f/J	.	8a\J	.	.	.	.	.	8f\J)	.	8a\J	.	.	.	.	.	.
.	.	.	.	.	.	.	.	.	.	.	.	.	8qqa/	.	.	.	.	.	.
8E\L	8e\L	.	4e/	.	4g/	.	4c\	-ra-	4e\	-ra-	4c/	-ra-	4g\	-ra-	.	.	.	.	.
8C\	8c\	.	.	.	.	.	.	.	.	.	.	.	.	.	.	.	.	.	.
8E\	8e\	.	16d/LL	.	16f/LL	.	4C/	-te	4e\	-te	4c/	-te	4g\	-te	.	.	.	.	.
.	.	.	16c/	.	16e/	.	.	.	.	.	.	.	.	.	.	.	.	.	.
8C\J	8c\J	.	16Bn/	.	16d/	.	.	.	.	.	.	.	.	.	.	.	.	.	.
.	.	.	16c/JJ	.	16c/JJ	.	.	.	.	.	.	.	.	.	.	.	.	.	.
*	*Xrep	*	*Xrep	*	*	*	*	*	*	*	*	*	*	*	*	*	*	*	*
=28	=28	=28	=28	=28	=28	=28	=28	=28	=28	=28	=28	=28	=28	=28	=28	=28	=28	=28	=28
!	!	!	!	!	!	!	!LO:SIC:s=et:v	!	!	!	!	!	!	!	!	!	!	!	!
8F\L	8f\L	.	8f/	.	8f/	.	4F\	ex	4c\	et	4a\	et	4f/	et	1r	1r	1ryy	8a\	.
8F\	8a\	.	4ff\	.	4aa\	.	.	.	.	.	.	.	.	.	.	.	.	4aa\	.
8A\	8a\	.	.	.	.	.	4A\	ma-	4c\	Ma-	4a\	ma-	4ff\	Ma-	.	.	.	.	.
8A\J	8a\J	.	8dd\	.	8ff\	.	.	.	.	.	.	.	.	.	.	.	.	8ff\	.
4c\	8cc\L	.	8cc\L	.	8ee\L	.	4c\	-ri-	4e\	-ri-	8cc\L	-ri-	8ee\L	-ri-	.	.	.	8ee\L	.
.	8cc\	.	8b-\	.	8dd\	.	.	.	.	.	8b-\J	.	8dd\J	.	.	.	.	8dd\	.
4C/	8g\	.	8a\	.	8cc\	.	4C/	-am	4e\	-am	8a\L	-am	8cc\L	-am	.	.	.	8cc\	.
.	8g\J	.	8g\J	.	8b-\J	.	.	.	.	.	8g\J	.	8b-\J	.	.	.	.	8b-\J	.
=29	=29	=29	=29	=29	=29	=29	=29	=29	=29	=29	=29	=29	=29	=29	=29	=29	=29	=29	=29
8A\L	8a\L	.	8a/L	.	8a/L	.	8A\	col-	8A/	col-	8a\	col-	8a\	co-	4r	4r	1ryy	8a\L	.
16F\L	16f\L	.	16f/L	.	16f/L	.	16F\LL	-lau-	16F/LL	-lau-	16f\LL	-lau-	16f/LL	-lau-	.	.	.	16ff\L	.
16E\JJ	16e\JJ	.	16e/JJ	.	16e/JJ	.	16E\JJ	.	16E/JJ	.	16e\JJ	.	16e/JJ	.	.	.	.	16ee\JJ	.
8F\L	8f\L	.	8f/L	.	8f/L	.	8F\L	-da-	8F/L	-da-	8f\L	-da-	8f/L	-da-	8f\L	8f\L	.	8ff\L	.
8G\J	8g\J	.	8g/J	.	8g/J	.	8G\J	.	8G/J	.	8g\J	.	8g/J	.	8g\J	8g\J	.	8gg\J	.
!	!	!	!	!	!	!	!	!	!	!	!	!	!	!	!LO:LB:g=original	!	!	!	!
!LO:TX:a:t=P:mixed beam:problem	!	!	!	!	!	!	!	!	!	!	!	!	!	!	!	!	!	!	!
8C/L	2c/	.	2c/	.	2c/	.	2C/	-te	2C/	-te	2c/	-te	2c/	-te	8c/L	8c/L	.	4cc\	.
8c\J	.	.	.	.	.	.	.	.	.	.	.	.	.	.	16c/L	16c/L	.	.	.
.	.	.	.	.	.	.	.	.	.	.	.	.	.	.	16c/JJ	16c/JJ	.	.	.
4C/	.	.	.	.	.	.	.	.	.	.	.	.	.	.	4c/	4c/	.	4cc\	.
!	!LO:LB:g=original	!	!	!	!	!	!	!	!	!	!	!	!	!	!	!	!	!	!
=30	=30	=30	=30	=30	=30	=30	=30	=30	=30	=30	=30	=30	=30	=30	=30	=30	=30	=30	=30
8C\L	8c\L	.	16cc\LL	.	16ee\LL	.	4C/	e-	4c\	e-	4g\	e-	4ee\	e-	4g\	4cc\	1ryy	1gg	.
.	.	.	16ee\	.	16gg\	.	.	.	.	.	.	.	.	.	.	.	.	.	.
8C\	8c\	.	16ee\	.	16gg\	.	.	.	.	.	.	.	.	.	.	.	.	.	.
.	.	.	16ee\JJ	.	16gg\JJ	.	.	.	.	.	.	.	.	.	.	.	.	.	.
8E\	8e\	.	16ee\LL	.	16gg\LL	.	4E\	-ja	4e\	-ja	4cc\	-ja	4gg\	-ja	4r	4r	.	.	.
.	.	.	16ee\	.	16gg\	.	.	.	.	.	.	.	.	.	.	.	.	.	.
8E\J	8e\J	.	16ee\	.	16gg\	.	.	.	.	.	.	.	.	.	.	.	.	.	.
.	.	.	16ee\JJ	.	16gg\JJ	.	.	.	.	.	.	.	.	.	.	.	.	.	.
!	!	!	!LO:LB:g=original	!	!	!	!	!	!	!LO:LB:g=original	!	!	!	!	!	!	!	!	!
8G\L	8g\L	.	16ee\LL	.	16ccc\LL	.	4G\	Cho-	8e\L	Cho-	4g\	Cho-	8gg\L	Cho-	4g\	2r	.	.	.
.	.	.	16ee\	.	16ccc\	.	.	.	.	.	.	.	.	.	.	.	.	.	.
8G\	8g\	.	16ee\	.	16ccc\	.	.	.	8c\J	.	.	.	8ee\J	.	.	.	.	.	.
.	.	.	16ee\JJ	.	16ccc\JJ	.	.	.	.	.	.	.	.	.	.	.	.	.	.
8c\	8cc\	.	16ee\LL	.	16gg\LL	.	4c\	-ri	8c\L	-ri	4cc\	-ri	8ee\L	-ri	4r	.	.	.	.
.	.	.	16ee\	.	16gg\	.	.	.	.	.	.	.	.	.	.	.	.	.	.
8c\J	8cc\J	.	16ee\	.	16gg\	.	.	.	8e\J	.	.	.	8gg\J	.	.	.	.	.	.
.	.	.	16ee\JJ	.	16gg\JJ	.	.	.	.	.	.	.	.	.	.	.	.	.	.
=31	=31	=31	=31	=31	=31	=31	=31	=31	=31	=31	=31	=31	=31	=31	=31	=31	=31	=31	=31
8D/L	8d/L	.	16dd\LL	.	16ff\LL	.	4d\	e-	4Bn\	e-	4g\	e-	4dd\	e-	4g\	4bX\	1ryy	1gg	.
.	.	.	16dd\	.	16ff\	.	.	.	.	.	.	.	.	.	.	.	.	.	.
8D/	8d/	.	16dd\	.	16ff\	.	.	.	.	.	.	.	.	.	.	.	.	.	.
.	.	.	16dd\JJ	.	16ff\JJ	.	.	.	.	.	.	.	.	.	.	.	.	.	.
!	!	!	!	!	!	!	!LO:SIC:s=xul:v	!	!	!	!LO:SIC:s=xul:v	!	!	!	!	!	!	!	!
8BBn/	8Bn/	.	16dd\LL	.	16ff\LL	.	4Bn\	-xal-	4d\	-xul-	4bn\	-xal-	4ff\	-xul-	4r	4r	.	.	.
.	.	.	16dd\	.	16ff\	.	.	.	.	.	.	.	.	.	.	.	.	.	.
8BB/J	8B/J	.	16dd\	.	16ff\	.	.	.	.	.	.	.	.	.	.	.	.	.	.
.	.	.	16dd\JJ	.	16ff\JJ	.	.	.	.	.	.	.	.	.	.	.	.	.	.
8D/L	8d/L	.	16bn\LL	.	16dd\LL	.	8d\L	-ta-	8d\L	-ta-	4g\	-ta-	8ff\L	-ta-	4g\	2r	.	.	.
.	.	.	16b\	.	16dd\	.	.	.	.	.	.	.	.	.	.	.	.	.	.
8D/	8d/	.	16b\	.	16dd\	.	8B\J	.	8B\J	.	.	.	8dd\J	.	.	.	.	.	.
.	.	.	16b\JJ	.	16dd\JJ	.	.	.	.	.	.	.	.	.	.	.	.	.	.
!	!	!	!	!	!	!	!	!	!LO:SIC:s=te:v	!	!	!	!LO:SIC:s=te:v	!	!	!	!	!	!
8GG/	8G/	.	16dd\LL	.	16ff\LL	.	4G\	-te	8B\L	-ta	4b\	-te	8dd\L	-ta	4r	.	.	.	.
.	.	.	16dd\	.	16ff\	.	.	.	.	.	.	.	.	.	.	.	.	.	.
8GG/J	8G/J	.	16dd\	.	16ff\	.	.	.	8d\J	.	.	.	8ff\J	.	.	.	.	.	.
.	.	.	16dd\JJ	.	16ff\JJ	.	.	.	.	.	.	.	.	.	.	.	.	.	.
!LO:LB:g=original	!	!	!	!LO:LB:g=original	!	!	!LO:LB:g=original	!	!	!	!	!	!	!	!	!LO:LB:g=original	!	!	!
=32	=32	=32	=32	=32	=32	=32	=32	=32	=32	=32	=32	=32	=32	=32	=32	=32	=32	=32	=32
!	!	!	!	!	!	!	!	!	!	!	!	!	!	!	!	!LO:TX:a:t=G:wysokość poprawiona przez skryptora:problem	!	!	!
8C\L	8c\L	.	16cc\LL	.	16ee\LL	.	4C/	ac	4c\	ac	4g\	ac	4ee\	ac	4g\	4cc\	1ryy	1gg	.
.	.	.	16ee\	.	16gg\	.	.	.	.	.	.	.	.	.	.	.	.	.	.
8C\	8c\	.	16ee\	.	16gg\	.	.	.	.	.	.	.	.	.	.	.	.	.	.
.	.	.	16ee\JJ	.	16gg\JJ	.	.	.	.	.	.	.	.	.	.	.	.	.	.
8E\	8e\	.	16ee\LL	.	16gg\LL	.	4E\	ſo-	4e\	ſo-	4cc\	ſo-	4gg\	ſo-	4r	4r	.	.	.
.	.	.	16ee\	.	16gg\	.	.	.	.	.	.	.	.	.	.	.	.	.	.
8E\J	8e\J	.	16ee\	.	16gg\	.	.	.	.	.	.	.	.	.	.	.	.	.	.
.	.	.	16ee\JJ	.	16gg\JJ	.	.	.	.	.	.	.	.	.	.	.	.	.	.
8G\L	8g\L	.	16ee\LL	.	16ccc\LL	.	4G\	-len-	8e\L	-len-	4g\	-len-	8gg\L	-len-	2r	2r	.	.	.
.	.	.	16ee\	.	16ccc\	.	.	.	.	.	.	.	.	.	.	.	.	.	.
8G\	8g\	.	16ee\	.	16ccc\	.	.	.	8c\J	.	.	.	8ee\J	.	.	.	.	.	.
.	.	.	16ee\JJ	.	16ccc\JJ	.	.	.	.	.	.	.	.	.	.	.	.	.	.
!	!	!	!	!	!	!	!	!	!LO:LB:g=original	!	!	!	!	!	!	!	!	!	!
8c\	8cc\	.	16ee\LL	.	16gg\LL	.	4c\	-ne	8c\L	-ne	4cc\	-ne	8ee\L	-ne	.	.	.	.	.
.	.	.	16ee\	.	16gg\	.	.	.	.	.	.	.	.	.	.	.	.	.	.
8c\J	8cc\J	.	16ee\	.	16gg\	.	.	.	8e\J	.	.	.	8gg\J	.	.	.	.	.	.
.	.	.	16ee\JJ	.	16gg\JJ	.	.	.	.	.	.	.	.	.	.	.	.	.	.
!	!	!	!	!	!	!	!	!	!	!	!	!	!LO:LB:g=original	!	!	!	!	!	!
=33	=33	=33	=33	=33	=33	=33	=33	=33	=33	=33	=33	=33	=33	=33	=33	=33	=33	=33	=33
!	!	!	!	!	!	!	!	!	!LO:SIC:s=4Bn:v	!	!	!	!	!	!	!LO:TX:a:t=P:w źródle ten takt został dopisany później przez skryptora:problem	!	!	!
8D/L	8d/L	.	16dd\LL	.	16ff\LL	.	4d\	me-	4B-\	me-	4g\	me-	4dd\	me-	4g\	4bX\	1ryy	1gg	.
.	.	.	16dd\	.	16ff\	.	.	.	.	.	.	.	.	.	.	.	.	.	.
8D/	8d/	.	16dd\	.	16ff\	.	.	.	.	.	.	.	.	.	.	.	.	.	.
.	.	.	16dd\JJ	.	16ff\JJ	.	.	.	.	.	.	.	.	.	.	.	.	.	.
8BBn/	8Bn/	.	16dd\LL	.	16ff\LL	.	4Bn\	-los	4d\	-los	4bn\	-los	4ff\	-los	4r	4r	.	.	.
.	.	.	16dd\	.	16ff\	.	.	.	.	.	.	.	.	.	.	.	.	.	.
8BB/J	8B/J	.	16dd\	.	16ff\	.	.	.	.	.	.	.	.	.	.	.	.	.	.
.	.	.	16dd\JJ	.	16ff\JJ	.	.	.	.	.	.	.	.	.	.	.	.	.	.
8D/L	8d/L	.	16bn\LL	.	16dd\LL	.	8d\L	da-	8d\L	da-	4g\	da-	8ff\L	Da-	2r	2r	.	.	.
.	.	.	16b\	.	16dd\	.	.	.	.	.	.	.	.	.	.	.	.	.	.
!	!	!	!	!	!	!	!	!	!LO:SIC:s=8Bn:v	!	!	!	!	!	!	!	!	!	!
8D/	8d/	.	16b\	.	16dd\	.	8B\J	.	8B-\J	.	.	.	8dd\J	.	.	.	.	.	.
.	.	.	16b\JJ	.	16dd\JJ	.	.	.	.	.	.	.	.	.	.	.	.	.	.
!	!	!	!	!	!	!	!	!	!LO:SIC:s=8Bn:v	!	!	!	!	!	!	!	!	!	!
8GG/	8G/	.	16dd\LL	.	16ff\LL	.	4B\	-te	8B-\L	-te	4b\	-te	8dd\L	-te	.	.	.	.	.
.	.	.	16dd\	.	16ff\	.	.	.	.	.	.	.	.	.	.	.	.	.	.
8GG/J	8G/J	.	16dd\	.	16ff\	.	.	.	8d\J	.	.	.	8ff\J	.	.	.	.	.	.
.	.	.	16dd\JJ	.	16ff\JJ	.	.	.	.	.	.	.	.	.	.	.	.	.	.
!	!	!	!	!	!	!	!	!	!	!	!	!	!	!	!	!	!	!LO:LB:g=original	!
=34	=34	=34	=34	=34	=34	=34	=34	=34	=34	=34	=34	=34	=34	=34	=34	=34	=34	=34	=34
8C/L	8e\L	.	16ee\LL	.	4gg\	.	4c\	di-	4e\	Di-	4cc\	di-	4gg\	di-	4g\	4cc\	1ryy	4gg\	.
.	.	.	16ee\	.	.	.	.	.	.	.	.	.	.	.	.	.	.	.	.
8GG/	8c\	.	16ee\	.	.	.	.	.	.	.	.	.	.	.	.	.	.	.	.
.	.	.	16ee\JJ	.	.	.	.	.	.	.	.	.	.	.	.	.	.	.	.
8C/	8e\	.	16ee\LL	.	16ccc\LL	.	4C/	-em	4e\	-em	4cc\	-em	4gg\	-em	4r	4r	.	4r	.
.	.	.	16ee\	.	16gg\	.	.	.	.	.	.	.	.	.	.	.	.	.	.
8GG/J	8c\J	.	16ee\	.	16ff\	.	.	.	.	.	.	.	.	.	.	.	.	.	.
.	.	.	16ee\JJ	.	16ee\JJ	.	.	.	.	.	.	.	.	.	.	.	.	.	.
8BBn/L	8d/L	.	16dd\LL	.	8ff\L	.	4G\	hanc	4d\	hanc	4bn\	hanc	4ff\	hanc	2r	4bX\	.	8ff\L	.
.	.	.	16dd\	.	.	.	.	.	.	.	.	.	.	.	.	.	.	.	.
8GG/	8Bn/	.	16dd\	.	8dd\J	.	.	.	.	.	.	.	.	.	.	.	.	8dd\	.
.	.	.	16dd\JJ	.	.	.	.	.	.	.	.	.	.	.	.	.	.	.	.
8BB/	8d/	.	16dd\LL	.	4r	.	4G\	con-	4d\	Con-	4b\	con-	4ff\	con-	.	4r	.	8dd\	.
.	.	.	16dd\	.	.	.	.	.	.	.	.	.	.	.	.	.	.	.	.
8GG/J	8B/J	.	16dd\	.	.	.	.	.	.	.	.	.	.	.	.	.	.	8ff\J	.
.	.	.	16dd\JJ	.	.	.	.	.	.	.	.	.	.	.	.	.	.	.	.
!	!	!	!LO:LB:g=original	!	!	!	!	!	!	!	!	!	!	!	!	!	!	!	!
=35	=35	=35	=35	=35	=35	=35	=35	=35	=35	=35	=35	=35	=35	=35	=35	=35	=35	=35	=35
!LO:SIC:s=8BBn:v	!	!	!	!	!	!	!LO:SIC:s=4Bn:v	!	!	!	!LO:SIC:s=4bn:v	!	!	!	!	!	!	!	!
!	!	!	!	!	!	!	!LO:SIC:s=-de-:v	!	!	!	!	!	!	!	!	!	!	!	!
8BB-/L	8d/L	.	4f/	.	4dd\	.	4B-\	-di-	4f\	-de-	4b-\	-de-	4dd\	-De-	4g\	4bX\	1ryy	4dd\	.
!	!LO:SIC:s=8Bn:v	!	!	!	!	!	!	!	!	!	!	!	!	!	!	!	!	!	!
8GG/	8B-/	.	.	.	.	.	.	.	.	.	.	.	.	.	.	.	.	.	.
!LO:SIC:s=8BBn:v	!	!	!	!	!	!	!	!	!	!	!LO:SIC:s=4bn:v	!	!	!	!	!	!	!	!
8BB-/	8d/	.	16g/LL	.	16ee\LL	.	4G\	-co-	4f\	-co-	4b-\	-co-	4dd\	-co-	4r	4r	.	4r	.
.	.	.	16f/	.	16dd\	.	.	.	.	.	.	.	.	.	.	.	.	.	.
!	!LO:SIC:s=8Bn:v	!	!	!	!	!	!	!	!	!	!	!	!	!	!	!	!	!	!
8GG/J	8B-/J	.	16e/	.	16cc\	.	.	.	.	.	.	.	.	.	.	.	.	.	.
.	.	.	16d/JJ	.	16bn\JJ	.	.	.	.	.	.	.	.	.	.	.	.	.	.
4C/	8c/L	.	8e/L	.	8cc\L	.	4c\	-ra-	4e\	-ra-	4cc\	-ra-	8ee\	-ra-	2r	4cc\	.	2r	.
.	8e/J	.	8e/	.	8g\	.	.	.	.	.	.	.	8ee\	-te	.	.	.	.	.
4CC/	4c/	.	8cc/	.	8cc\	.	4C/	-te	4e\	-te	4cc\	-te	4r	.	.	4r	.	.	.
.	.	.	8ee/J	.	8ee\J	.	.	.	.	.	.	.	.	.	.	.	.	.	.
=36	=36	=36	=36	=36	=36	=36	=36	=36	=36	=36	=36	=36	=36	=36	=36	=36	=36	=36	=36
8C/L	8e\L	.	16ee\LL	.	4gg\	.	4c\	di-	4e\	Di-	4cc\	di-	4gg\	di-	00r	00r	1ryy	4gg\	.
.	.	.	16ee\	.	.	.	.	.	.	.	.	.	.	.	.	.	.	.	.
8GG/	8c\	.	16ee\	.	.	.	.	.	.	.	.	.	.	.	.	.	.	.	.
.	.	.	16ee\JJ	.	.	.	.	.	.	.	.	.	.	.	.	.	.	.	.
8C/	8e\	.	16ee\LL	.	16ccc\LL	.	4C/	-em	4e\	-em	4cc\	-em	4gg\	-em	.	.	.	4r	.
.	.	.	16ee\	.	16gg\	.	.	.	.	.	.	.	.	.	.	.	.	.	.
8GG/J	8c\J	.	16ee\	.	16ff\	.	.	.	.	.	.	.	.	.	.	.	.	.	.
.	.	.	16ee\JJ	.	16ee\JJ	.	.	.	.	.	.	.	.	.	.	.	.	.	.
!	!	!	!	!	!	!	!	!	!	!	!LO:LB:g=original	!	!	!	!	!	!	!	!
!	!	!	!	!	!	!	!	!	!	!	!LO:SIC:s=4bn:v	!	!	!	!	!	!	!	!
8BBn/L	8d\L	.	16dd\LL	.	8ff\L	.	4G\	hanc	4d\	hanc	4b-\	hanc	4ff\	hanc	.	.	.	8ff\L	.
.	.	.	16dd\	.	.	.	.	.	.	.	.	.	.	.	.	.	.	.	.
!	!LO:SIC:s=8Bn:v	!	!	!	!	!	!	!	!	!	!	!	!	!	!	!	!	!	!
8GG/	8B-\	.	16dd\	.	8dd\J	.	.	.	.	.	.	.	.	.	.	.	.	8dd\	.
.	.	.	16dd\JJ	.	.	.	.	.	.	.	.	.	.	.	.	.	.	.	.
!	!	!	!	!	!	!	!	!	!	!	!LO:SIC:s=4bn:v	!	!	!	!	!	!	!	!
8BB/	8d\	.	16dd\LL	.	4r	.	4G\	con-	4d\	Con-	4b-\	con-	4ff\	con-	.	.	.	8dd\	.
.	.	.	16dd\	.	.	.	.	.	.	.	.	.	.	.	.	.	.	.	.
!	!LO:SIC:s=8Bn:v	!	!	!	!	!	!	!	!	!	!	!	!	!	!	!	!	!LO:TX:a:t=e:problem:wysykośc poprawiona przez skryptora	!
8GG/J	8B-\J	.	16dd\	.	.	.	.	.	.	.	.	.	.	.	.	.	.	8ee\J	.
.	.	.	16dd\JJ	.	.	.	.	.	.	.	.	.	.	.	.	.	.	.	.
!	!LO:LB:g=original	!	!	!	!LO:LB:g=original	!	!	!	!	!	!	!	!	!	!	!	!	!	!
=37	=37	=37	=37	=37	=37	=37	=37	=37	=37	=37	=37	=37	=37	=37	=37	=37	=37	=37	=37
!	!	!	!	!	!	!	!LO:SIC:s=4Bn:v	!	!	!	!LO:SIC:s=4bn:v	!	!	!	!	!	!	!	!
4G\	8G/L	.	4f/	.	4dd\	.	4B-\	-de-	4f\	-de-	4b-\	-de-	4dd\	-de-	.	.	1ryy	4dd\	.
.	8G/	.	.	.	.	.	.	.	.	.	.	.	.	.	.	.	.	.	.
!	!	!	!	!	!	!	!	!	!	!	!LO:SIC:s=4bn:v	!	!	!	!	!	!	!	!
4GG/	8G/	.	16g/LL	.	16ee\LL	.	4G\	-co-	4f\	-co-	4b-\	-co-	4dd\	-co-	.	.	.	4r	.
.	.	.	16f/	.	16dd\	.	.	.	.	.	.	.	.	.	.	.	.	.	.
.	8G/J	.	16e/	.	16cc\	.	.	.	.	.	.	.	.	.	.	.	.	.	.
.	.	.	16d/JJ	.	16bn\JJ	.	.	.	.	.	.	.	.	.	.	.	.	.	.
4C/	4c/	.	8e/L	.	8cc\L	.	4c\	-ra-	4e\	-ra-	4cc\	-ra-	8ee\	-ra-	.	.	.	2r	.
.	.	.	8e/	.	8g\	.	.	.	.	.	.	.	8ee\	-te	.	.	.	.	.
4r	4r	.	8cc/	.	8cc\	.	4C/	-te	4e\	-te	4cc\	-te	4r	.	.	.	.	.	.
.	.	.	8ee/J	.	8ee\J	.	.	.	.	.	.	.	.	.	.	.	.	.	.
!	!	!	!	!	!	!	!LO:LB:g=original	!	!	!	!	!	!	!	!	!	!	!	!
=38	=38	=38	=38	=38	=38	=38	=38	=38	=38	=38	=38	=38	=38	=38	=38	=38	=38	=38	=38
8C\L	8e\L	.	8ee\L	.	4gg\	.	8C/L	con-	4c\	Con-	4g\	con-	4ee\	con-	.	.	1ryy	8gg\L	.
8D\	8f\	.	8ee\J	.	.	.	8D/J	.	.	.	.	.	.	.	.	.	.	8ee\J	.
8E\	8g\	.	8ee\L	.	16ccc\LL	.	8E\	-de-	8c\	-de-	8g\	-de-	8ee\	-de-	.	.	.	4gg\	.
.	.	.	.	.	16gg\	.	.	.	.	.	.	.	.	.	.	.	.	.	.
8F\J	8e\J	.	16dd\L	.	16ff\	.	8F\	-co-	8c\	-co-	8g\	-co-	8ee\	-co-	.	.	.	.	.
.	.	.	16cc\JJ	.	16ee\JJ	.	.	.	.	.	.	.	.	.	.	.	.	.	.
!	!	!	!	!	!	!	!	!	!	!	!	!	!LO:LB:g=original	!	!	!	!	!	!
8G\L	4d\	.	8cc\L	.	8ee\L	.	8G\	-ra-	8c\	-ra-	8g\	-ra-	8ee\	-ra-	.	.	.	8ff\	.
8D\J	.	.	8bn\J	.	8dd\J	.	8GG/	-te	8Bn\	-te	8g\	-te	8dd\	-te.	.	.	.	4dd\	.
4GG/	4d\	.	4r	.	4r	.	4r	.	4r	.	4r	.	4r	.	.	.	.	.	.
.	.	.	.	.	.	.	.	.	.	.	.	.	.	.	.	.	.	8ff\	.
!	!	!	!	!	!	!	!	!	!LO:LB:g=original	!	!	!	!	!	!	!	!	!	!
=39	=39	=39	=39	=39	=39	=39	=39	=39	=39	=39	=39	=39	=39	=39	=39	=39	=39	=39	=39
!	!	!	!	!	!	!	!LO:SIC:s=et:v	!	!	!	!	!	!	!	!	!	!	!	!
8C/L	8c/L	.	16ee\LL	.	16gg\LL	.	4c\	ex	4e\	et	4g\	et	8gg\L	Et	.	.	1ryy	1r	.
.	.	.	16ee\	.	16ee\	.	.	.	.	.	.	.	.	.	.	.	.	.	.
8GG/	8G/	.	16ee\	.	16ee\	.	.	.	.	.	.	.	8ee\J	.	.	.	.	.	.
.	.	.	16ee\JJ	.	16gg\JJ	.	.	.	.	.	.	.	.	.	.	.	.	.	.
8C/	8c/	.	16ee\LL	.	4gg\	.	4G\	ma-	4e\	ma-	4g\	ma-	4gg\	Ma-	.	.	.	.	.
.	.	.	16ee\	.	.	.	.	.	.	.	.	.	.	.	.	.	.	.	.
8GG/J	8G/J	.	16ee\	.	.	.	.	.	.	.	.	.	.	.	.	.	.	.	.
.	.	.	16ee\JJ	.	.	.	.	.	.	.	.	.	.	.	.	.	.	.	.
!	!	!	!	!	!	!	!	!	!	!	!LO:SIC:s=4bn:v	!	!	!	!	!	!	!	!
8BBn/L	8Bn/L	.	16dd\LL	.	8ff\	.	4Bn\	-ri-	4d\	-ri-	4b-\	-ri-	8ff\	-ri-	.	.	.	.	.
.	.	.	16dd\	.	.	.	.	.	.	.	.	.	.	.	.	.	.	.	.
8GG/	8G/	.	16dd\	.	4dd\	.	.	.	.	.	.	.	4dd\	.	.	.	.	.	.
.	.	.	16dd\JJ	.	.	.	.	.	.	.	.	.	.	.	.	.	.	.	.
!	!	!	!	!	!	!	!	!	!	!	!LO:SIC:s=4bn:v	!	!	!	!	!	!	!	!
8BB/	8B/	.	16dd\LL	.	.	.	4G\	-am	4d\	-am	4b-\	-am	.	.	.	.	.	.	.
.	.	.	16dd\	.	.	.	.	.	.	.	.	.	.	.	.	.	.	.	.
8GG/J	8G/J	.	16dd\	.	8ff\	.	.	.	.	.	.	.	8ff\	-am	.	.	.	.	.
.	.	.	16dd\JJ	.	.	.	.	.	.	.	.	.	.	.	.	.	.	.	.
=40	=40	=40	=40	=40	=40	=40	=40	=40	=40	=40	=40	=40	=40	=40	=40	=40	=40	=40	=40
!	!	!	!LO:TX:a:t=P:znak początku repetycji:problem	!	!	!	!	!	!	!	!	!	!	!	!	!	!	!	!
8C/L	8c/L	.	16ee\LL	.	16gg\LL	.	4c\	ex	4e\	Col-	4g\	et	8gg\L	et	0r	0r	1ryy	8gg\L	.
.	.	.	16ee\	.	16ee\	.	.	.	.	.	.	.	.	.	.	.	.	.	.
8GG/	8G/	.	16ee\	.	16ee\	.	.	.	.	.	.	.	8ee\J	.	.	.	.	8ee\J	.
.	.	.	16ee\JJ	.	16gg\JJ	.	.	.	.	.	.	.	.	.	.	.	.	.	.
8C/	8c/	.	16ee\LL	.	4gg\	.	4G\	ma-	4e\	-lau-	4g\	ma-	4gg\	Ma-	.	.	.	4gg\	.
.	.	.	16ee\	.	.	.	.	.	.	.	.	.	.	.	.	.	.	.	.
8GG/J	8G/J	.	16ee\	.	.	.	.	.	.	.	.	.	.	.	.	.	.	.	.
.	.	.	16ee\JJ	.	.	.	.	.	.	.	.	.	.	.	.	.	.	.	.
!	!	!	!LO:LB:g=original	!	!	!	!	!	!	!	!	!	!	!	!	!	!	!	!
!	!LO:SIC:s=8Bn:v	!	!	!	!	!	!LO:SIC:s=4Bn:v	!	!	!	!	!	!	!	!	!	!	!	!
8BBn/L	8B-/L	.	16dd\LL	.	8ff\	.	4B-\	-ri-	4d\	-da-	4g\	-ri-	8ff\	-ri-	.	.	.	8ff\	.
.	.	.	16dd\	.	.	.	.	.	.	.	.	.	.	.	.	.	.	.	.
8GG/	8G/	.	16dd\	.	4dd\	.	.	.	.	.	.	.	4dd\	.	.	.	.	4dd\	.
.	.	.	16dd\JJ	.	.	.	.	.	.	.	.	.	.	.	.	.	.	.	.
!	!LO:SIC:s=8Bn:v	!	!	!	!	!	!	!	!	!	!	!	!	!	!	!	!	!	!
8BB/	8B-/	.	16dd\LL	.	.	.	4G\	-am	4d\	-te	4g\	-am	.	.	.	.	.	.	.
.	.	.	16dd\	.	.	.	.	.	.	.	.	.	.	.	.	.	.	.	.
8GG/J	8G/J	.	16dd\	.	8ff\	.	.	.	.	.	.	.	8ff\	-am	.	.	.	8ff\	.
.	.	.	16dd\JJ	.	.	.	.	.	.	.	.	.	.	.	.	.	.	.	.
!	!	!	!LO:TX:a:t=P:znak końca repetycji:problem	!	!	!	!	!	!	!	!	!	!	!	!	!	!	!	!
!LO:LB:g=original	!	!	!	!	!	!	!	!	!	!	!	!	!	!	!	!	!	!	!
=41	=41	=41	=41	=41	=41	=41	=41	=41	=41	=41	=41	=41	=41	=41	=41	=41	=41	=41	=41
*	*	*	*rep	*	*	*	*	*	*	*	*	*	*	*	*	*	*	*	*
!	!	!	!LO:TX:a:t=P:powtórzenie taktu oznaczone znakami repetycji:problem	!	!	!	!	!	!	!	!	!	!	!	!	!	!	!	!
8C/L	8c/L	.	16ee\LL	.	16gg\LL	.	4c\	col-	4e\	Col-	4g\	col-	8gg\L	co-	.	.	1ryy	1r	.
.	.	.	16ee\	.	16ee\	.	.	.	.	.	.	.	.	.	.	.	.	.	.
8GG/	8G/	.	16ee\	.	16ee\	.	.	.	.	.	.	.	8ee\J	.	.	.	.	.	.
.	.	.	16ee\JJ	.	16gg\JJ	.	.	.	.	.	.	.	.	.	.	.	.	.	.
8C/	8c/	.	16ee\LL	.	4gg\	.	4G\	-lau-	4e\	-lau-	4g\	-lau-	4gg\	-lau-	.	.	.	.	.
.	.	.	16ee\	.	.	.	.	.	.	.	.	.	.	.	.	.	.	.	.
8GG/J	8G/J	.	16ee\	.	.	.	.	.	.	.	.	.	.	.	.	.	.	.	.
.	.	.	16ee\JJ	.	.	.	.	.	.	.	.	.	.	.	.	.	.	.	.
!LO:SIC:s=8BBn:v	!LO:SIC:s=8Bn:v	!	!	!	!	!	!	!	!	!	!	!	!	!	!	!	!	!	!
8BB-/L	8B-/L	.	16dd\LL	.	8ff\	.	(>4Bn\	-da-	2d\	-da-	2bn\	-da-	8ff\	-da-	.	.	.	.	.
.	.	.	16dd\	.	.	.	.	.	.	.	.	.	.	.	.	.	.	.	.
8GG/	8G/	.	16dd\	.	4dd\	.	.	.	.	.	.	.	4dd\	.	.	.	.	.	.
.	.	.	16dd\JJ	.	.	.	.	.	.	.	.	.	.	.	.	.	.	.	.
!LO:SIC:s=8BBn:v	!LO:SIC:s=8Bn:v	!	!	!	!	!	!	!	!	!	!	!	!	!	!	!	!	!	!
8BB-/	8B-/	.	16dd\LL	.	.	.	4G\)	.	.	.	.	.	.	.	.	.	.	.	.
.	.	.	16dd\	.	.	.	.	.	.	.	.	.	.	.	.	.	.	.	.
8GG/J	8G/J	.	16dd\	.	8ff\	.	.	.	.	.	.	.	8ff\	.	.	.	.	.	.
.	.	.	16dd\JJ	.	.	.	.	.	.	.	.	.	.	.	.	.	.	.	.
*	*	*	*Xrep	*	*	*	*	*	*	*	*	*	*	*	*	*	*	*	*
!	!	!	!	!	!	!	!	!	!	!	!LO:LB:g=original	!	!	!	!	!	!	!	!
=42	=42	=42	=42	=42	=42	=42	=42	=42	=42	=42	=42	=42	=42	=42	=42	=42	=42	=42	=42
!LO:TX:a:i:t=Solo	!	!	!	!	!	!	!	!	!	!	!	!	!	!	!LO:TX:a:t=P:problem:pominięty fragment	!	!	!LO:TX:a:i:t=Solo	!
4C/	8c\L	.	4cc\	.	4ee\	.	4c\	-te	4c\	-te	4g\	-te	4ee\	-te	1ryy	1r	1ryy	4ee\	.
.	8c\	.	.	.	.	.	.	.	.	.	.	.	.	.	.	.	.	.	.
4C/	8e\	.	8cc\L	.	8cc\L	.	4r	.	4r	.	4r	.	4r	.	.	.	.	8cc\L	.
.	8e\J	.	8ee\J	.	8ccc\J	.	.	.	.	.	.	.	.	.	.	.	.	8ccc\J	.
4E\	8e\L	.	8ee\	.	8ccc\L	.	2r	.	2r	.	2r	.	2r	.	.	.	.	8ccc\L	.
.	8e\	.	4ee\	.	8gg\	.	.	.	.	.	.	.	.	.	.	.	.	8gg\	.
4C\	8e\	.	.	.	8gg\	.	.	.	.	.	.	.	.	.	.	.	.	8gg\	.
.	8e\J	.	8cc\	.	8ee\J	.	.	.	.	.	.	.	.	.	.	.	.	8ee\J	.
!	!	!	!	!	!	!	!	!	!	!	!	!	!	!	!	!	!	!LO:LB:g=original	!
=43	=43	=43	=43	=43	=43	=43	=43	=43	=43	=43	=43	=43	=43	=43	=43	=43	=43	=43	=43
!LO:TX:a:B:t=T	!	!	!	!	!	!	!	!	!	!	!	!	!	!	!	!	!	!	!
4F\	8f\L	.	4ff\	.	4aa\	.	4r	.	4r	.	4r	.	4r	.	4r	4r	1ryy	4aa\	.
.	8a\	.	.	.	.	.	.	.	.	.	.	.	.	.	.	.	.	.	.
!	!	!	!	!	!	!	!	!	!	!	!LO:SIC:s=4bn:v	!	!	!	!	!	!	!	!
8F\L	8a\	.	16ff\LL	.	16aa\LL	.	4F\	col-	4d\	Col-	4b-\	col-	4ff\	co-	4g\	4bX\	.	4aa\	.
.	.	.	16dd\	.	16ff\	.	.	.	.	.	.	.	.	.	.	.	.	.	.
8F\J	8a\J	.	16cc\	.	16ee\	.	.	.	.	.	.	.	.	.	.	.	.	.	.
.	.	.	16bn\JJ	.	16dd\JJ	.	.	.	.	.	.	.	.	.	.	.	.	.	.
!LO:TX:a:t=P:mixed beam:problem	!	!	!LO:TX:a:t=P:mixed beam:problem	!	!	!	!	!	!	!	!	!	!	!	!	!	!	!	!
8G\L	8g\L	.	8ee\L	.	8gg\L	.	4G\	-lau-	4g\	-lau-	4cc\	-lau-	8ee\L	-lau-	4g\	4cc\	.	2gg\	.
8G\	8bn\	.	8e/J	.	8cc\J	.	.	.	.	.	.	.	8cc\J	.	.	.	.	.	.
.	.	.	.	.	.	.	.	.	.	.	.	.	8qqee/	.	.	.	.	.	.
8GG/	8b\	.	16g/LL	.	16ee\LL	.	4GG/	-da-	4g\	-da-	4g\	-da-	8.dd\L	-da-	4g\	4b\	.	.	.
.	.	.	16f/	.	16dd\	.	.	.	.	.	.	.	.	.	.	.	.	.	.
8GG/J	8b\J	.	16e/	.	16cc\	.	.	.	.	.	.	.	.	.	.	.	.	.	.
.	.	.	16d/JJ	.	16bn\JJ	.	.	.	.	.	.	.	32cc\LL	.	.	.	.	.	.
.	.	.	.	.	.	.	.	.	.	.	.	.	32bn\JJJ	.	.	.	.	.	.
!	!	!	!	!	!LO:LB:g=original	!	!LO:LB:g=original	!	!	!	!	!	!LO:LB:g=original	!	!	!	!	!	!
=44	=44	=44	=44	=44	=44	=44	=44	=44	=44	=44	=44	=44	=44	=44	=44	=44	=44	=44	=44
!LO:TX:a:i:t=So	!	!	!LO:TX:a:t=P:mixed beam:problem	!	!	!	!	!	!	!	!	!	!	!	!	!	!	!	!
4C\	8cc\L	.	8e/L	.	4cc\	.	4C/	-te	4g\	-te	4g\	-te	4cc\	-te	4g\	4cc\	1ryy	4gg\	.
.	8cc\	.	8e/	.	.	.	.	.	.	.	.	.	.	.	.	.	.	.	.
4C\	8e\	.	8e/	.	8cc\L	.	4r	.	4r	.	4r	.	4r	.	4r	4r	.	8cc\L	.
.	8e\J	.	8ee\J	.	8ccc\J	.	.	.	.	.	.	.	.	.	.	.	.	8ccc\J	.
!	!	!	!	!	!LO:TX:a:t=P:w źródle grupa poprawiana przez skryptora z szesnastek na ósemki:problem	!	!	!	!	!	!	!	!	!	!	!	!	!	!
4E\	8e\L	.	8ee\	.	8ccc\L	.	2r	.	2r	.	2r	.	2r	.	2r	2r	.	8ccc\L	.
.	8e\	.	4ee\	.	8gg\	.	.	.	.	.	.	.	.	.	.	.	.	8gg\	.
4C\	8e\	.	.	.	8gg\	.	.	.	.	.	.	.	.	.	.	.	.	8gg\	.
.	8e\J	.	8cc\	.	8ee\J	.	.	.	.	.	.	.	.	.	.	.	.	8ee\J	.
!	!LO:LB:g=original	!	!	!	!	!	!	!	!	!	!	!	!	!	!	!	!	!	!
=45	=45	=45	=45	=45	=45	=45	=45	=45	=45	=45	=45	=45	=45	=45	=45	=45	=45	=45	=45
4F\	8f\L	.	4ff\	.	4aa\	.	4r	.	4r	.	4r	.	4r	.	4r	4r	1ryy	4aa\	.
.	8a\	.	.	.	.	.	.	.	.	.	.	.	.	.	.	.	.	.	.
!	!	!	!	!	!	!	!	!	!	!	!LO:SIC:s=4bn:v	!	!	!	!	!	!	!	!
8F\L	8a\	.	16ff\LL	.	16aa\LL	.	4F\	col-	4d\	Col-	4b-\	col-	4ff\	co-	4g\	4bX\	.	4aa\	.
.	.	.	16dd\	.	16ff\	.	.	.	.	.	.	.	.	.	.	.	.	.	.
8F\J	8a\J	.	16cc\	.	16ee\	.	.	.	.	.	.	.	.	.	.	.	.	.	.
.	.	.	16bn\JJ	.	16dd\JJ	.	.	.	.	.	.	.	.	.	.	.	.	.	.
!LO:TX:a:t=P:mixed beam:problem	!	!	!LO:TX:a:t=P:mixed beam:problem	!	!	!	!	!	!	!	!	!	!	!	!	!	!	!	!
8G\L	8g\L	.	8ee\L	.	8gg\L	.	4G\	-lau-	4g\	-lau-	4cc\	-lau-	8ee\L	-lau-	4g\	4cc\	.	2gg\	.
8G\	8bn\	.	8e/J	.	8cc\J	.	.	.	.	.	.	.	8cc\J	.	.	.	.	.	.
8GG/	8b\	.	16g/LL	.	16ee\LL	.	4GG/	-da-	4g\	-da-	4g\	-da-	8.dd\L	-da-	4g\	4b\	.	.	.
.	.	.	16f/	.	16dd\	.	.	.	.	.	.	.	.	.	.	.	.	.	.
8GG/J	8b\J	.	16e/	.	16cc\	.	.	.	.	.	.	.	.	.	.	.	.	.	.
.	.	.	16d/JJ	.	16b-\JJ	.	.	.	.	.	.	.	32cc\LL	.	.	.	.	.	.
.	.	.	.	.	.	.	.	.	.	.	.	.	32bn\JJJ	.	.	.	.	.	.
!	!	!	!	!	!	!	!	!	!	!	!	!	!	!	!LO:LB:g=original	!	!	!	!
=46	=46	=46	=46	=46	=46	=46	=46	=46	=46	=46	=46	=46	=46	=46	=46	=46	=46	=46	=46
.	.	.	.	.	.	.	.	.	.	.	.	.	.	.	.	8qqdd/	.	.	.
!	!LO:TX:a:t=P:mixed beam:problem	!	!	!LO:DY:a:t=%sor.	!	!	!	!	!	!	!	!	!	!	!	!	!	!	!
8C/L	8cc\L	.	16e\LL	f	16cc\LL	.	4C/	-te	4g\	-te	4g\	-te	4cc\	-te	8g\L	8cc\L	1ryy	4gg\	.
.	.	.	16cc\	.	16ee\	.	.	.	.	.	.	.	.	.	.	.	.	.	.
8GG/	8c/	.	16cc\	.	16ee\	.	.	.	.	.	.	.	.	.	16g\L	16cc\L	.	.	.
.	.	.	16cc\JJ	.	16ee\JJ	.	.	.	.	.	.	.	.	.	16g\JJ	16cc\JJ	.	.	.
8C/	8cc\	.	16cc\LL	.	16ee\LL	.	4r	.	4r	.	4r	.	4r	.	4g\	4cc\	.	4r	.
.	.	.	16cc\	.	16ee\	.	.	.	.	.	.	.	.	.	.	.	.	.	.
8GG/J	8c/J	.	16cc\	.	16ee\	.	.	.	.	.	.	.	.	.	.	.	.	.	.
.	.	.	16cc\JJ	.	16ee\JJ	.	.	.	.	.	.	.	.	.	.	.	.	.	.
!	!LO:TX:a:t=P:mixed beam:problem	!	!	!	!	!	!	!	!	!	!	!	!	!	!	!	!	!	!
!LO:SIC:s=8BBn:v	!	!	!	!	!	!	!	!	!	!	!	!	!	!	!	!	!	!	!
8BB-/L	8cc\L	.	16cc\LL	.	16ee\LL	.	2r	.	2r	.	2r	.	2r	.	2r	2r	.	2r	.
.	.	.	16ee\	.	16gg\	.	.	.	.	.	.	.	.	.	.	.	.	.	.
8GG/	8c/	.	16ee\	.	16gg\	.	.	.	.	.	.	.	.	.	.	.	.	.	.
.	.	.	16ee\JJ	.	16gg\JJ	.	.	.	.	.	.	.	.	.	.	.	.	.	.
!LO:SIC:s=8BBn:v	!	!	!	!	!	!	!	!	!	!	!	!	!	!	!	!	!	!	!
8BB-/	8cc\	.	16ee\LL	.	16gg\LL	.	.	.	.	.	.	.	.	.	.	.	.	.	.
.	.	.	16ee\	.	16gg\	.	.	.	.	.	.	.	.	.	.	.	.	.	.
8GG/J	8c/J	.	16ee\	.	16gg\	.	.	.	.	.	.	.	.	.	.	.	.	.	.
.	.	.	16ee\JJ	.	16gg\JJ	.	.	.	.	.	.	.	.	.	.	.	.	.	.
!	!	!	!LO:LB:g=original	!	!	!	!	!	!	!	!	!	!	!	!	!	!	!	!
=47	=47	=47	=47	=47	=47	=47	=47	=47	=47	=47	=47	=47	=47	=47	=47	=47	=47	=47	=47
!	!	!	!	!	!	!	!LO:N:vis=00	!LO:N:vis=00	!LO:N:vis=00	!LO:N:vis=00	!	!	!	!	!	!	!	!LO:TX:a:B:t=4	!
8C\L	8e\L	.	16ee\LL	.	4ccc\	.	0r	.	0r	.	0r	.	0r	.	4g\	4cc\	1ryy	00r	.
.	.	.	16ee\	.	.	.	.	.	.	.	.	.	.	.	.	.	.	.	.
8C\	8e\	.	16ee\	.	.	.	.	.	.	.	.	.	.	.	.	.	.	.	.
.	.	.	16ee\JJ	.	.	.	.	.	.	.	.	.	.	.	.	.	.	.	.
8E\	8e\	.	16ee\LL	.	8gg\L	.	.	.	.	.	.	.	.	.	4r	4r	.	.	.
.	.	.	16ee\	.	.	.	.	.	.	.	.	.	.	.	.	.	.	.	.
8E\J	8e\J	.	16ee\	.	8ee\J	.	.	.	.	.	.	.	.	.	.	.	.	.	.
.	.	.	16ee\JJ	.	.	.	.	.	.	.	.	.	.	.	.	.	.	.	.
!LO:TX:a:t=P:mixed beam:problem	!	!	!	!	!	!	!	!	!	!	!	!	!	!	!	!	!	!	!
8F\L	8a\L	.	16dd\LL	.	8dd\L	.	.	.	.	.	.	.	.	.	4g\	4bX\	.	.	.
.	.	.	16dd\	.	.	.	.	.	.	.	.	.	.	.	.	.	.	.	.
8F\	8a\	.	16dd\	.	16ff\L	.	.	.	.	.	.	.	.	.	.	.	.	.	.
.	.	.	16dd\JJ	.	16ee\JJ	.	.	.	.	.	.	.	.	.	.	.	.	.	.
8G\	8g\	.	16dd\LL	.	8dd\L	.	.	.	.	.	.	.	.	.	4r	4r	.	.	.
.	.	.	16dd\	.	.	.	.	.	.	.	.	.	.	.	.	.	.	.	.
8GG/J	8g\J	.	16dd\	.	16cc\L	.	.	.	.	.	.	.	.	.	.	.	.	.	.
.	.	.	16dd\JJ	.	16bn\JJ	.	.	.	.	.	.	.	.	.	.	.	.	.	.
=48	=48	=48	=48	=48	=48	=48	=48	=48	=48	=48	=48	=48	=48	=48	=48	=48	=48	=48	=48
4C\	8c\L	.	16cc\LL	.	16cc\LL	.	.	.	.	.	.	.	.	.	0r	0r	1ryy	.	.
.	.	.	16cc\	.	16ee\	.	.	.	.	.	.	.	.	.	.	.	.	.	.
.	8c\	.	16cc\	.	16ee\	.	.	.	.	.	.	.	.	.	.	.	.	.	.
.	.	.	16cc\JJ	.	16ee\JJ	.	.	.	.	.	.	.	.	.	.	.	.	.	.
4c\	8cc\	.	16cc\LL	.	16ee\LL	.	.	.	.	.	.	.	.	.	.	.	.	.	.
.	.	.	16cc\	.	16ee\	.	.	.	.	.	.	.	.	.	.	.	.	.	.
.	8cc\J	.	16cc\	.	16ee\	.	.	.	.	.	.	.	.	.	.	.	.	.	.
.	.	.	16cc\JJ	.	16ee\JJ	.	.	.	.	.	.	.	.	.	.	.	.	.	.
4c\	8cc\L	.	16cc\LL	.	16ee\LL	.	.	.	.	.	.	.	.	.	.	.	.	.	.
.	.	.	16ee\	.	16gg\	.	.	.	.	.	.	.	.	.	.	.	.	.	.
.	8cc\	.	16ee\	.	16gg\	.	.	.	.	.	.	.	.	.	.	.	.	.	.
.	.	.	16ee\JJ	.	16gg\JJ	.	.	.	.	.	.	.	.	.	.	.	.	.	.
4C\	8e\	.	16ee\LL	.	16gg\LL	.	.	.	.	.	.	.	.	.	.	.	.	.	.
.	.	.	16ee\	.	16gg\	.	.	.	.	.	.	.	.	.	.	.	.	.	.
.	8e\J	.	16ee\	.	16gg\	.	.	.	.	.	.	.	.	.	.	.	.	.	.
.	.	.	16ee\JJ	.	16gg\JJ	.	.	.	.	.	.	.	.	.	.	.	.	.	.
=49	=49	=49	=49	=49	=49	=49	=49	=49	=49	=49	=49	=49	=49	=49	=49	=49	=49	=49	=49
8c\L	8e\L	.	16ee\LL	.	4ccc\	.	1ryy	.	1ryy	.	1ryy	.	1ryy	.	.	.	1ryy	.	.
.	.	.	16ee\	.	.	.	.	.	.	.	.	.	.	.	.	.	.	.	.
8c\	8e\	.	16ee\	.	.	.	.	.	.	.	.	.	.	.	.	.	.	.	.
.	.	.	16ee\JJ	.	.	.	.	.	.	.	.	.	.	.	.	.	.	.	.
8E\	8g\	.	16ee\LL	.	8gg\L	.	.	.	.	.	.	.	.	.	.	.	.	.	.
.	.	.	16ee\	.	.	.	.	.	.	.	.	.	.	.	.	.	.	.	.
8E\J	8g\J	.	16ee\	.	8ee\J	.	.	.	.	.	.	.	.	.	.	.	.	.	.
.	.	.	16ee\JJ	.	.	.	.	.	.	.	.	.	.	.	.	.	.	.	.
!LO:TX:a:t=P:mixed beam:problem	!	!	!	!	!	!	!	!	!	!	!	!	!	!	!	!	!	!	!
8F\L	8a\L	.	16dd\LL	.	8dd\L	.	.	.	.	.	.	.	.	.	.	.	.	.	.
.	.	.	16dd\	.	.	.	.	.	.	.	.	.	.	.	.	.	.	.	.
8F\	8a\	.	16dd\	.	16ff\L	.	.	.	.	.	.	.	.	.	.	.	.	.	.
.	.	.	16dd\JJ	.	16ee\JJ	.	.	.	.	.	.	.	.	.	.	.	.	.	.
8G\	8g\	.	16dd\LL	.	8dd\L	.	.	.	.	.	.	.	.	.	.	.	.	.	.
.	.	.	16dd\	.	.	.	.	.	.	.	.	.	.	.	.	.	.	.	.
8GG/J	8g\J	.	16dd\	.	16cc\L	.	.	.	.	.	.	.	.	.	.	.	.	.	.
!	!	!	!	!	!LO:SIC:s=16bn:v	!	!	!	!	!	!	!	!	!	!	!	!	!	!
.	.	.	16dd\JJ	.	16b-\JJ	.	.	.	.	.	.	.	.	.	.	.	.	.	.
!	!	!	!	!	!LO:LB:g=original	!	!	!	!	!	!	!	!	!	!	!	!	!	!
=50	=50	=50	=50	=50	=50	=50	=50	=50	=50	=50	=50	=50	=50	=50	=50	=50	=50	=50	=50
!LO:TX:a:t=P:problem:pominięty fragment	!LO:TX:a:t=P:problem:pominięty fragment	!	!LO:TX:a:t=P:problem:pominięty fragment	!	!LO:TX:a:t=P:problem:pominięty fragment	!	!LO:TX:a:t=P:problem:pominięty fragment	!	!LO:TX:a:t=P:problem:pominięty fragment	!	!LO:TX:a:t=P:problem:pominięty fragment	!	!LO:TX:a:t=P:problem:pominięty fragment	!	!	!	!	!	!
1ryy	1ryy	.	1ryy	.	1ryy	.	1ryy	.	1ryy	.	1ryy	.	1ryy	.	1r	1r	1ryy	.	.
=51	=51	=51	=51	=51	=51	=51	=51	=51	=51	=51	=51	=51	=51	=51	=51	=51	=51	=51	=51
8C\L	8c/L	.	8cc\L	.	8cc\L	.	1ryy	.	1ryy	.	1ryy	.	1ryy	.	4g\	8cc\L	1ryy	1r	.
16C\L	16c/L	.	16cc\L	.	16cc\L	.	.	.	.	.	.	.	.	.	.	16cc\L	.	.	.
!	!	!	!	!	!LO:SIC:s=16bn:v	!	!	!	!	!	!	!	!	!	!	!	!	!	!
16BBn\JJ	16Bn/JJ	.	16bn\JJ	.	16b-\JJ	.	.	.	.	.	.	.	.	.	.	16bX\JJ	.	.	.
8C\L	8c/L	.	8cc\L	.	8cc\L	.	.	.	.	.	.	.	.	.	4g\	8cc\L	.	.	.
8D\J	8d/J	.	8dd\J	.	8dd\J	.	.	.	.	.	.	.	.	.	.	8dd\J	.	.	.
2GG/	2G/	.	2g/	.	2g/	.	.	.	.	.	.	.	.	.	4g\	2g\	.	.	.
.	.	.	.	.	.	.	.	.	.	.	.	.	.	.	4r	.	.	.	.
!LO:LB:g=original	!	!	!	!	!	!	!	!	!	!	!	!	!	!	!	!LO:LB:g=original	!	!	!
=52	=52	=52	=52	=52	=52	=52	=52	=52	=52	=52	=52	=52	=52	=52	=52	=52	=52	=52	=52
!	!	!	!	!	!	!	!	!	!	!	!	!	!	!	!	!	!	!LO:TX:a:i:t=So:rj	!
1r	8c\L	.	1r	.	1r	.	00r	.	00r	.	00r	.	00r	.	00r	00r	1ryy	4.gg\	.
.	8c\	.	.	.	.	.	.	.	.	.	.	.	.	.	.	.	.	.	.
.	8c\	.	.	.	.	.	.	.	.	.	.	.	.	.	.	.	.	.	.
!	!	!	!	!	!	!	!	!	!	!	!	!	!	!	!	!	!	!LO:N:vis=4	!
.	8c\J	.	.	.	.	.	.	.	.	.	.	.	.	.	.	.	.	8ccc\	.
.	8c\L	.	.	.	.	.	.	.	.	.	.	.	.	.	.	.	.	4.gg\	.
.	8c\	.	.	.	.	.	.	.	.	.	.	.	.	.	.	.	.	.	.
.	8e\	.	.	.	.	.	.	.	.	.	.	.	.	.	.	.	.	.	.
.	8e\J	.	.	.	.	.	.	.	.	.	.	.	.	.	.	.	.	8ee\	.
=53	=53	=53	=53	=53	=53	=53	=53	=53	=53	=53	=53	=53	=53	=53	=53	=53	=53	=53	=53
2r	4f\	.	2r	.	2r	.	.	.	.	.	.	.	.	.	.	.	1ryy	8ff\L	.
.	.	.	.	.	.	.	.	.	.	.	.	.	.	.	.	.	.	8ddd\	.
!	!LO:TX:a:t=P:mixed beam:problem	!	!	!	!	!	!	!	!	!	!	!	!	!	!	!	!	!	!
.	8g\L	.	.	.	.	.	.	.	.	.	.	.	.	.	.	.	.	8ccc\	.
.	8G/J	.	.	.	.	.	.	.	.	.	.	.	.	.	.	.	.	8bbn\J	.
!	!LO:LB:g=original	!	!	!	!	!	!	!	!	!	!	!	!	!	!	!	!	!	!
4c\	4c/	.	8ee\L	.	8ccc\L	.	.	.	.	.	.	.	.	.	.	.	.	4ccc\	.
.	.	.	8ee\	.	8gg\	.	.	.	.	.	.	.	.	.	.	.	.	.	.
4C/	8G/L	.	8dd\	.	8ee\	.	.	.	.	.	.	.	.	.	.	.	.	4r	.
!	!	!	!LO:TX:a:t=P:wysokość niepewna; być może b:problem	!	!	!	!	!	!	!	!	!	!	!	!	!	!	!	!
.	8c/J	.	8cc\J	.	8ee\J	.	.	.	.	.	.	.	.	.	.	.	.	.	.
!	!	!	!LO:LB:g=original	!	!	!	!	!	!	!	!	!	!	!	!	!	!	!	!
=54	=54	=54	=54	=54	=54	=54	=54	=54	=54	=54	=54	=54	=54	=54	=54	=54	=54	=54	=54
0r	8c/L	.	0r	.	0r	.	.	.	.	.	.	.	.	.	.	.	1ryy	4.gg\	.
.	8c/	.	.	.	.	.	.	.	.	.	.	.	.	.	.	.	.	.	.
.	8c/	.	.	.	.	.	.	.	.	.	.	.	.	.	.	.	.	.	.
.	8c/J	.	.	.	.	.	.	.	.	.	.	.	.	.	.	.	.	8ccc\	.
.	8c/L	.	.	.	.	.	.	.	.	.	.	.	.	.	.	.	.	4.gg\	.
.	8c/	.	.	.	.	.	.	.	.	.	.	.	.	.	.	.	.	.	.
.	8e/	.	.	.	.	.	.	.	.	.	.	.	.	.	.	.	.	.	.
.	8e/J	.	.	.	.	.	.	.	.	.	.	.	.	.	.	.	.	8ee\	.
=55	=55	=55	=55	=55	=55	=55	=55	=55	=55	=55	=55	=55	=55	=55	=55	=55	=55	=55	=55
.	4f\	.	.	.	.	.	.	.	.	.	.	.	.	.	.	.	1ryy	8ff\L	.
.	.	.	.	.	.	.	.	.	.	.	.	.	.	.	.	.	.	8ddd\	.
!	!LO:TX:a:t=P:mixed beam:problem	!	!	!	!	!	!	!	!	!	!	!	!	!	!	!	!	!	!
.	8g\L	.	.	.	.	.	.	.	.	.	.	.	.	.	.	.	.	8ccc\	.
.	8G/J	.	.	.	.	.	.	.	.	.	.	.	.	.	.	.	.	8bbn\J	.
.	8c/L	.	.	.	.	.	.	.	.	.	.	.	.	.	.	.	.	8ccc\L	.
.	8G/	.	.	.	.	.	.	.	.	.	.	.	.	.	.	.	.	8ff\	.
!	!LO:SIC:s=8Bn:v	!	!	!	!	!	!	!	!	!	!	!	!	!	!	!	!	!	!
.	8B-/	.	.	.	.	.	.	.	.	.	.	.	.	.	.	.	.	8ee\	.
.	8G/J	.	.	.	.	.	.	.	.	.	.	.	.	.	.	.	.	8dd\J	.
!	!	!	!	!	!	!	!	!	!	!	!	!	!	!	!	!	!	!LO:LB:g=original	!
=56	=56	=56	=56	=56	=56	=56	=56	=56	=56	=56	=56	=56	=56	=56	=56	=56	=56	=56	=56
!	!	!LO:DY:a:t=%sor	!	!	!	!	!	!	!	!	!	!	!	!	!	!	!	!	!
4r	8c\L	f	8e/L	.	4cc\	.	00r	.	00r	.	00r	.	00r	.	1r	1r	1ryy	4cc\	.
.	8c\	.	8e/J	.	.	.	.	.	.	.	.	.	.	.	.	.	.	.	.
!	!	!	!LO:TX:a:t=P:mixed beam:problem	!	!	!	!	!	!	!	!	!	!	!	!	!	!	!	!
4C\	8e\	.	8e/L	.	8cc\L	.	.	.	.	.	.	.	.	.	.	.	.	4r	.
.	8e\J	.	8ee\J	.	8ccc\J	.	.	.	.	.	.	.	.	.	.	.	.	.	.
4E\	8c\L	.	8ee\	.	8ccc\	.	.	.	.	.	.	.	.	.	.	.	.	2r	.
.	8c\	.	4ee\	.	4gg\	.	.	.	.	.	.	.	.	.	.	.	.	.	.
4C\	8e\	.	.	.	.	.	.	.	.	.	.	.	.	.	.	.	.	.	.
.	8e\J	.	8cc\	.	8ee\	.	.	.	.	.	.	.	.	.	.	.	.	.	.
=57	=57	=57	=57	=57	=57	=57	=57	=57	=57	=57	=57	=57	=57	=57	=57	=57	=57	=57	=57
8F\L	8f\L	.	4ff\	.	4aa\	.	.	.	.	.	.	.	.	.	4r	4r	1ryy	4r	.
8F\	8a\	.	.	.	.	.	.	.	.	.	.	.	.	.	.	.	.	.	.
8F\	8a\	.	16ff\LL	.	16aa\LL	.	.	.	.	.	.	.	.	.	4g\	4bX\	.	8aa\L	.
.	.	.	16dd\	.	16ff\	.	.	.	.	.	.	.	.	.	.	.	.	.	.
8F\J	8a\J	.	16cc\	.	16ee\	.	.	.	.	.	.	.	.	.	.	.	.	8ff\J	.
.	.	.	16bn\JJ	.	16dd\JJ	.	.	.	.	.	.	.	.	.	.	.	.	.	.
!LO:TX:a:t=P:mixed beam:problem	!	!	!LO:TX:a:t=P:mixed beam:problem	!	!	!	!	!	!	!	!	!	!	!	!	!	!	!	!
8G\L	8g\L	.	8ee\L	.	8gg\L	.	.	.	.	.	.	.	.	.	4g\	4cc\	.	4ee\	.
8G\	8g\	.	8e/J	.	8cc\J	.	.	.	.	.	.	.	.	.	.	.	.	.	.
.	.	.	.	.	8qqee/	.	.	.	.	.	.	.	.	.	.	.	.	.	.
8GG/	8g\	.	16g/LL	.	8dd\L	.	.	.	.	.	.	.	.	.	4g\	4b\	.	4dd\	.
.	.	.	16f/	.	.	.	.	.	.	.	.	.	.	.	.	.	.	.	.
8GG/J	8g\J	.	16e/	.	16cc\L	.	.	.	.	.	.	.	.	.	.	.	.	.	.
.	.	.	16d/JJ	.	16bn\JJ	.	.	.	.	.	.	.	.	.	.	.	.	.	.
=58	=58	=58	=58	=58	=58	=58	=58	=58	=58	=58	=58	=58	=58	=58	=58	=58	=58	=58	=58
4C\	8e\L	.	4e/	.	4cc\	.	.	.	.	.	.	.	.	.	4g\	4cc\	1ryy	4cc\	.
.	8e\	.	.	.	.	.	.	.	.	.	.	.	.	.	.	.	.	.	.
!	!	!	!LO:TX:a:t=P:mixed beam:problem	!	!	!	!	!	!	!	!	!	!	!	!	!	!	!	!
4C\	8c\	.	8e/L	.	8cc\L	.	.	.	.	.	.	.	.	.	4r	4r	.	4r	.
.	8e\J	.	8ee\J	.	8ccc\J	.	.	.	.	.	.	.	.	.	.	.	.	.	.
4E\	8c\L	.	8ee\	.	8ccc\	.	.	.	.	.	.	.	.	.	2r	2r	.	2r	.
.	8c\	.	4ee\	.	4gg\	.	.	.	.	.	.	.	.	.	.	.	.	.	.
4C\	8e\	.	.	.	.	.	.	.	.	.	.	.	.	.	.	.	.	.	.
.	8e\J	.	8cc\	.	8ee\	.	.	.	.	.	.	.	.	.	.	.	.	.	.
=59	=59	=59	=59	=59	=59	=59	=59	=59	=59	=59	=59	=59	=59	=59	=59	=59	=59	=59	=59
8F\L	8f\L	.	4ff\	.	4aa\	.	.	.	.	.	.	.	.	.	4r	4r	1ryy	4r	.
8F\	8a\	.	.	.	.	.	.	.	.	.	.	.	.	.	.	.	.	.	.
8F\	8a\	.	16ff\LL	.	16aa\LL	.	.	.	.	.	.	.	.	.	4g\	4bX\	.	8aa\L	.
.	.	.	16dd\	.	16ff\	.	.	.	.	.	.	.	.	.	.	.	.	.	.
8F\J	8a\J	.	16cc\	.	16ee\	.	.	.	.	.	.	.	.	.	.	.	.	8ff\J	.
!	!	!	!LO:SIC:s=16bn:v	!	!	!	!	!	!	!	!	!	!	!	!	!	!	!	!
.	.	.	16b-\JJ	.	16dd\JJ	.	.	.	.	.	.	.	.	.	.	.	.	.	.
!LO:TX:a:t=P:mixed beam:problem	!	!	!LO:TX:a:t=P:mixed beam:problem	!	!	!	!	!	!	!	!	!	!	!	!	!	!	!	!
8G\L	8g\L	.	8ee\L	.	8gg\L	.	.	.	.	.	.	.	.	.	4g\	4cc\	.	8ee\L	.
8G\	8g\	.	8e/J	.	8cc\J	.	.	.	.	.	.	.	.	.	.	.	.	8ee\	.
.	.	.	.	.	8qqee/	.	.	.	.	.	.	.	.	.	.	.	.	.	.
8GG/	8g\	.	16g/LL	.	8dd\L	.	.	.	.	.	.	.	.	.	4g\	4b\	.	8ff\	.
.	.	.	16f/	.	.	.	.	.	.	.	.	.	.	.	.	.	.	.	.
8GG/J	8g\J	.	16e/	.	16cc\L	.	.	.	.	.	.	.	.	.	.	.	.	8dd\J	.
.	.	.	16d/JJ	.	16bn\JJ	.	.	.	.	.	.	.	.	.	.	.	.	.	.
=60	=60	=60	=60	=60	=60	=60	=60	=60	=60	=60	=60	=60	=60	=60	=60	=60	=60	=60	=60
8C\L	8c\L	.	8eL 8c/	.	8cc/L	.	1r	.	1r	.	1r	.	1r	.	8g\L	8cc\L	1ryy	8cc\L	.
8c\	8cc\	.	8e 8c/	.	8ee 8cc 8g/	.	.	.	.	.	.	.	.	.	16g\L	16cc\L	.	8ee\	.
.	.	.	.	.	.	.	.	.	.	.	.	.	.	.	16g\JJ	16cc\JJ	.	.	.
8G\	8g\	.	8e 8c/	.	8ee 8cc 8g/	.	.	.	.	.	.	.	.	.	8g\L	8cc\L	.	8ee\	.
8E\J	8e\J	.	8eJ 8c/	.	8eeJ 8cc 8g/	.	.	.	.	.	.	.	.	.	8g\J	8cc\J	.	8ee\J	.
8C\L	8c\L	.	2e 2c/	.	2ee 2cc 2g/	.	.	.	.	.	.	.	.	.	2g\	2cc\	.	2ee\	.
8c\J	8cc\J	.	.	.	.	.	.	.	.	.	.	.	.	.	.	.	.	.	.
16c-X\LL	16cc\LL	.	.	.	.	.	.	.	.	.	.	.	.	.	.	.	.	.	.
16B-X\	16b-Xi\	.	.	.	.	.	.	.	.	.	.	.	.	.	.	.	.	.	.
16A\	16a\	.	.	.	.	.	.	.	.	.	.	.	.	.	.	.	.	.	.
16G\JJ	16g\JJ	.	.	.	.	.	.	.	.	.	.	.	.	.	.	.	.	.	.
!	!LO:LB:g=original	!	!	!	!	!	!	!	!LO:LB:g=original	!	!	!	!	!	!	!	!	!	!
=61	=61	=61	=61	=61	=61	=61	=61	=61	=61	=61	=61	=61	=61	=61	=61	=61	=61	=61	=61
!LO:TX:a:t=P:mixed beam:problem	!	!	!LO:TX:a:t=Tutti&colon;	!	!	!	!	!	!	!	!	!	!	!	!	!LO:TX:a:B:t=Tttu	!	!LO:TX:a:B:t=T.	!
8F\L	8f\L	.	4A/	.	4f/	.	4F\	e-	4c\	E-	4f\	e-	4ff\	E-	4f\	4a\	1ryy	4ff\	.
8FF/J	8a\	.	.	.	.	.	.	.	.	.	.	.	.	.	.	.	.	.	.
4FF/	8a\	.	8A/L	.	8c/L	.	4F\	-ja	8A\L	-ja	8c\L	-ja	4ff\	-ja	4r	4r	.	4r	.
.	8a\J	.	8f/J	.	8a/J	.	.	.	8c\J	.	8a\J	.	.	.	.	.	.	.	.
!LO:TX:a:t=P:mixed beam:problem	!	!	!	!	!	!	!	!	!	!	!	!	!	!	!	!	!	!	!
8F\L	8a\L	.	4f/	.	4a/	.	4F\	Cho-	4c\	Cho-	4a\	Cho-	4ff\	Cho-	4f\	4a\	.	4ff\	.
8FF/J	8a\	.	.	.	.	.	.	.	.	.	.	.	.	.	.	.	.	.	.
!	!	!	!	!	!LO:LB:g=original	!	!	!	!	!	!	!	!	!	!	!	!	!	!
4FF/	8a\	.	8c/L	.	8f/L	.	4F\	-ri	4c\	-ri	8f\L	-ri	4ff\	-ri	4r	4r	.	4r	.
.	8a\J	.	8f/J	.	8cc/J	.	.	.	.	.	8cc\J	.	.	.	.	.	.	.	.
!	!	!	!LO:LB:g=original	!	!	!	!	!	!	!	!	!	!	!	!LO:LB:g=original	!	!	!	!
=62	=62	=62	=62	=62	=62	=62	=62	=62	=62	=62	=62	=62	=62	=62	=62	=62	=62	=62	=62
8F\L	8a\L	.	4a/	.	4cc\	.	4F\	col-	4A\	e-	4cc\	e-	4ff\	E-	4f\	4a\	1ryy	4ff\	.
8F\	8a\	.	.	.	.	.	.	.	.	.	.	.	.	.	.	.	.	.	.
!	!	!	!	!	!	!	!	!	!LO:SIC:s=4f:v	!	!LO:SIC:s=xul:v	!	!	!	!	!	!	!	!
8A\	8f\	.	8a/L	.	8ff\L	.	4A\	-lau-	4f-X\	-xul-	4a\	-xal-	8ff\L	-xul-	4a\	4cc\	.	4aa\	.
8A\J	8f\J	.	8a/J	.	8cc\J	.	.	.	.	.	.	.	8cc\J	.	.	.	.	.	.
4B-X\	4g\	.	8g/L	.	8b-X/L	.	4B-X\	-da-	4e\	-ta-	4g\	-ta-	8b-X\L	-ta-	4g\	4b-X\	.	4gg\	.
.	.	.	8B-X/	.	8g/	.	.	.	.	.	.	.	8g\J	.	.	.	.	.	.
!LO:TX:a:t=P:mixed beam:problem	!	!	!	!	!	!	!	!	!	!	!	!	!	!	!	!	!	!	!
!	!LO:SIC:s=4f:v	!	!	!	!	!	!	!	!	!	!	!	!	!	!	!	!	!	!
8c\L	4e\	.	8A/	.	8f/	.	4c\	-te	4c\	-te	4e\	-te	8f/L	-te	4c/	4g\	.	4ee\	.
8C/J	.	.	8G/J	.	8e/J	.	.	.	.	.	.	.	8e/J	.	.	.	.	.	.
!	!	!	!	!	!	!	!	!	!	!	!LO:LB:g=original	!	!	!	!	!	!	!	!
=63	=63	=63	=63	=63	=63	=63	=63	=63	=63	=63	=63	=63	=63	=63	=63	=63	=63	=63	=63
!LO:TX:a:t=P:mixed beam:problem	!	!	!	!	!	!	!	!	!	!	!	!	!	!	!	!	!	!	!
8F\L	8f\L	.	4A/	.	4f/	.	4F\	ac	4c\	ac	4f\	ac	4f/	ac	4f\	4a\	1ryy	4ff\	.
8FF/J	8a\	.	.	.	.	.	.	.	.	.	.	.	.	.	.	.	.	.	.
4FF/	8a\	.	8A/L	.	8c/L	.	4F\	ſo-	8A\L	ſo-	8c\L	ſo-	4ff\	ſo-	4r	4r	.	4r	.
.	8a\J	.	8f/J	.	8a/J	.	.	.	8c\J	.	8a\J	.	.	.	.	.	.	.	.
!LO:TX:a:t=P:mixed beam:problem	!	!	!	!	!	!	!	!	!	!	!	!	!	!	!	!	!	!	!
8F\L	8a\L	.	4f/	.	4a/	.	4F\	-len-	4c\	-len-	4a\	-len-	4ff\	-len-	2r	2r	.	2r	.
8FF/J	8a\	.	.	.	.	.	.	.	.	.	.	.	.	.	.	.	.	.	.
4FF/	8a\	.	8c/L	.	8f/L	.	4F\	-ne	4c\	-ne	8f\L	-ne	4ff\	-ne	.	.	.	.	.
.	8a\J	.	8a/J	.	8cc/J	.	.	.	.	.	8cc\J	.	.	.	.	.	.	.	.
!LO:LB:g=original	!	!	!	!	!	!	!LO:LB:g=original	!	!	!	!	!	!LO:LB:g=original	!	!	!	!	!	!
=64	=64	=64	=64	=64	=64	=64	=64	=64	=64	=64	=64	=64	=64	=64	=64	=64	=64	=64	=64
4F\	8a\L	.	4a/	.	4cc\	.	4F\	me-	4A\	me-	4cc\	me-	4ff\	me-	1r	1r	1ryy	1r	.
.	8a\	.	.	.	.	.	.	.	.	.	.	.	.	.	.	.	.	.	.
4A\	8f\	.	8a/L	.	8ff\L	.	4A\	-los	4f\	-los	4a\	-los	8ff\L	-los	.	.	.	.	.
.	8f\J	.	8a/J	.	8cc\J	.	.	.	.	.	.	.	8cc\J	.	.	.	.	.	.
!	!	!	!	!	!	!	!	!	!	!	!LO:SIC:s=date:v	!	!	!	!	!	!	!	!
4B-\	4g\	.	8g/L	.	8b-X/L	.	4B-\	da-	4e\	da-	4g\	dat	8b-X\L	da-	.	.	.	.	.
.	.	.	8B-X/	.	8g/	.	.	.	.	.	.	.	8g\J	.	.	.	.	.	.
!	!	!	!	!	!	!	!LO:TX:a:t=P:mixed beam:problem	!	!	!	!	!	!	!	!	!	!	!	!
!	!LO:SIC:s=4f:v	!	!	!	!	!	!	!	!	!	!	!	!	!	!	!	!	!	!
4c\	4e\	.	8A/	.	8f/	.	8c\L	-te	4c\	-te	4e\	.	8f/L	-te	.	.	.	.	.
.	.	.	8G/J	.	8e/J	.	8C/J	.	.	.	.	.	8e/J	.	.	.	.	.	.
=65	=65	=65	=65	=65	=65	=65	=65	=65	=65	=65	=65	=65	=65	=65	=65	=65	=65	=65	=65
!	!	!	!LO:TX:a:t=P:mixed beam:problem	!	!	!	!	!	!	!	!	!	!	!	!	!	!	!	!
!	!LO:TX:a:t=P:znak początku repetycji:problem	!	!LO:TX:a:t=P:znak początku repetycji:problem	!	!LO:TX:a:t=P:mixed beam:problem	!	!	!	!	!	!	!	!	!	!	!	!	!	!
!	!	!	!	!	!	!	!LO:SIC:s=et:v	!	!	!	!	!	!	!	!	!	!	!	!
8F\L	8f\L	.	8A/L	.	8f/L	.	4F\	ex	4c\	et	4a\	et	4f/	et	4f\	4f\	1ryy	2aa\	.
8C\	8a\	.	8ff\	.	8aa\	.	.	.	.	.	.	.	.	.	.	.	.	.	.
8F\	8a\	.	8cc\	.	8ff\	.	4F\	ma-	4c\	ma-	8f\L	ma-	4ff\	Ma-	4f\	4a\	.	.	.
8C\J	8a\J	.	8cc\J	.	8cc\J	.	.	.	.	.	8c\J	.	.	.	.	.	.	.	.
8E\L	8g\L	.	4gg\	.	4bb-\	.	4c\	-ri-	4e\	-ri-	4b-X\	-ri-	4gg\	-ri-	4g\	4b-\	.	2bb-X\	.
8C\	8e\	.	.	.	.	.	.	.	.	.	.	.	.	.	.	.	.	.	.
8E\	8g\	.	(>16ee\LL	.	16gg\LL	.	4C/	-am	4e\	-am	8g\L	-am	4ee\	-am	4c/	4g\	.	.	.
.	.	.	16dd\)	.	16ff\	.	.	.	.	.	.	.	.	.	.	.	.	.	.
8C\J	8e\J	.	(>16dd\	.	16ff\	.	.	.	.	.	8e\J	.	.	.	.	.	.	.	.
.	.	.	16cc\JJ)	.	16ee\JJ	.	.	.	.	.	.	.	.	.	.	.	.	.	.
!	!	!	!	!	!	!	!	!	!	!	!	!	!	!	!	!	!	!LO:LB:g=original	!
=66	=66	=66	=66	=66	=66	=66	=66	=66	=66	=66	=66	=66	=66	=66	=66	=66	=66	=66	=66
8F\L	8f\L	.	8a/L	.	8ff\L	.	4F\	col-	4f\	col-	8cc\L	col-	8ff\L	col-	4f\	4a\	1ryy	2aa\	.
8C\	8c\	.	8a/J	.	8cc\	.	.	.	.	.	8a\J	.	8cc\J	.	.	.	.	.	.
8F\	8f\	.	8g/L	.	8b-\	.	4A\	-lau-	4f\	-lau-	8g\L	-lau-	8b-X\L	-lau-	4f\	4f\	.	.	.
8C\J	8c\J	.	8f/J	.	8a\J	.	.	.	.	.	8f\J	.	8a\J	.	.	.	.	.	.
.	.	.	.	.	.	.	.	.	.	.	.	.	8qqa/	.	.	.	.	.	.
8E\L	8e\L	.	4e/	.	4g/	.	4c\	-da-	4e\	-da-	4c\	-da-	4g\	-Da-	2c/	2g\	.	2gg\	.
8C\	8c\	.	.	.	.	.	.	.	.	.	.	.	.	.	.	.	.	.	.
8E\	8e\	.	16d/LL	.	16f/LL	.	4C/	-te	4e\	-te	4c\	-te	4g\	-te	.	.	.	.	.
.	.	.	16c/	.	16e/	.	.	.	.	.	.	.	.	.	.	.	.	.	.
8C\J	8c\J	.	16B-/	.	16d/	.	.	.	.	.	.	.	.	.	.	.	.	.	.
.	.	.	16c/JJ	.	16c/JJ	.	.	.	.	.	.	.	.	.	.	.	.	.	.
!	!LO:TX:a:t=P:znak końca repetycji:problem	!	!LO:TX:a:t=P:znak końca repetycji:problem	!	!	!	!	!	!	!	!	!	!	!	!	!	!	!	!
=67	=67	=67	=67	=67	=67	=67	=67	=67	=67	=67	=67	=67	=67	=67	=67	=67	=67	=67	=67
*	*rep	*	*rep	*	*	*	*	*	*	*	*	*	*	*	*	*	*	*	*
!	!	!	!LO:TX:a:t=P:mixed beam:problem	!	!	!	!	!	!	!	!	!	!	!	!	!	!	!	!
!	!LO:TX:a:t=P:powtórzenie taktów oznaczone znakami repetycji:problem	!	!LO:TX:a:t=P:powtórzenie taktów oznaczone znakami repetycji:problem	!	!LO:TX:a:t=P:mixed beam:problem	!	!	!	!	!	!	!	!	!	!	!	!	!	!
!	!	!	!	!	!	!	!	!	!	!	!	!	!	!	!	!	!	!LO:TX:a:B:t=2	!
8F\L	8f\L	.	8A/L	.	8f/L	.	4F\	di-	4c\	Di-	4a\	di-	4f/	di-	0r	0r	1ryy	0r	.
8C\	8a\	.	8ff\	.	8aa\	.	.	.	.	.	.	.	.	.	.	.	.	.	.
8F\	8a\	.	8cc\	.	8ff\	.	4F\	-em	4c\	-em	8f\L	-em	4ff\	-em	.	.	.	.	.
8C\J	8a\J	.	8cc\J	.	8cc\J	.	.	.	.	.	8c\J	.	.	.	.	.	.	.	.
8E\L	8g\L	.	4gg\	.	4bb-\	.	4C/	hanc	4e\	hanc	4b-\	hanc	4gg\	hanc	.	.	.	.	.
8C\	8e\	.	.	.	.	.	.	.	.	.	.	.	.	.	.	.	.	.	.
8E\	8g\	.	(>16ee\LL	.	16gg\LL	.	4c\	con-	4e\	con-	8g\L	con-	4ee\	con-	.	.	.	.	.
.	.	.	16dd\)	.	16ff\	.	.	.	.	.	.	.	.	.	.	.	.	.	.
8C\J	8e\J	.	(>16dd\	.	16ff\	.	.	.	.	.	8c\J	.	.	.	.	.	.	.	.
.	.	.	16cc\JJ)	.	16ee\JJ	.	.	.	.	.	.	.	.	.	.	.	.	.	.
=68	=68	=68	=68	=68	=68	=68	=68	=68	=68	=68	=68	=68	=68	=68	=68	=68	=68	=68	=68
8F\L	8f\L	.	8a/L	.	8ff\L	.	4F\	-de-	4f\	-de-	8cc\L	-de-	8ff\L	-de-	.	.	1ryy	.	.
8C\	8c\	.	8a/J	.	8cc\	.	.	.	.	.	8a\J	.	8cc\J	.	.	.	.	.	.
8F\	8f\	.	8g/L	.	8b-\	.	4A\	-co-	4f\	-co-	8g\L	-co-	8b-X\L	-co-	.	.	.	.	.
8C\J	8c\J	.	8f/J	.	8a\J	.	.	.	.	.	8f\J	.	8a\J	.	.	.	.	.	.
!	!	!	!	!	!	!	!	!	!LO:LB:g=original	!	!LO:LB:g=original	!	!	!	!	!	!	!	!
.	.	.	.	.	.	.	.	.	.	.	.	.	8qqa/	.	.	.	.	.	.
8E\L	8e\L	.	4e/	.	4g/	.	4c\	-ra-	4e\	-ra-	4c\	-ra-	4g/	-ra-	.	.	.	.	.
8C\	8c\	.	.	.	.	.	.	.	.	.	.	.	.	.	.	.	.	.	.
8E\	8e\	.	16d/LL	.	16f/LL	.	4C/	-te	4e\	-te	4c\	-te	4g/	-te	.	.	.	.	.
.	.	.	16c/	.	16e/	.	.	.	.	.	.	.	.	.	.	.	.	.	.
8C\J	8c\J	.	16B-/	.	16d/	.	.	.	.	.	.	.	.	.	.	.	.	.	.
.	.	.	16c/JJ	.	16c/JJ	.	.	.	.	.	.	.	.	.	.	.	.	.	.
*	*Xrep	*	*Xrep	*	*	*	*	*	*	*	*	*	*	*	*	*	*	*	*
=69	=69	=69	=69	=69	=69	=69	=69	=69	=69	=69	=69	=69	=69	=69	=69	=69	=69	=69	=69
!	!	!	!	!	!	!	!LO:SIC:s=et:v	!	!	!	!	!	!	!	!	!	!	!	!
4F\	8f\L	.	8f/	.	8f/	.	4F\	ex	4c\	et	4a\	et	4f/	et	1r	1r	1ryy	8r	.
.	8a\	.	4ff\	.	4aa\	.	.	.	.	.	.	.	.	.	.	.	.	4aa\	.
4A\	8a\	.	.	.	.	.	4A\	ma-	4c\	Ma-	4a\	ma-	4ff\	Ma-	.	.	.	.	.
.	8a\J	.	8dd\	.	8ff\	.	.	.	.	.	.	.	.	.	.	.	.	8ff\	.
!	!	!	!	!	!LO:TX:a:t=P:w źródle grupa poprawiana przez skryptora z szesnastek na ósemki:problem	!	!	!	!	!	!	!	!	!	!	!	!	!	!
!	!	!	!	!	!LO:LB:g=original	!	!	!	!	!	!	!	!	!	!	!	!	!	!
4c\	8cc\L	.	8dd\L	.	8ee\L	.	4c\	-ri-	4e\	-ri-	8cc\L	-ri-	8ee\L	-ri-	.	.	.	8ee\L	.
.	8cc\	.	8cc\	.	8dd\	.	.	.	.	.	8b-\J	.	8dd\J	.	.	.	.	8dd\	.
4C/	8g\	.	8cc\	.	8cc\	.	4C/	-am	4e\	-am	8a\L	-am	8cc\L	-am	.	.	.	8cc\	.
.	8g\J	.	8b-\J	.	8b-\J	.	.	.	.	.	8g\J	.	8b-\J	.	.	.	.	8b-\J	.
!	!	!	!	!	!	!	!LO:LB:g=original	!	!	!	!	!	!LO:LB:g=original	!	!	!LO:LB:g=original	!	!	!
=70	=70	=70	=70	=70	=70	=70	=70	=70	=70	=70	=70	=70	=70	=70	=70	=70	=70	=70	=70
8F\L	8a\L	.	8a/L	.	8a/L	.	8A\	col-	8A/	Col-	8a\	col-	8a/	co-	4r	4r	1ryy	8a\L	.
16D\L	16f\L	.	16f/L	.	16f/L	.	16F\LL	-lau-	16F/LL	-lau-	16f\LL	-lau-	16f/LL	-lau-	.	.	.	16ff\L	.
16C\JJ	16e\JJ	.	16e/JJ	.	16e/JJ	.	16E\JJ	.	16E/JJ	.	16e\JJ	.	16e/JJ	.	.	.	.	16ee\JJ	.
8F\L	8f\L	.	8f/L	.	8f/L	.	8F\L	-da-	8F/L	-da-	8f\L	-da-	8f/L	-da-	8f\L	8f\L	.	8ff\L	.
8G\J	8g\J	.	8g/J	.	8g/J	.	8G\J	.	8G/J	.	8g\J	.	8g/J	.	8g\J	8g\J	.	8gg\J	.
!LO:TX:a:t=P:mixed beam:problem	!	!	!	!	!	!	!	!	!	!	!	!	!	!	!	!	!	!	!
8C/L	2c/	.	2c/	.	2c/	.	2C/	-te	2C/	-te	2c\	-te	2c/	-te	8c/L	8c/L	.	2cc/	.
8c\J	.	.	.	.	.	.	.	.	.	.	.	.	.	.	16c/L	16c/L	.	.	.
.	.	.	.	.	.	.	.	.	.	.	.	.	.	.	16c/JJ	16c/JJ	.	.	.
4C/	.	.	.	.	.	.	.	.	.	.	.	.	.	.	4c/	4c/	.	.	.
!	!	!	!LO:LB:g=original	!	!	!	!	!	!	!	!	!	!	!	!	!	!	!	!
=71	=71	=71	=71	=71	=71	=71	=71	=71	=71	=71	=71	=71	=71	=71	=71	=71	=71	=71	=71
!	!LO:TX:a:t=P:znak początku repetycji:problem	!	!	!	!	!	!	!	!	!	!	!	!	!	!	!	!	!	!
8FF/L	8F/L	.	16a/LL	.	16ff\LL	.	4F\	e-	4f\	e-	4a\	e-	4cc\	e-	4f\	4a\	1ryy	1ff	.
.	.	.	16cc/	.	16aa\	.	.	.	.	.	.	.	.	.	.	.	.	.	.
8FF/	8F/	.	16cc/	.	16aa\	.	.	.	.	.	.	.	.	.	.	.	.	.	.
.	.	.	16cc/JJ	.	16aa\JJ	.	.	.	.	.	.	.	.	.	.	.	.	.	.
8AA/	8A/	.	16cc/LL	.	16aa\LL	.	4A\	-ja	4f\	-ja	4cc\	-ja	4aa\	-ja	4r	4r	.	.	.
.	.	.	16cc/	.	16aa\	.	.	.	.	.	.	.	.	.	.	.	.	.	.
8AA/J	8A/J	.	16cc/	.	16aa\	.	.	.	.	.	.	.	.	.	.	.	.	.	.
.	.	.	16cc/JJ	.	16aa\JJ	.	.	.	.	.	.	.	.	.	.	.	.	.	.
!	!LO:LB:g=original	!	!	!	!	!	!	!	!	!	!	!	!	!	!	!	!	!	!
8C/L	8c/L	.	16ff\LL	.	16aa\LL	.	4c\	Cho-	4c\	Cho-	8cc\L	Cho-	8aa\L	Cho-	2r	2r	.	.	.
.	.	.	16ff\	.	16aa\	.	.	.	.	.	.	.	.	.	.	.	.	.	.
8C/	8c/	.	16ff\	.	16aa\	.	.	.	.	.	8a\J	.	8ff\J	.	.	.	.	.	.
.	.	.	16ff\JJ	.	16aa\JJ	.	.	.	.	.	.	.	.	.	.	.	.	.	.
8F/	8f/	.	16cc\LL	.	16aa\LL	.	4F\	-ri	4f\	-ri	8a\L	-ri	8ff\L	-ri	.	.	.	.	.
.	.	.	16cc\	.	16aa\	.	.	.	.	.	.	.	.	.	.	.	.	.	.
8F/J	8f/J	.	16cc\	.	16aa\	.	.	.	.	.	8cc\J	.	8aa\J	.	.	.	.	.	.
.	.	.	16cc\JJ	.	16aa\JJ	.	.	.	.	.	.	.	.	.	.	.	.	.	.
!	!	!	!	!	!	!	!	!	!	!	!	!	!	!	!LO:LB:g=original	!	!	!	!
=72	=72	=72	=72	=72	=72	=72	=72	=72	=72	=72	=72	=72	=72	=72	=72	=72	=72	=72	=72
8G\L	8g\L	.	16b-\LL	.	16gg\LL	.	4G\	col-	4e\	e-	4g\	col-	4ee\	e-	4c/	4b-\	1ryy	1ee	.
.	.	.	16b-\	.	16gg\	.	.	.	.	.	.	.	.	.	.	.	.	.	.
8G\	8g\	.	16b-\	.	16gg\	.	.	.	.	.	.	.	.	.	.	.	.	.	.
.	.	.	16b-\JJ	.	16gg\JJ	.	.	.	.	.	.	.	.	.	.	.	.	.	.
8E\	8e\	.	16b-\LL	.	16gg\LL	.	4E\	-lau-	4e\	-xul-	4b-\	-lau-	4gg\	-xul-	4r	4r	.	.	.
.	.	.	16b-\	.	16gg\	.	.	.	.	.	.	.	.	.	.	.	.	.	.
8E\J	8e\J	.	16b-\	.	16gg\	.	.	.	.	.	.	.	.	.	.	.	.	.	.
.	.	.	16b-\JJ	.	16gg\JJ	.	.	.	.	.	.	.	.	.	.	.	.	.	.
8G\L	8g\L	.	16g/LL	.	16ee\LL	.	4G\	-da-	4e\	-ta-	8b-\L	-da-	8gg\L	-ta-	2r	2r	.	.	.
.	.	.	16g/	.	16ee\	.	.	.	.	.	.	.	.	.	.	.	.	.	.
8G\	8g\	.	16g/	.	16ee\	.	.	.	.	.	8g\J	.	8ee\J	.	.	.	.	.	.
.	.	.	16g/JJ	.	16ee\JJ	.	.	.	.	.	.	.	.	.	.	.	.	.	.
8E\	8c\	.	16b-/LL	.	16gg\LL	.	4C/	-te	4e\	-te	8g\L	-te	8ee\L	-te	.	.	.	.	.
.	.	.	16b-/	.	16gg\	.	.	.	.	.	.	.	.	.	.	.	.	.	.
8E\J	8c\J	.	16b-/	.	16gg\	.	.	.	.	.	8b-\J	.	8gg\J	.	.	.	.	.	.
.	.	.	16b-/JJ	.	16gg\JJ	.	.	.	.	.	.	.	.	.	.	.	.	.	.
!	!LO:TX:a:t=P:znak końca repetycji:problem	!	!	!	!	!	!	!	!	!	!	!	!	!	!	!	!	!	!
!LO:LB:g=original	!	!	!	!	!	!	!	!	!	!	!	!	!	!	!	!	!	!	!
=73	=73	=73	=73	=73	=73	=73	=73	=73	=73	=73	=73	=73	=73	=73	=73	=73	=73	=73	=73
*	*rep	*	*	*	*	*	*	*	*	*	*	*	*	*	*	*	*	*	*
!	!LO:TX:a:t=P:powtórzenie taktów oznaczone znakami repetycji:problem	!	!	!	!	!	!	!	!	!	!	!	!	!	!	!	!	!	!
8FF/L	8F/L	.	16a\LL	.	16ff\LL	.	4F\	ac	4f\	ac	4a\	ac	4ff\	ac	4f\	4a\	1ryy	1ff	.
.	.	.	16a\	.	16aa\	.	.	.	.	.	.	.	.	.	.	.	.	.	.
8FF/	8F/	.	16a\	.	16aa\	.	.	.	.	.	.	.	.	.	.	.	.	.	.
.	.	.	16a\JJ	.	16aa\JJ	.	.	.	.	.	.	.	.	.	.	.	.	.	.
8AA/	8A/	.	16cc\LL	.	16aa\LL	.	4A\	ſo-	4f\	ſo-	4cc\	ſo-	4aa\	ſo-	4r	4r	.	.	.
.	.	.	16cc\	.	16aa\	.	.	.	.	.	.	.	.	.	.	.	.	.	.
8AA/J	8A/J	.	16cc\	.	16aa\	.	.	.	.	.	.	.	.	.	.	.	.	.	.
.	.	.	16cc\JJ	.	16aa\JJ	.	.	.	.	.	.	.	.	.	.	.	.	.	.
!	!	!	!	!	!	!	!	!	!	!	!LO:LB:g=original	!	!	!	!	!	!	!	!
8C\L	8c/L	.	16ff\LL	.	16aa\LL	.	4c\	-len-	4c\	-len-	8cc\L	-len-	8aa\L	-len-	2r	2r	.	.	.
.	.	.	16ff\	.	16aa\	.	.	.	.	.	.	.	.	.	.	.	.	.	.
8C\	8c/	.	16ff\	.	16aa\	.	.	.	.	.	8a\J	.	8ff\J	.	.	.	.	.	.
.	.	.	16ff\JJ	.	16aa\JJ	.	.	.	.	.	.	.	.	.	.	.	.	.	.
8F\	8f/	.	16cc\LL	.	16aa\LL	.	4F\	-ne	4f\	-ne	8a\L	-ne	8ff\L	-ne	.	.	.	.	.
.	.	.	16cc\	.	16aa\	.	.	.	.	.	.	.	.	.	.	.	.	.	.
8F\J	8f/J	.	16cc\	.	16aa\	.	.	.	.	.	8cc\J	.	8aa\J	.	.	.	.	.	.
.	.	.	16cc\JJ	.	16aa\JJ	.	.	.	.	.	.	.	.	.	.	.	.	.	.
=74	=74	=74	=74	=74	=74	=74	=74	=74	=74	=74	=74	=74	=74	=74	=74	=74	=74	=74	=74
8GG/L	8g\L	.	16b-\LL	.	16gg\LL	.	4G\	me-	4e\	me-	4g\	me-	4ee\	me-	4c/	4b-\	1ryy	1ee	.
.	.	.	16b-\	.	16gg\	.	.	.	.	.	.	.	.	.	.	.	.	.	.
8GG/	8g\	.	16b-\	.	16gg\	.	.	.	.	.	.	.	.	.	.	.	.	.	.
.	.	.	16b-\JJ	.	16gg\JJ	.	.	.	.	.	.	.	.	.	.	.	.	.	.
8CC/	8e\	.	16b-\LL	.	16gg\LL	.	4E\	-los	4e\	-los	4b-\	-los	4gg\	-los	4r	4r	.	.	.
.	.	.	16b-\	.	16gg\	.	.	.	.	.	.	.	.	.	.	.	.	.	.
8CC/J	8e\J	.	16b-\	.	16gg\	.	.	.	.	.	.	.	.	.	.	.	.	.	.
.	.	.	16b-\JJ	.	16gg\JJ	.	.	.	.	.	.	.	.	.	.	.	.	.	.
!	!	!	!	!	!LO:LB:g=original	!	!	!	!	!	!	!	!	!	!	!	!	!	!
8GG/L	8g\L	.	16g/LL	.	16ee\LL	.	4G\	da-	4e\	da-	8b-\L	da-	8gg\L	da-	2r	2r	.	.	.
.	.	.	16g/	.	16ee\	.	.	.	.	.	.	.	.	.	.	.	.	.	.
8GG/	8g\	.	16g/	.	16ee\	.	.	.	.	.	8g\J	.	8ee\J	.	.	.	.	.	.
.	.	.	16g/JJ	.	16ee\JJ	.	.	.	.	.	.	.	.	.	.	.	.	.	.
8CC/	8c\	.	16b-/LL	.	16gg\LL	.	4C/	-te	4e\	-te	8g\L	-te	8ee\L	-te	.	.	.	.	.
.	.	.	16b-/	.	16gg\	.	.	.	.	.	.	.	.	.	.	.	.	.	.
8CC/J	8c\J	.	16b-/	.	16gg\	.	.	.	.	.	8b-\J	.	8gg\J	.	.	.	.	.	.
.	.	.	16b-/JJ	.	16gg\JJ	.	.	.	.	.	.	.	.	.	.	.	.	.	.
*	*Xrep	*	*	*	*	*	*	*	*	*	*	*	*	*	*	*	*	*	*
!	!	!	!LO:LB:g=original	!	!	!	!	!	!LO:LB:g=original	!	!	!	!LO:LB:g=original	!	!	!	!	!	!
=75	=75	=75	=75	=75	=75	=75	=75	=75	=75	=75	=75	=75	=75	=75	=75	=75	=75	=75	=75
8F\L	8a\L	.	16a\LL	.	4ccc\	.	4F\	di-	4c\	di-	4a\	di-	4ff\	Di-	2r	2r	1ryy	4ff\	.
.	.	.	16bb-\	.	.	.	.	.	.	.	.	.	.	.	.	.	.	.	.
!	!	!	!LO:TUP:a:problem:klamra łukowa	!	!	!	!	!	!	!	!	!	!	!	!	!	!	!	!
8C\	8f\	.	24aa\	.	.	.	.	.	.	.	.	.	.	.	.	.	.	.	.
.	.	.	24gg\	.	.	.	.	.	.	.	.	.	.	.	.	.	.	.	.
.	.	.	24ff\JJ	.	.	.	.	.	.	.	.	.	.	.	.	.	.	.	.
!	!	!	!LO:TX:a:t=P:pominięty fragment; takt niepełny:problem	!	!	!	!	!	!	!	!	!	!	!	!	!	!	!	!
8F\	8a\	.	4ryy	.	16bb-X\LL	.	4F\	-em	4f\	-em	4a\	-em	16ff\LL	-em	.	.	.	4r	.
.	.	.	.	.	16aa\	.	.	.	.	.	.	.	16cc\	.	.	.	.	.	.
8C\J	8f\J	.	.	.	16aa\	.	.	.	.	.	.	.	16b-\	.	.	.	.	.	.
.	.	.	.	.	16gg\JJ	.	.	.	.	.	.	.	16a\JJ	.	.	.	.	.	.
!	!	!	!	!	!	!	!LO:LB:g=original	!	!	!	!	!	!	!	!	!	!	!	!
8E\L	8g\L	.	8gg\L	.	8bb-\L	.	4C/	hanc	4e\	hanc	4g\	hanc	4b-\	hanc	8g\L	8b-\L	.	8bb-\L	.
8C\	8e\	.	8ee\J	.	8gg\J	.	.	.	.	.	.	.	.	.	8c\J	8g\J	.	8gg\	.
8E\	8g\	.	4r	.	4r	.	4c\	con-	4e\	Con-	4g\	con-	4b-\	con-	4c/	4g\	.	8gg\	.
8C\J	8e\J	.	.	.	.	.	.	.	.	.	.	.	.	.	.	.	.	8aa\J	.
=76	=76	=76	=76	=76	=76	=76	=76	=76	=76	=76	=76	=76	=76	=76	=76	=76	=76	=76	=76
4c\	8g\L	.	4b-\	.	4gg\	.	4c\	-de-	4e\	-de-	4g\	-de-	4b-\	-de-	2r	2r	1ryy	4gg\	.
.	8g\	.	.	.	.	.	.	.	.	.	.	.	.	.	.	.	.	.	.
4C/	8g\	.	16cc\LL	.	16aa\LL	.	4C/	-co-	4e\	-co-	16a\LL	-co-	4b-\	-co-	.	.	.	4r	.
.	.	.	16b-\	.	16gg\	.	.	.	.	.	16g\	.	.	.	.	.	.	.	.
.	8g\J	.	16a\	.	16ff\	.	.	.	.	.	16f\	.	.	.	.	.	.	.	.
.	.	.	16g\JJ	.	16ee\JJ	.	.	.	.	.	16e\JJ	.	.	.	.	.	.	.	.
4F\	4a\	.	8a\L	.	8ff\L	.	4F\	-ra-	4c\	-ra-	4f\	-ra-	4a\	-ra-	4f\	4a\	.	2r	.
.	.	.	8a\	.	8cc\	.	.	.	.	.	.	.	.	.	.	.	.	.	.
4FF/	4a\	.	8cc\	.	8ff\	.	4F\	-te	4c\	-te	4f\	-te	4a\	-te	4f\	4a\	.	.	.
.	.	.	8ee\J	.	8aa\J	.	.	.	.	.	.	.	.	.	.	.	.	.	.
=77	=77	=77	=77	=77	=77	=77	=77	=77	=77	=77	=77	=77	=77	=77	=77	=77	=77	=77	=77
!	!	!	!	!	!	!	!	!	!	!	!	!	!LO:SIC:s=4cc:v	!	!	!	!	!	!
8F\L	8a\L	.	4aa\	.	4ccc\	.	4F\	di-	4c\	di-	4a\	di-	4b-\	di-	00r	00r	1ryy	2r	.
8C\	8f\	.	.	.	.	.	.	.	.	.	.	.	.	.	.	.	.	.	.
8F\	8a\	.	16bb-\LL	.	16ddd\LL	.	4F\	-em	4f\	-em	4a\	-em	16ff\LL	-em	.	.	.	.	.
.	.	.	16aa\	.	16ccc\	.	.	.	.	.	.	.	16cc\JJ	.	.	.	.	.	.
8C\J	8f\J	.	16gg\	.	16bb-\	.	.	.	.	.	.	.	16b-\LL	.	.	.	.	.	.
.	.	.	16ff\JJ	.	16aa\JJ	.	.	.	.	.	.	.	16a\JJ	.	.	.	.	.	.
8E\L	8g\L	.	8gg\L	.	8bb-\L	.	4E\	hanc	4e\	hanc	4g\	hanc	4b-\	hanc	.	.	.	8bb-\L	.
8C\	8e\	.	8ee\J	.	8gg\J	.	.	.	.	.	.	.	.	.	.	.	.	8gg\	.
8E\	8g\	.	4r	.	4r	.	4C\	con-	4e\	Con-	4g\	con-	4b-\	con-	.	.	.	8gg\	.
8C\J	8e\J	.	.	.	.	.	.	.	.	.	.	.	.	.	.	.	.	8aa\J	.
=78	=78	=78	=78	=78	=78	=78	=78	=78	=78	=78	=78	=78	=78	=78	=78	=78	=78	=78	=78
4c\	8g\L	.	4b-\	.	4gg\	.	4c\	-de-	4e\	-de-	4g\	-de-	4b-\	-de-	.	.	1ryy	4gg\	.
.	8g\	.	.	.	.	.	.	.	.	.	.	.	.	.	.	.	.	.	.
4C/	8g\	.	16cc\LL	.	16aa\LL	.	4C/	-co-	4e\	-co-	16a\LL	-co-	4b-\	-co-	.	.	.	4r	.
.	.	.	16b-\	.	16gg\	.	.	.	.	.	16g\	.	.	.	.	.	.	.	.
.	8g\J	.	16a\	.	16ff\	.	.	.	.	.	16f\	.	.	.	.	.	.	.	.
.	.	.	16g\JJ	.	16ee\JJ	.	.	.	.	.	16e\JJ	.	.	.	.	.	.	.	.
4F\	4a\	.	8a\L	.	8ff\L	.	4F\	-ra-	4c\	-ra-	4f\	-ra-	4a\	-ra-	.	.	.	2r	.
.	.	.	8a\	.	8cc\	.	.	.	.	.	.	.	.	.	.	.	.	.	.
4FF/	4a\	.	8cc\	.	8ff\	.	4F\	-te	4c\	-te	4f\	-te	4a\	-te	.	.	.	.	.
.	.	.	8ee\J	.	8aa\J	.	.	.	.	.	.	.	.	.	.	.	.	.	.
!	!	!	!	!	!	!	!	!	!	!	!LO:LB:g=original	!	!	!	!	!	!	!	!
=79	=79	=79	=79	=79	=79	=79	=79	=79	=79	=79	=79	=79	=79	=79	=79	=79	=79	=79	=79
!	!	!	!	!	!	!	!	!	!	!	!	!	!	!	!	!	!	!LO:TX:a:t=P:znak początku repetycji:problem	!
8F\L	8a\L	.	8aa\L	.	8ccc\L	.	8F\L	con-	4f\	Con-	4a\	con-	4cc\	con-	.	.	1ryy	1r	.
8G\	8a\	.	8aa\	.	8ccc\	.	8G\J	.	.	.	.	.	.	.	.	.	.	.	.
8A\	8a\	.	8gg\	.	8bb-\	.	8A\	-de-	8f\	-de-	8a\	-de-	16ff\LL	-de-	.	.	.	.	.
.	.	.	.	.	.	.	.	.	.	.	.	.	16cc\JJ	.	.	.	.	.	.
8B-\J	8a\J	.	8ff\J	.	8aa\J	.	8B-\	-co-	8f\	-co-	16g\LL	-co-	16b-\LL	-co-	.	.	.	.	.
.	.	.	.	.	.	.	.	.	.	.	16f\JJ	.	16a\JJ	.	.	.	.	.	.
8c\L	4g\	.	8ff\L	.	8aa\L	.	8c\	-ra-	8c\	-ra-	8f\	-ra-	8g\	-ra-	.	.	.	.	.
8G\	.	.	8ee\J	.	8gg\J	.	8C/	-te	8c\	-te	8e\	-te	8g\	-te	.	.	.	.	.
8E\	4r	.	4r	.	4r	.	4r	.	4r	.	4r	.	4r	.	.	.	.	.	.
8C\J	.	.	.	.	.	.	.	.	.	.	.	.	.	.	.	.	.	.	.
!	!	!	!LO:LB:g=original	!	!	!	!	!	!	!	!	!	!LO:LB:g=original	!	!	!	!	!LO:LB:g=original	!
=80	=80	=80	=80	=80	=80	=80	=80	=80	=80	=80	=80	=80	=80	=80	=80	=80	=80	=80	=80
!	!	!	!	!	!	!	!LO:SIC:s=et:v	!	!	!	!	!	!	!	!	!	!	!	!
8F\L	8f\L	.	16aa\LL	.	16ccc\LL	.	4F\	ex	4c\	et	(>8cc\	et	4ff\	et	.	.	1ryy	2ff\	.
.	.	.	16ff\	.	16aa\	.	.	.	.	.	.	.	.	.	.	.	.	.	.
8C\	8c\	.	16ff\	.	16aa\	.	.	.	.	.	4a\)	.	.	.	.	.	.	.	.
.	.	.	16aa\JJ	.	16ccc\JJ	.	.	.	.	.	.	.	.	.	.	.	.	.	.
8F\	8f\	.	4aa\	.	4ccc\	.	4C/	ma-	4c\	ma-	.	.	4ff\	Ma-	.	.	.	.	.
8C\J	8c\J	.	.	.	.	.	.	.	.	.	8cc\	ma-	.	.	.	.	.	.	.
8E\L	8e\L	.	8gg\	.	8bb-\	.	4E/	-ri-	4c\	-ri-	(>8b-\	-ri-	4ee\	-ri-	.	.	.	2ee\	.
8C\	8c\	.	4ee\	.	4gg\	.	.	.	.	.	4g\)	.	.	.	.	.	.	.	.
8E\	8e\	.	.	.	.	.	4C/	-am	4c\	-am	.	.	4ee\	-am	.	.	.	.	.
8C\J	8c\J	.	8gg\	.	8bb-\	.	.	.	.	.	8b-\	-am	.	.	.	.	.	.	.
!	!	!	!	!	!	!	!	!	!	!	!	!	!	!	!	!	!	!LO:TX:a:t=P:znak końca repetycji:problem	!
!LO:LB:g=original	!	!	!	!	!LO:LB:g=original	!	!LO:LB:g=original	!	!	!	!	!	!	!	!	!	!	!	!
=81	=81	=81	=81	=81	=81	=81	=81	=81	=81	=81	=81	=81	=81	=81	=81	=81	=81	=81	=81
*	*	*	*	*	*	*	*	*	*	*	*	*	*	*	*	*	*	*rep	*
!	!	!	!	!	!	!	!	!	!	!	!	!	!	!	!	!	!	!LO:TX:a:t=P:powtórzenie taktów oznaczone znakami repetycji:problem	!
8F\L	8f\L	.	16aa\LL	.	16ccc\LL	.	4F\	col-	4c\	et	(>8cc\	et	4ff\	et	0r	0r	1ryy	1r	.
.	.	.	16ff\	.	16aa\	.	.	.	.	.	.	.	.	.	.	.	.	.	.
8C\	8c\	.	16ff\	.	16aa\	.	.	.	.	.	4a\)	.	.	.	.	.	.	.	.
.	.	.	16aa\JJ	.	16ccc\JJ	.	.	.	.	.	.	.	.	.	.	.	.	.	.
8F\	8f\	.	4aa\	.	4ccc\	.	4C/	-lau-	4c\	ma-	.	.	4ff\	ma-	.	.	.	.	.
8C\J	8c\J	.	.	.	.	.	.	.	.	.	8cc\	ma-	.	.	.	.	.	.	.
8E\L	8e\L	.	8gg\	.	8bb-\	.	4E/	-da-	4c\	-ri-	(>8b-\	-ri-	4ee\	-ri-	.	.	.	.	.
8C\	8c\	.	4ee\	.	4gg\	.	.	.	.	.	4g\)	.	.	.	.	.	.	.	.
8E\	8e\	.	.	.	.	.	4C/	-te	4c\	-am	.	.	4ee\	-am	.	.	.	.	.
8C\J	8c\J	.	8gg\	.	8bb-\	.	.	.	.	.	8b-\	-am	.	.	.	.	.	.	.
!	!	!	!	!	!	!	!	!	!LO:LB:g=original	!	!	!	!	!	!	!	!	!	!
=82	=82	=82	=82	=82	=82	=82	=82	=82	=82	=82	=82	=82	=82	=82	=82	=82	=82	=82	=82
8F\L	8f\L	.	16aa\LL	.	16ccc\LL	.	4F\	col-	4c\	col-	8cc\	col-	4ff\	col-	.	.	1ryy	2ff\	.
.	.	.	16ff\	.	16aa\	.	.	.	.	.	.	.	.	.	.	.	.	.	.
8C\	8c\	.	16ff\	.	16aa\	.	.	.	.	.	4a\	.	.	.	.	.	.	.	.
.	.	.	16aa\JJ	.	16ccc\JJ	.	.	.	.	.	.	.	.	.	.	.	.	.	.
8F\	8f\	.	4aa\	.	4ccc\	.	4C/	-lau-	4c\	-lau-	.	.	4ff\	-lau-	.	.	.	.	.
8C\J	8c\J	.	.	.	.	.	.	.	.	.	8cc\	-lau-	.	.	.	.	.	.	.
8E\L	8e\L	.	8gg\	.	8bb-\	.	(<4E/	-da-	2c\	-da-	8b-\	-da-	2ee\	-da-	.	.	.	2ee\	.
8C\	8c\	.	4ee\	.	4gg\	.	.	.	.	.	4g\	.	.	.	.	.	.	.	.
8E\	8e\	.	.	.	.	.	4C/)	.	.	.	.	.	.	.	.	.	.	.	.
8C\J	8c\J	.	8gg\	.	8bb-\	.	.	.	.	.	8b-\	.	.	.	.	.	.	.	.
*	*	*	*	*	*	*	*	*	*	*	*	*	*	*	*	*	*	*Xrep	*
!	!	!	!	!	!	!	!	!	!	!	!LO:LB:g=original	!	!	!	!	!	!	!	!
=83	=83	=83	=83	=83	=83	=83	=83	=83	=83	=83	=83	=83	=83	=83	=83	=83	=83	=83	=83
4F\	8f\L	.	4ff\	.	4aa\	.	4F\	-te	4c\	-te	4a\	-te	4ff\	-te	1r	1r	1ryy	4ff\	.
.	8f\	.	.	.	.	.	.	.	.	.	.	.	.	.	.	.	.	.	.
!	!	!	!	!	!LO:TX:a:t=P:mixed beam:problem	!	!	!	!	!	!	!	!	!	!	!	!	!LO:TX:a:t=P:mixed beam:problem	!
4F\	8a\	.	8f/L	.	8f/L	.	4r	.	4r	.	4r	.	4r	.	.	.	.	8f/L	.
.	8a\J	.	8a/J	.	8ff\J	.	.	.	.	.	.	.	.	.	.	.	.	8ff\J	.
4A\	8f\L	.	8a/	.	8ff\L	.	2r	.	2r	.	2r	.	2r	.	.	.	.	8ff\L	.
.	8f\	.	4a/	.	8cc\	.	.	.	.	.	.	.	.	.	.	.	.	8cc\	.
4F\	8a\	.	.	.	8cc\	.	.	.	.	.	.	.	.	.	.	.	.	8cc\	.
.	8a\J	.	8f/	.	8a\J	.	.	.	.	.	.	.	.	.	.	.	.	8a\J	.
=84	=84	=84	=84	=84	=84	=84	=84	=84	=84	=84	=84	=84	=84	=84	=84	=84	=84	=84	=84
!LO:TX:a:t=P:mixed beam:problem	!	!	!	!	!	!	!	!	!	!	!	!	!	!	!	!	!	!	!
8B-\L	4b-X\	.	4b-\	.	4dd\	.	4r	.	4r	.	4r	.	4r	.	4r	4r	1ryy	4dd\	.
8BB-/	.	.	.	.	.	.	.	.	.	.	.	.	.	.	.	.	.	.	.
8B-\	4b-\	.	16gg\LL	.	16bb-\LL	.	4B-\	col-	4e\	Lau-	4b-\	col-	4gg\	col-	4g\	4cc\	.	4gg\	.
.	.	.	16ee\	.	16gg\	.	.	.	.	.	.	.	.	.	.	.	.	.	.
8B-\J	.	.	16ee\	.	16gg\	.	.	.	.	.	.	.	.	.	.	.	.	.	.
.	.	.	16cc\JJ	.	16ee\JJ	.	.	.	.	.	.	.	.	.	.	.	.	.	.
!LO:TX:a:t=P:mixed beam:problem	!LO:TX:a:t=P:mixed beam:problem	!	!	!	!	!	!LO:TX:a:t=P:mixed beam:problem	!	!	!	!	!	!	!	!	!	!	!	!
8A\L	8a\L	.	8a/L	.	8ff\L	.	8A\L	-lau-	2c\	-da-	4a\	-lau-	4ff\	-lau-	4g\	4b-\	.	4ff\	.
8B-\	8b-\	.	8b-/J	.	8dd\J	.	8B-\	.	.	.	.	.	.	.	.	.	.	.	.
8c\	8cc\	.	16a/LL	.	16cc\LL	.	(>8c\	-da-	.	.	4g\	-da-	4ee\	-da-	4c/	4g\	.	4ee\	.
.	.	.	16g/	.	16b-\	.	.	.	.	.	.	.	.	.	.	.	.	.	.
8C/J	8c/J	.	16f/	.	16a\	.	8C/J)	.	.	.	.	.	.	.	.	.	.	.	.
.	.	.	16e/JJ	.	16g\JJ	.	.	.	.	.	.	.	.	.	.	.	.	.	.
=85	=85	=85	=85	=85	=85	=85	=85	=85	=85	=85	=85	=85	=85	=85	=85	=85	=85	=85	=85
4F\	4f\	.	4f/	.	4f/	.	4F\	-te	4c\	-te	4a\	-te	4ff\	-te	4A/	4f\	1ryy	4ff\	.
!	!	!	!	!	!LO:TX:a:t=P:mixed beam:problem	!	!	!	!	!	!	!	!	!	!	!	!	!LO:TX:a:t=P:mixed beam:problem	!
4F\	4a\	.	8f/L	.	8f/L	.	4r	.	4r	.	4r	.	4r	.	4r	4r	.	8f/L	.
.	.	.	8a/J	.	8ff\J	.	.	.	.	.	.	.	.	.	.	.	.	8ff\J	.
4A\	4f\	.	8a/	.	8ff\L	.	2r	.	2r	.	2r	.	2r	.	2r	2r	.	8ff\L	.
.	.	.	4a/	.	8cc\	.	.	.	.	.	.	.	.	.	.	.	.	8cc\	.
4F\	4a\	.	.	.	8cc\	.	.	.	.	.	.	.	.	.	.	.	.	8cc\	.
.	.	.	8f/	.	8a\J	.	.	.	.	.	.	.	.	.	.	.	.	8a\J	.
!	!	!	!LO:LB:g=original	!	!	!	!	!	!	!	!	!	!LO:LB:g=original	!	!	!	!	!	!
=86	=86	=86	=86	=86	=86	=86	=86	=86	=86	=86	=86	=86	=86	=86	=86	=86	=86	=86	=86
4B-\	4b-\	.	4b-\	.	4dd\	.	4r	.	4r	.	4r	.	4r	.	4r	4r	1ryy	4dd\	.
8B-\L	4b-\	.	16gg\LL	.	16bb-\LL	.	4B-\	col-	4e\	Lau-	4b-\	col-	4gg\	col-	4g\	4cc\	.	4gg\	.
.	.	.	16ee\	.	16gg\	.	.	.	.	.	.	.	.	.	.	.	.	.	.
8B-\J	.	.	16ee\	.	16gg\	.	.	.	.	.	.	.	.	.	.	.	.	.	.
.	.	.	16cc\JJ	.	16ee\JJ	.	.	.	.	.	.	.	.	.	.	.	.	.	.
!LO:TX:a:t=P:mixed beam:problem	!LO:TX:a:t=P:mixed beam:problem	!	!	!	!	!	!LO:TX:a:t=P:mixed beam:problem	!	!	!	!	!	!	!	!	!	!	!	!
8A\L	8a\L	.	8a/L	.	8ff\L	.	8A\L	-lau-	2c\	-da-	4a\	-lau-	4ff\	-lau-	4g\	4b-\	.	4ff\	.
8B-\	8b-\	.	8b-/J	.	8dd\J	.	8B-\	.	.	.	.	.	.	.	.	.	.	.	.
8c\	8cc\	.	16a/LL	.	16cc\LL	.	(>8c\	-da-	.	.	4g\	-da-	4ff\	-da-	4c/	4g\	.	4ee\	.
.	.	.	16g/	.	16b-\	.	.	.	.	.	.	.	.	.	.	.	.	.	.
8C/J	8c/J	.	16f/	.	16a\	.	8C/J)	.	.	.	.	.	.	.	.	.	.	.	.
.	.	.	16e/JJ	.	16g\JJ	.	.	.	.	.	.	.	.	.	.	.	.	.	.
=87	=87	=87	=87	=87	=87	=87	=87	=87	=87	=87	=87	=87	=87	=87	=87	=87	=87	=87	=87
8F\L	8f\L	.	8f/L	.	8f/L	.	4F\	-te	4c\	-te	4a\	-te	4ff\	-te	8A/L	8f\L	1ryy	8ff\L	.
8F\	8f\	.	8a/	.	8ff 8a 8f/	.	.	.	.	.	.	.	.	.	16f/L	16a\L	.	16ff\L	.
.	.	.	.	.	.	.	.	.	.	.	.	.	.	.	16f/JJ	16a\JJ	.	16ff\JJ	.
!	!	!	!	!	!	!	!	!	!	!	!	!	!	!	!	!LO:LB:g=original	!	!	!
8C\	8c\	.	8a/	.	8ff 8a 8f/	.	4r	.	4r	.	4r	.	4r	.	8f/L	8a\L	.	8ff\L	.
8AA\J	8A\J	.	8a/J	.	8ffJ 8a 8f/	.	.	.	.	.	.	.	.	.	8f/J	8a\J	.	8ff\J	.
2FF/	2F/	.	2a/	.	2ff 2a 2f/	.	2r	.	2r	.	2r	.	2r	.	2f\	2a;>\	.	2ff\	.
!	!	!	!	!	!	!	!	!	!	!	!	!	!	!	!LO:TX:a:t=P:w źródle skreślone takty; pomyłka skryptora:problem	!LO:TX:a:t=P:w źródle skreślone takty; pomyłka skryptora:problem	!	!LO:TX:a:t=P:w źródle skreślone takty; pomyłka skryptora:problem	!
!	!	!	!	!	!	!	!	!	!	!	!	!	!LO:TX:a:t=P:w źródle dwie fermaty na kresce taktowej odpowiadające najprawdopodobniej za znak segno:problem	!	!LO:TX:a:t=P:w źródle dwie fermaty na kresce taktowej odpowiadające najprawdopodobniej za znak segno:problem	!	!	!	!
!LO:LB:g=original	!	!	!LO:LB:g=original	!	!LO:LB:g=original	!	!LO:LB:g=original	!	!	!	!	!	!LO:LB:g=original	!	!LO:LB:g=original	!LO:LB:g=original	!	!LO:LB:g=original	!
=||	=	=	=;>	=	=;>	=	=	=	=;>	=	=	=	=;>;<	=	=||;>;<	=	=||	=;>	=
!	!LO:TX:t=[segno]:problem:znak segno na kresce taktowej	!	!	!	!	!	!	!	!	!	!	!	!	!	!	!	!	!	!
*k[b-e-]	*k[b-e-]	*	*k[b-e-]	*	*k[b-e-]	*	*k[b-e-]	*	*k[b-e-]	*	*k[b-e-]	*	*k[b-e-]	*	*k[b-e-]	*k[b-e-]	*k[b-e-]	*k[b-e-]	*
*M3/8	*M3/8	*	*M3/8	*	*M3/8	*	*M3/8	*	*M3/8	*	*M3/8	*	*M3/8	*	*M3/8	*M3/8	*M3/8	*M3/8	*
!	!	!	!	!	!	!	!	!	!	!	!	!	!LO:SIC:o=19:v:t=możliwa pomyłka skryptora	!	!	!	!	!	!
!LO:TX:a:t=P:w źródle bemol B- złączony z kluczem:problem	!	!	!	!	!	!	!	!	!LO:TX:a:t=P:w źródle kolejność bemoli B- E-:problem	!	!	!	!	!	!	!	!	!	!
!LO:TX:a:Bi:t=Andante	!LO:TX:a:Bi:t=Adagio Tacet	!	!	!	!LO:TX:a:i:t=Andante	!	!LO:TX:a:i:t=Andante Tacet	!	!LO:TX:a:i:t=Tacet	!	!LO:TX:a:i:t=Andante Tacet	!	!LO:TX:a:t=P:w źródle kolejność bemoli e-, b-:problem	!	!LO:TX:a:Bi:t=Andante Tacet	!LO:TX:a:Bi:t=Andante Tacet	!	!LO:TX:a:i:t=Andante Pia Solo	!
!	!	!	!	!	!	!	!	!	!	!	!	!	!	!	!	!	!	!LO:N:vis=00	!
8r	4.ryy	.	16r	.	16r	.	4.ryy	.	4.ryy	.	4.ryy	.	4g\	O	4.ryy	4.ryy	4.ryy	1.r	.
.	.	.	16d'</LL	.	16b-/LL	.	.	.	.	.	.	.	.	.	.	.	.	.	.
!LO:TX:a:t=P:mixed beam:problem	!	!	!	!	!	!	!	!	!	!	!	!	!	!	!	!	!	!	!
8B-\L	.	.	16d'</	.	16b-/	.	.	.	.	.	.	.	.	.	.	.	.	.	.
.	.	.	16d'</	.	16b-/	.	.	.	.	.	.	.	.	.	.	.	.	.	.
8BB-/J	.	.	(<16c/	.	(<16a/	.	.	.	.	.	.	.	16f\LL	Ma-	.	.	.	.	.
.	.	.	16d/JJ)	.	16b-/JJ)	.	.	.	.	.	.	.	16g\JJ	.	.	.	.	.	.
=88	=88	=88	=88	=88	=88	=88	=88	=88	=88	=88	=88	=88	=88	=88	=88	=88	=88	=88	=88
8r	4.ryy	.	16r	.	16r	.	4.ryy	.	4.ryy	.	4.ryy	.	4cc\	-ri-	4.ryy	4.ryy	4.ryy	.	.
.	.	.	16a'</LL	.	16cc\LL	.	.	.	.	.	.	.	.	.	.	.	.	.	.
8A\L	.	.	16a'</	.	16cc\	.	.	.	.	.	.	.	.	.	.	.	.	.	.
.	.	.	16a'</	.	16cc\	.	.	.	.	.	.	.	.	.	.	.	.	.	.
8F\J	.	.	(<16g/	.	(>16b-\	.	.	.	.	.	.	.	16b-\LL	-a	.	.	.	.	.
.	.	.	16a/JJ)	.	16cc\JJ)	.	.	.	.	.	.	.	16cc\JJ	.	.	.	.	.	.
=89	=89	=89	=89	=89	=89	=89	=89	=89	=89	=89	=89	=89	=89	=89	=89	=89	=89	=89	=89
8B-\L	4.ryy	.	8b-\L	.	8dd\L	.	4.ryy	.	4.ryy	.	4.ryy	.	8dd\L	fe-	4.ryy	4.ryy	4.ryy	.	.
8A\	.	.	8cc\J	.	8ee-\J	.	.	.	.	.	.	.	8ee-\J	.	.	.	.	.	.
!	!	!	!	!	!LO:TUP:a:problem:klamra łukowa	!	!	!	!	!	!	!	!	!	!	!	!	!	!
8B-\J	.	.	16dd\LL	.	24ff\LL	.	.	.	.	.	.	.	16ff\LL	-lix	.	.	.	.	.
.	.	.	.	.	24bb-\	.	.	.	.	.	.	.	.	.	.	.	.	.	.
.	.	.	16ee-\JJ	.	.	.	.	.	.	.	.	.	16gg\JJ	.	.	.	.	.	.
.	.	.	.	.	24gg\JJ	.	.	.	.	.	.	.	.	.	.	.	.	.	.
=90	=90	=90	=90	=90	=90	=90	=90	=90	=90	=90	=90	=90	=90	=90	=90	=90	=90	=90	=90
.	.	.	8qqdd/	.	8qqff/	.	.	.	.	.	.	.	8qqff/	.	.	.	.	.	.
8F\L	4.ryy	.	8cc\L	.	8ee-\L	.	4.ryy	.	4.ryy	.	4.ryy	.	8ee-\	vi-	4.ryy	4.ryy	4.ryy	.	.
8C\	.	.	16b-\L	.	16dd\L	.	.	.	.	.	.	.	8dd\	-a	.	.	.	.	.
.	.	.	16a\J	.	16cc\J	.	.	.	.	.	.	.	.	.	.	.	.	.	.
8D\J	.	.	8b-\J	.	8dd\J	.	.	.	.	.	.	.	8r	.	.	.	.	.	.
=91	=91	=91	=91	=91	=91	=91	=91	=91	=91	=91	=91	=91	=91	=91	=91	=91	=91	=91	=91
!	!	!	!LO:N:vis=00	!	!LO:N:vis=00	!	!	!	!	!	!	!	!	!	!	!	!	!	!
4E-\	4.ryy	.	1.r	.	1.r	.	4.ryy	.	4.ryy	.	4.ryy	.	8cc\L	pan-	4.ryy	4.ryy	4.ryy	8cc\L	.
.	.	.	.	.	.	.	.	.	.	.	.	.	8gg\J	.	.	.	.	8gg\	.
8r	.	.	.	.	.	.	.	.	.	.	.	.	8ff\	-dis	.	.	.	8ff\J	.
=92	=92	=92	=92	=92	=92	=92	=92	=92	=92	=92	=92	=92	=92	=92	=92	=92	=92	=92	=92
8F\L	4.ryy	.	.	.	.	.	4.ryy	.	4.ryy	.	4.ryy	.	8.ee-\L	cæ-	4.ryy	4.ryy	4.ryy	8.ee-\L	.
8A\	.	.	.	.	.	.	.	.	.	.	.	.	.	.	.	.	.	.	.
.	.	.	.	.	.	.	.	.	.	.	.	.	16cc\Jk	.	.	.	.	16cc\K	.
8B-\J	.	.	.	.	.	.	.	.	.	.	.	.	8dd\	-li	.	.	.	8dd\J	.
=93	=93	=93	=93	=93	=93	=93	=93	=93	=93	=93	=93	=93	=93	=93	=93	=93	=93	=93	=93
4F\	4.ryy	.	.	.	.	.	4.ryy	.	4.ryy	.	4.ryy	.	8.cc\L	a-	4.ryy	4.ryy	4.ryy	8.cc\L	.
.	.	.	.	.	.	.	.	.	.	.	.	.	16b-\Jk	.	.	.	.	16a\K	.
8C\	.	.	.	.	.	.	.	.	.	.	.	.	8b-\	-tri-	.	.	.	8b-\J	.
=94	=94	=94	=94	=94	=94	=94	=94	=94	=94	=94	=94	=94	=94	=94	=94	=94	=94	=94	=94
!LO:TX:a:t=P:mixed beam:problem	!	!	!	!	!	!	!	!	!	!	!	!	!	!	!	!	!	!	!
.	.	.	.	.	.	.	.	.	.	.	.	.	8qqb-/	.	.	.	.	.	.
8F\L	4.ryy	.	.	.	.	.	4.ryy	.	4.ryy	.	4.ryy	.	4a\	-a	4.ryy	4.ryy	4.ryy	8b-\L	.
8FF/J	.	.	.	.	.	.	.	.	.	.	.	.	.	.	.	.	.	8a\J	.
8r	.	.	.	.	.	.	.	.	.	.	.	.	8r	.	.	.	.	8r	.
=95	=95	=95	=95	=95	=95	=95	=95	=95	=95	=95	=95	=95	=95	=95	=95	=95	=95	=95	=95
*	*	*	*	*	*Xtuplet	*	*	*	*	*	*	*	*	*	*	*	*	*	*
!	!	!	!	!	!	!	!	!	!	!	!	!	!	!	!	!	!	!LO:TX:a:B:t=7	!
!	!	!	!	!	!	!	!	!	!	!	!	!	!	!	!	!	!	!LO:N:vis=00	!
8F\L	4.ryy	.	8a\L	.	8cc\L	.	4.ryy	.	4.ryy	.	4.ryy	.	4cc\	da	4.ryy	4.ryy	4.ryy	1.r	.
8F\J	.	.	8a\J	.	8cc\J	.	.	.	.	.	.	.	.	.	.	.	.	.	.
!	!	!	!LO:TUP:a:problem:klamra łukowa	!	!	!	!	!	!	!	!	!	!LO:TUP:a:problem:klamra łukowa	!	!	!	!	!	!
8r	.	.	24a\LL	.	24ff\LL	.	.	.	.	.	.	.	24ff\LL	post	.	.	.	.	.
.	.	.	24cc\	.	24een\	.	.	.	.	.	.	.	24een\	.	.	.	.	.	.
.	.	.	24b-\JJ	.	24dd\JJ	.	.	.	.	.	.	.	24dd\JJ	.	.	.	.	.	.
*	*	*	*	*	*tuplet	*	*	*	*	*	*	*	*	*	*	*	*	*	*
=96	=96	=96	=96	=96	=96	=96	=96	=96	=96	=96	=96	=96	=96	=96	=96	=96	=96	=96	=96
!	!	!	!	!	!	!	!	!	!	!	!	!	!LO:N:vis=8.	!	!	!	!	!	!
8F\L	4.ryy	.	8a/L	.	8cc\L	.	4.ryy	.	4.ryy	.	4.ryy	.	8cc\	mun-	4.ryy	4.ryy	4.ryy	.	.
8A\	.	.	8a/	.	16ff\L	.	.	.	.	.	.	.	16ff\LL	-di	.	.	.	.	.
.	.	.	.	.	16cc\	.	.	.	.	.	.	.	16cc\JJ	.	.	.	.	.	.
8F\J	.	.	16f/L	.	16a\	.	.	.	.	.	.	.	16a\LL	an-	.	.	.	.	.
.	.	.	16a/JJ	.	16cc\JJ	.	.	.	.	.	.	.	16cc\JJ	.	.	.	.	.	.
!	!	!	!	!	!	!	!	!	!	!	!	!	!LO:LB:g=original	!	!	!	!	!	!
=97	=97	=97	=97	=97	=97	=97	=97	=97	=97	=97	=97	=97	=97	=97	=97	=97	=97	=97	=97
!LO:TX:a:t=P:mixed beam:problem	!	!	!	!	!	!	!	!	!	!	!	!	!	!	!	!	!	!	!
.	.	.	8qqa/	.	8qqcc/	.	.	.	.	.	.	.	8qqcc/	.	.	.	.	.	.
8C\L	4.ryy	.	8g/L	.	8b-/L	.	4.ryy	.	4.ryy	.	4.ryy	.	8b-\	-go-	4.ryy	4.ryy	4.ryy	.	.
8F\	.	.	8f/J	.	8a/J	.	.	.	.	.	.	.	8a\	-res	.	.	.	.	.
8FF/J	.	.	8r	.	8r	.	.	.	.	.	.	.	8r	.	.	.	.	.	.
=98	=98	=98	=98	=98	=98	=98	=98	=98	=98	=98	=98	=98	=98	=98	=98	=98	=98	=98	=98
8En\L	4.ryy	.	16en/LL	.	16cc\LL	.	4.ryy	.	4.ryy	.	4.ryy	.	4cc\	de-	4.ryy	4.ryy	4.ryy	.	.
.	.	.	16e/	.	16cc\	.	.	.	.	.	.	.	.	.	.	.	.	.	.
8C\	.	.	16e/	.	16cc\	.	.	.	.	.	.	.	.	.	.	.	.	.	.
.	.	.	16e/JJ	.	16cc\	.	.	.	.	.	.	.	.	.	.	.	.	.	.
!	!	!	!LO:SIC:s=16een:v	!	!	!	!	!	!	!	!	!	!	!	!	!	!	!	!
8E\J	.	.	16ee-\LL	.	16gg\	.	.	.	.	.	.	.	8gg\	-tur	.	.	.	.	.
!	!	!	!LO:SIC:s=16een:v	!	!	!	!	!	!	!	!	!	!	!	!	!	!	!	!
.	.	.	16ee-\JJ	.	16gg\JJ	.	.	.	.	.	.	.	.	.	.	.	.	.	.
=99	=99	=99	=99	=99	=99	=99	=99	=99	=99	=99	=99	=99	=99	=99	=99	=99	=99	=99	=99
!	!	!	!	!	!	!	!	!	!	!	!	!	!	!	!	!	!	!LO:N:vis=0	!
8F\L	4.ryy	.	8ff\L	.	8aa\L	.	4.ryy	.	4.ryy	.	4.ryy	.	8aa\L	cæ-	4.ryy	4.ryy	4.ryy	2.r	.
8G\	.	.	8g\	.	8ee-\	.	.	.	.	.	.	.	8een\J	.	.	.	.	.	.
8A\J	.	.	8a\J	.	8ff\J	.	.	.	.	.	.	.	8ff\	-li	.	.	.	.	.
!	!	!	!LO:LB:g=original	!	!	!	!	!	!	!	!	!	!	!	!	!	!	!	!
=100	=100	=100	=100	=100	=100	=100	=100	=100	=100	=100	=100	=100	=100	=100	=100	=100	=100	=100	=100
!LO:TX:a:t=P:mixed beam:problem	!	!	!	!	!	!	!	!	!	!	!	!	!	!	!	!	!	!	!
8B-\L	4.ryy	.	16a/LL	.	16ff\LL	.	4.ryy	.	4.ryy	.	4.ryy	.	8r	.	4.ryy	4.ryy	4.ryy	.	.
.	.	.	16b-/	.	16dd\	.	.	.	.	.	.	.	.	.	.	.	.	.	.
8c\	.	.	16a/	.	16cc\	.	.	.	.	.	.	.	16dd\LL	glo-	.	.	.	.	.
.	.	.	16g/	.	16b-\	.	.	.	.	.	.	.	16cc\	.	.	.	.	.	.
!	!	!	!	!	!	!	!	!	!	!	!	!	!LO:TUP:a:problem:klamra łukowa	!	!	!	!	!	!
8C/J	.	.	16f/	.	16a\	.	.	.	.	.	.	.	24b-\	-ri-	.	.	.	.	.
.	.	.	.	.	.	.	.	.	.	.	.	.	24a\	.	.	.	.	.	.
!	!	!	!LO:SIC:s=16en:v	!	!	!	!	!	!	!	!	!	!	!	!	!	!	!	!
.	.	.	16e-/JJ	.	16g\JJ	.	.	.	.	.	.	.	.	.	.	.	.	.	.
.	.	.	.	.	.	.	.	.	.	.	.	.	24g\JJ	.	.	.	.	.	.
!LO:LB:g=original	!	!	!	!	!	!	!	!	!	!	!	!	!	!	!	!	!	!	!
=101	=101	=101	=101	=101	=101	=101	=101	=101	=101	=101	=101	=101	=101	=101	=101	=101	=101	=101	=101
.	.	.	.	.	.	.	.	.	.	.	.	.	8qqg/	.	.	.	.	.	.
!	!	!	!	!	!	!	!	!	!	!	!	!	!	!	!	!	!	!LO:N:vis=1	!
8F\L	4.ryy	.	4c/	.	4f/	.	4.ryy	.	4.ryy	.	4.ryy	.	4f/	-a	4.ryy	4.ryy	4.ryy	4.r	.
16F\L	.	.	.	.	.	.	.	.	.	.	.	.	.	.	.	.	.	.	.
16E-X\	.	.	.	.	.	.	.	.	.	.	.	.	.	.	.	.	.	.	.
16D\	.	.	8r	.	8r	.	.	.	.	.	.	.	8r	.	.	.	.	.	.
16C\JJ	.	.	.	.	.	.	.	.	.	.	.	.	.	.	.	.	.	.	.
=102	=102	=102	=102	=102	=102	=102	=102	=102	=102	=102	=102	=102	=102	=102	=102	=102	=102	=102	=102
!LO:TX:a:t=P:mixed beam:problem	!	!	!	!	!	!	!	!	!	!	!	!	!	!	!	!	!	!	!
!	!	!	!LO:N:vis=00	!	!LO:N:vis=00	!	!	!	!	!	!	!	!	!	!	!	!	!	!
8BB-/L	4.ryy	.	1.r	.	1.r	.	4.ryy	.	4.ryy	.	4.ryy	.	4b-\	O	4.ryy	4.ryy	4.ryy	8b-\L	.
8B-\	.	.	.	.	.	.	.	.	.	.	.	.	.	.	.	.	.	8b-\	.
8BB-/J	.	.	.	.	.	.	.	.	.	.	.	.	16a\LL	Ma-	.	.	.	16a\L	.
.	.	.	.	.	.	.	.	.	.	.	.	.	16b-\JJ	.	.	.	.	16b-\JJ	.
=103	=103	=103	=103	=103	=103	=103	=103	=103	=103	=103	=103	=103	=103	=103	=103	=103	=103	=103	=103
8r	4.ryy	.	.	.	.	.	4.ryy	.	4.ryy	.	4.ryy	.	4cc\	-ri-	4.ryy	4.ryy	4.ryy	8cc\L	.
8A\L	.	.	.	.	.	.	.	.	.	.	.	.	.	.	.	.	.	8cc\	.
8F\J	.	.	.	.	.	.	.	.	.	.	.	.	16b-\LL	-a	.	.	.	16b-\L	.
.	.	.	.	.	.	.	.	.	.	.	.	.	16cc\JJ	.	.	.	.	16cc\JJ	.
=104	=104	=104	=104	=104	=104	=104	=104	=104	=104	=104	=104	=104	=104	=104	=104	=104	=104	=104	=104
8B-\L	4.ryy	.	.	.	.	.	4.ryy	.	4.ryy	.	4.ryy	.	8dd\L	fe-	4.ryy	4.ryy	4.ryy	8dd\L	.
8A\	.	.	.	.	.	.	.	.	.	.	.	.	8ee-X\J	.	.	.	.	8ee-\J	.
!	!	!	!	!	!	!	!	!	!	!	!	!	!	!	!	!	!	!LO:TUP:a:problem:klamra łukowa	!
8B-\J	.	.	.	.	.	.	.	.	.	.	.	.	16ff\LL	-lix	.	.	.	24ff\LL	.
.	.	.	.	.	.	.	.	.	.	.	.	.	.	.	.	.	.	24ccc\	.
.	.	.	.	.	.	.	.	.	.	.	.	.	16gg\JJ	.	.	.	.	.	.
.	.	.	.	.	.	.	.	.	.	.	.	.	.	.	.	.	.	24gg\JJ	.
=105	=105	=105	=105	=105	=105	=105	=105	=105	=105	=105	=105	=105	=105	=105	=105	=105	=105	=105	=105
.	.	.	.	.	.	.	.	.	.	.	.	.	8qqff/	.	.	.	.	.	.
8F\L	4.ryy	.	.	.	.	.	4.ryy	.	4.ryy	.	4.ryy	.	8ee-\	vi-	4.ryy	4.ryy	4.ryy	8ee-\L	.
8C\	.	.	.	.	.	.	.	.	.	.	.	.	8dd\	-a	.	.	.	16dd\L	.
.	.	.	.	.	.	.	.	.	.	.	.	.	.	.	.	.	.	16cc\J	.
8D\J	.	.	.	.	.	.	.	.	.	.	.	.	8r	.	.	.	.	8dd\J	.
=106	=106	=106	=106	=106	=106	=106	=106	=106	=106	=106	=106	=106	=106	=106	=106	=106	=106	=106	=106
!	!	!	!	!	!	!	!	!	!	!	!	!	!	!	!	!	!	!LO:N:vis=00	!
4E-\	4.ryy	.	8a\L	.	8cc\L	.	4.ryy	.	4.ryy	.	4.ryy	.	8cc\L	pan-	4.ryy	4.ryy	4.ryy	1.r	.
.	.	.	8ee-X\	.	8gg\	.	.	.	.	.	.	.	8gg\J	.	.	.	.	.	.
8r	.	.	8dd\J	.	8ff\J	.	.	.	.	.	.	.	8ff\	-dis	.	.	.	.	.
!	!	!	!	!	!	!	!	!	!	!	!	!	!LO:LB:g=original	!	!	!	!	!	!
=107	=107	=107	=107	=107	=107	=107	=107	=107	=107	=107	=107	=107	=107	=107	=107	=107	=107	=107	=107
4F\	4.ryy	.	8cc\L	.	8ee-X\L	.	4.ryy	.	4.ryy	.	4.ryy	.	8.ee-X\L	cæ-	4.ryy	4.ryy	4.ryy	.	.
.	.	.	8a\	.	8cc\	.	.	.	.	.	.	.	.	.	.	.	.	.	.
.	.	.	.	.	.	.	.	.	.	.	.	.	16cc\Jk	.	.	.	.	.	.
8B-\	.	.	8b-\J	.	8dd\J	.	.	.	.	.	.	.	8dd\	-li	.	.	.	.	.
!	!	!	!	!	!LO:LB:g=original	!	!	!	!	!	!	!	!	!	!	!	!	!	!
=108	=108	=108	=108	=108	=108	=108	=108	=108	=108	=108	=108	=108	=108	=108	=108	=108	=108	=108	=108
4F\	4.ryy	.	8.a/L	.	8cc\L	.	4.ryy	.	4.ryy	.	4.ryy	.	8.cc\L	at-	4.ryy	4.ryy	4.ryy	.	.
.	.	.	.	.	8a\	.	.	.	.	.	.	.	.	.	.	.	.	.	.
.	.	.	16f/K	.	.	.	.	.	.	.	.	.	16a\Jk	.	.	.	.	.	.
8C\	.	.	8g/J	.	8cc\J	.	.	.	.	.	.	.	8b-\	-ri-	.	.	.	.	.
=109	=109	=109	=109	=109	=109	=109	=109	=109	=109	=109	=109	=109	=109	=109	=109	=109	=109	=109	=109
!LO:TX:a:t=P:mixed beam:problem	!	!	!	!	!	!	!	!	!	!	!	!	!	!	!	!	!	!	!
.	.	.	8qqg/	.	8qqb-/	.	.	.	.	.	.	.	8qqb-/	.	.	.	.	.	.
8F\L	4.ryy	.	4f/	.	4a/	.	4.ryy	.	4.ryy	.	4.ryy	.	4a\	-a	4.ryy	4.ryy	4.ryy	.	.
8FF/J	.	.	.	.	.	.	.	.	.	.	.	.	.	.	.	.	.	.	.
!	!	!	!	!	!LO:TX:a:t=P:pominięty fragment; takt niepełny:problem	!	!	!	!	!	!	!	!	!	!	!	!	!	!
8r	.	.	8r	.	8ryy	.	.	.	.	.	.	.	8r	.	.	.	.	.	.
=110	=110	=110	=110	=110	=110	=110	=110	=110	=110	=110	=110	=110	=110	=110	=110	=110	=110	=110	=110
!	!	!	!LO:N:vis=00	!	!LO:N:vis=00	!	!	!	!	!	!	!	!	!	!	!	!	!	!
8r	4.ryy	.	1.r	.	1.r	.	4.ryy	.	4.ryy	.	4.ryy	.	4ee-\	da	4.ryy	4.ryy	4.ryy	16ee-\LL	.
.	.	.	.	.	.	.	.	.	.	.	.	.	.	.	.	.	.	16ee-\	.
8A\L	.	.	.	.	.	.	.	.	.	.	.	.	.	.	.	.	.	16ee-\	.
.	.	.	.	.	.	.	.	.	.	.	.	.	.	.	.	.	.	16ee-\JJ	.
!	!	!	!	!	!	!	!	!	!	!	!	!	!LO:TUP:a:problem:klamra łukowa	!	!	!	!	!LO:TUP:a:problem:klamra łukowa	!
8F\J	.	.	.	.	.	.	.	.	.	.	.	.	24gg\LL	ut	.	.	.	24gg\LL	.
.	.	.	.	.	.	.	.	.	.	.	.	.	24ff\	.	.	.	.	24ff\	.
.	.	.	.	.	.	.	.	.	.	.	.	.	24ee-\JJ	.	.	.	.	24ee-\JJ	.
!	!	!	!	!	!	!	!	!	!	!	!	!	!	!	!	!	!	!LO:LB:g=original	!
=111	=111	=111	=111	=111	=111	=111	=111	=111	=111	=111	=111	=111	=111	=111	=111	=111	=111	=111	=111
8r	4.ryy	.	.	.	.	.	4.ryy	.	4.ryy	.	4.ryy	.	4dd\	post	4.ryy	4.ryy	4.ryy	16dd\LL	.
.	.	.	.	.	.	.	.	.	.	.	.	.	.	.	.	.	.	16dd\	.
!LO:TX:a:t=P:mixed beam:problem	!	!	!	!	!	!	!	!	!	!	!	!	!	!	!	!	!	!	!
8B-\L	.	.	.	.	.	.	.	.	.	.	.	.	.	.	.	.	.	16cc\	.
.	.	.	.	.	.	.	.	.	.	.	.	.	.	.	.	.	.	16dd\	.
8BB-/J	.	.	.	.	.	.	.	.	.	.	.	.	8r	.	.	.	.	16cc\	.
.	.	.	.	.	.	.	.	.	.	.	.	.	.	.	.	.	.	16dd\JJ	.
=112	=112	=112	=112	=112	=112	=112	=112	=112	=112	=112	=112	=112	=112	=112	=112	=112	=112	=112	=112
8r	4.ryy	.	.	.	.	.	4.ryy	.	4.ryy	.	4.ryy	.	8cc\	mun-	4.ryy	4.ryy	4.ryy	8cc\L	.
8E-\L	.	.	.	.	.	.	.	.	.	.	.	.	8cc\	-di	.	.	.	8cc\J	.
!	!	!	!	!	!	!	!	!	!	!	!	!	!LO:TUP:a:problem:klamra łukowa	!	!	!	!	!LO:TUP:a:problem:klamra łukowa	!
8F\J	.	.	.	.	.	.	.	.	.	.	.	.	24ee-\LL	an-	.	.	.	24ee-\LL	.
.	.	.	.	.	.	.	.	.	.	.	.	.	24dd\	.	.	.	.	24dd\	.
.	.	.	.	.	.	.	.	.	.	.	.	.	24cc\JJ	.	.	.	.	24cc\JJ	.
=113	=113	=113	=113	=113	=113	=113	=113	=113	=113	=113	=113	=113	=113	=113	=113	=113	=113	=113	=113
8B-\L	4.ryy	.	.	.	.	.	4.ryy	.	4.ryy	.	4.ryy	.	16b-\LL	-go-	4.ryy	4.ryy	4.ryy	4b-\	.
.	.	.	.	.	.	.	.	.	.	.	.	.	16f\JJ	.	.	.	.	.	.
8F\	.	.	.	.	.	.	.	.	.	.	.	.	8f\	-res	.	.	.	.	.
8D\J	.	.	.	.	.	.	.	.	.	.	.	.	8r	.	.	.	.	16cc\LL	.
.	.	.	.	.	.	.	.	.	.	.	.	.	.	.	.	.	.	16dd\JJ	.
=114	=114	=114	=114	=114	=114	=114	=114	=114	=114	=114	=114	=114	=114	=114	=114	=114	=114	=114	=114
!	!	!	!LO:N:vis=00	!	!LO:N:vis=00	!	!	!	!	!	!	!	!	!	!	!	!	!	!
8r	4.ryy	.	1.r	.	1.r	.	4.ryy	.	4.ryy	.	4.ryy	.	4ee-\	da	4.ryy	4.ryy	4.ryy	16ee-\LL	.
.	.	.	.	.	.	.	.	.	.	.	.	.	.	.	.	.	.	16ee-\	.
8A\L	.	.	.	.	.	.	.	.	.	.	.	.	.	.	.	.	.	16ee-\	.
.	.	.	.	.	.	.	.	.	.	.	.	.	.	.	.	.	.	16ee-\JJ	.
!	!	!	!	!	!	!	!	!	!	!	!	!	!LO:TUP:a:problem:klamra łukowa	!	!	!	!	!LO:TUP:a:problem:klamra łukowa	!
8F\J	.	.	.	.	.	.	.	.	.	.	.	.	24gg\LL	ut	.	.	.	24gg\LL	.
.	.	.	.	.	.	.	.	.	.	.	.	.	24ff\	.	.	.	.	24ff\	.
.	.	.	.	.	.	.	.	.	.	.	.	.	24ee-\JJ	.	.	.	.	24ee-\JJ	.
!LO:LB:g=original	!	!	!	!	!	!	!	!	!	!	!	!	!	!	!	!	!	!	!
=115	=115	=115	=115	=115	=115	=115	=115	=115	=115	=115	=115	=115	=115	=115	=115	=115	=115	=115	=115
8r	4.ryy	.	.	.	.	.	4.ryy	.	4.ryy	.	4.ryy	.	8dd\	post	4.ryy	4.ryy	4.ryy	16dd\LL	.
.	.	.	.	.	.	.	.	.	.	.	.	.	.	.	.	.	.	16dd\	.
!LO:TX:a:t=P:mixed beam:problem	!	!	!	!	!	!	!	!	!	!	!	!	!	!	!	!	!	!	!
8c\L	.	.	.	.	.	.	.	.	.	.	.	.	8r	.	.	.	.	16cc\	.
.	.	.	.	.	.	.	.	.	.	.	.	.	.	.	.	.	.	16dd\	.
8BB-/J	.	.	.	.	.	.	.	.	.	.	.	.	8r	.	.	.	.	16cc\	.
.	.	.	.	.	.	.	.	.	.	.	.	.	.	.	.	.	.	16dd\JJ	.
!	!	!	!	!	!	!	!	!	!	!	!	!	!LO:LB:g=original	!	!	!	!	!	!
=116	=116	=116	=116	=116	=116	=116	=116	=116	=116	=116	=116	=116	=116	=116	=116	=116	=116	=116	=116
*	*	*	*	*	*	*	*	*	*	*	*	*	*Xtuplet	*	*	*	*	*	*
8r	4.ryy	.	.	.	.	.	4.ryy	.	4.ryy	.	4.ryy	.	8cc\	mun-	4.ryy	4.ryy	4.ryy	8cc\L	.
!	!	!	!	!	!	!	!	!	!	!	!	!	!LO:SIC:o=8.dd:v	!	!	!	!	!	!
8E-\L	.	.	.	.	.	.	.	.	.	.	.	.	8cc\	-di	.	.	.	8cc\J	.
!	!	!	!	!	!	!	!	!	!	!	!	!	!	!	!	!	!	!LO:TUP:a:problem:klamra łukowa	!
8F\J	.	.	.	.	.	.	.	.	.	.	.	.	24ee-\LL	an-	.	.	.	24ee-\LL	.
.	.	.	.	.	.	.	.	.	.	.	.	.	24dd\	.	.	.	.	24dd\	.
.	.	.	.	.	.	.	.	.	.	.	.	.	24cc\JJ	.	.	.	.	24cc\JJ	.
*	*	*	*	*	*	*	*	*	*	*	*	*	*tupelt	*	*	*	*	*	*
=117	=117	=117	=117	=117	=117	=117	=117	=117	=117	=117	=117	=117	=117	=117	=117	=117	=117	=117	=117
!LO:TX:a:t=P:mixed beam:problem	!	!	!	!	!	!	!	!	!	!	!	!	!	!	!	!	!	!	!
8B-\L	4.ryy	.	.	.	.	.	4.ryy	.	4.ryy	.	4.ryy	.	16b-\LL	-go-	4.ryy	4.ryy	4.ryy	8b-\L	.
.	.	.	.	.	.	.	.	.	.	.	.	.	16f\JJ	.	.	.	.	.	.
8BB-/	.	.	.	.	.	.	.	.	.	.	.	.	8f\	-res	.	.	.	8b-\J	.
8D/J	.	.	.	.	.	.	.	.	.	.	.	.	8r	.	.	.	.	8r	.
=118	=118	=118	=118	=118	=118	=118	=118	=118	=118	=118	=118	=118	=118	=118	=118	=118	=118	=118	=118
!	!	!	!	!	!	!	!	!	!	!	!	!	!	!	!	!	!	!LO:TX:a:B:t=3	!
!	!	!	!	!	!	!	!	!	!	!	!	!	!	!	!	!	!	!LO:N:vis=0	!
8E-\L	4.ryy	.	16e-/LL	.	16g/LL	.	4.ryy	.	4.ryy	.	4.ryy	.	4g\	de-	4.ryy	4.ryy	4.ryy	2.r	.
.	.	.	16e-/	.	16g/	.	.	.	.	.	.	.	.	.	.	.	.	.	.
8E-\	.	.	16e-/	.	16g/	.	.	.	.	.	.	.	.	.	.	.	.	.	.
.	.	.	16e-/	.	16g/	.	.	.	.	.	.	.	.	.	.	.	.	.	.
8C\J	.	.	16c/	.	16a/	.	.	.	.	.	.	.	8a\	-tur	.	.	.	.	.
.	.	.	16c/JJ	.	16a/JJ	.	.	.	.	.	.	.	.	.	.	.	.	.	.
=119	=119	=119	=119	=119	=119	=119	=119	=119	=119	=119	=119	=119	=119	=119	=119	=119	=119	=119	=119
!	!	!	!LO:TX:a:t=P:mixed beam:problem	!	!	!	!	!	!	!	!	!	!	!	!	!	!	!	!
4BB-/	4.ryy	.	8d/L	.	8b-\L	.	4.ryy	.	4.ryy	.	4.ryy	.	8b-\L	cæ-	4.ryy	4.ryy	4.ryy	.	.
.	.	.	8b-\	.	8dd\	.	.	.	.	.	.	.	8dd\J	.	.	.	.	.	.
8D/	.	.	8dd\J	.	8ff\J	.	.	.	.	.	.	.	8ff\	-li	.	.	.	.	.
=120	=120	=120	=120	=120	=120	=120	=120	=120	=120	=120	=120	=120	=120	=120	=120	=120	=120	=120	=120
*	*	*	*Xtuplet	*	*Xtuplet	*	*	*	*	*	*	*	*Xtuplet	*	*	*	*	*	*
!LO:TX:a:t=P:mixed beam:problem	!	!	!	!	!	!	!	!	!	!	!	!	!	!	!	!	!	!	!
!	!	!	!	!	!	!	!	!	!	!	!	!	!	!	!	!	!	!LO:N:vis=1	!
8E-\L	4.ryy	.	24ee-\LL	.	24gg\LL	.	4.ryy	.	4.ryy	.	4.ryy	.	24gg\LL	Glo-	4.ryy	4.ryy	4.ryy	4.r	.
.	.	.	24dd\	.	24ff\	.	.	.	.	.	.	.	24ff\	.	.	.	.	.	.
.	.	.	24cc\JJ	.	24ee-\JJ	.	.	.	.	.	.	.	24ee-\JJ	.	.	.	.	.	.
8F\	.	.	8.b-\L	.	8.dd\L	.	.	.	.	.	.	.	8.dd\	.	.	.	.	.	.
8FF/J	.	.	.	.	.	.	.	.	.	.	.	.	.	.	.	.	.	.	.
.	.	.	16a\Jk	.	16cc\Jk	.	.	.	.	.	.	.	16cc\	-ri-	.	.	.	.	.
*	*	*	*tuplet	*	*tuplet	*	*	*	*	*	*	*	*tuplet	*	*	*	*	*	*
=121	=121	=121	=121	=121	=121	=121	=121	=121	=121	=121	=121	=121	=121	=121	=121	=121	=121	=121	=121
!LO:TX:a:t=P:problem:pominięty fragment	!	!	!	!LO:DY:a:t=%sor	!	!	!	!	!	!	!	!	!	!	!	!	!	!	!
4.ryy	4.ryy	.	16b-\LL	f	16b-\LL	.	4.ryy	.	4.ryy	.	4.ryy	.	8b-\	-a	4.ryy	4.ryy	4.ryy	8b-\L	.
.	.	.	16b-\	.	16b-\	.	.	.	.	.	.	.	.	.	.	.	.	.	.
!	!	!	!	!	!	!	!	!	!	!	!	!	!	!	!	!	!	!	!LO:DY:a:t=%s.
.	.	.	16dd\	.	(>16dd\	.	.	.	.	.	.	.	8r	.	.	.	.	8dd\	f
.	.	.	16dd\	.	16dd\	.	.	.	.	.	.	.	.	.	.	.	.	.	.
.	.	.	16ff\	.	16ff\)	.	.	.	.	.	.	.	8r	.	.	.	.	8ff\J	.
.	.	.	16ff\JJ	.	16ff\JJ	.	.	.	.	.	.	.	.	.	.	.	.	.	.
=122	=122	=122	=122	=122	=122	=122	=122	=122	=122	=122	=122	=122	=122	=122	=122	=122	=122	=122	=122
!	!	!	!	!	!LO:TX:a:t=P:mixed beam:problem	!	!	!	!	!	!	!	!	!	!	!	!	!	!
4C/	4.ryy	.	16b-/LL	.	16b-\LL	.	4.ryy	.	4.ryy	.	4.ryy	.	4.b-;>\	glo-	4.ryy	4.ryy	4.ryy	8cc\L	.
.	.	.	16b-/	.	16b-\	.	.	.	.	.	.	.	.	.	.	.	.	.	.
.	.	.	16b-/	.	16dd\	.	.	.	.	.	.	.	.	.	.	.	.	8dd\	.
.	.	.	16b-/	.	16dd\	.	.	.	.	.	.	.	.	.	.	.	.	.	.
8C/	.	.	16c/	.	16en/	.	.	.	.	.	.	.	.	.	.	.	.	8en\J	.
.	.	.	16c/JJ	.	16e/JJ	.	.	.	.	.	.	.	.	.	.	.	.	.	.
=123	=123	=123	=123	=123	=123	=123	=123	=123	=123	=123	=123	=123	=123	=123	=123	=123	=123	=123	=123
!	!	!	!LO:N:vis=4	!	!	!	!	!	!	!	!	!	!	!	!	!	!	!LO:N:vis=4	!
4.F;>\	4.ryy	.	4A.;>/	.	4.f;>/	.	4.ryy	.	4.ryy	.	4.ryy	.	8cc\	.	4.ryy	4.ryy	4.ryy	4f.;>/	.
!	!	!	!	!	!	!	!	!	!	!	!	!	!LO:TX:a:t=t.	!	!	!	!	!	!
.	.	.	.	.	.	.	.	.	.	.	.	.	4cc\	-ri-	.	.	.	.	.
.	.	.	.	.	.	.	.	.	.	.	.	.	.	.	.	.	.	.	.
=124	=124	=124	=124	=124	=124	=124	=124	=124	=124	=124	=124	=124	=124	=124	=124	=124	=124	=124	=124
!	!	!	!LO:TX:a:t=P:problem:pominięty fragment	!	!	!	!	!	!	!	!	!	!	!	!	!	!	!	!
4BB-/	4.ryy	.	4.ryy	.	4.b-/	.	4.ryy	.	4.ryy	.	4.ryy	.	4.b-\	-a	4.ryy	4.ryy	4.ryy	4.r	.
8r	.	.	.	.	.	.	.	.	.	.	.	.	.	.	.	.	.	.	.
*	*	*	*	*	*	*	*	*	*2\left	*	*2\left	*	*2\left	*	*2\left	*2\left	*	*2\left	*
!LO:TX:a:Bi:t=Dacapo	!LO:TX:a:Bi:t=Dacapo alsegno	!	!LO:TX:a:Bi:t=Da Capo	!	!LO:TX:a:Bi:t=Da Capo	!	!LO:TX:a:Bi:t=Dacapo	!	!LO:TX:a:Bi:t=Dacapo	!	!LO:TX:a:Bi:t=Dacapo	!	!LO:TX:a:Bi:t=Dacapo	!	!LO:TX:a:t=Dacapo	!LO:TX:a:t=Dacapo.	!	!LO:TX:a:Bi:t=Da Capo	!
==	==	==	==	==	==	==	==	==	==	==	==	==	==	==	==	==	==	==	==
*-	*-	*-	*-	*-	*-	*-	*-	*-	*-	*-	*-	*-	*-	*-	*-	*-	*-	*-	*-
!!title: @{OTL};
!!!RDF**kern: > = above
!!!RDF**kern: < = below
!!!RDF**kern: i = editorial accidental
!!!ENC: Kamil Watkowski
!!!END: 2020-05-20
!!!EED: Wojciech Jakubiak-Danek
!!!EST: 2020-10-12
!!!URL-scan: http://bc.bdsandomierz.pl/dlibra/publication/1578/edition/1546/content
!!!ONB-nifc: UWAGA: brak partii oboju 2
